P2
# Simple pgm image example
250 360
255
186 184 187 178 168 168 171 180 180 171 157 156 163 184 184 172 180 180 168 165 166 180 165 165 163 156 163 163 169 169 162 168 168 154 153 151 150 150 139 139 144 145 145 145 153 154 175 175 168 154 154 159 175 175 172 154 151 151 148 151 157 156 159 165 172 163 157 154 153 153 160 166 169 162 154 154 159 165 181 169 166 166 168 174 189 189 183 174 172 168 154 154 154 159 157 160 162 160 163 165 159 159 163 163 168 180 172 168 168 168 178 181 183 184 184 184 159 156 160 165 165 163 154 154 162 168 168 168 169 165 165 156 157 171 180 171 166 157 156 154 154 160 154 154 154 168 168 160 157 163 163 160 156 156 160 160 151 150 150 151 151 147 147 148 150 151 160 162 162 159 159 165 159 159 163 163 148 139 139 163 163 148 138 138 141 144 145 141 139 139 141 145 145 145 145 148 150 150 151 150 145 144 144 145 150 150 150 151 147 147 141 141 141 141 144 153 153 150 150 153 162 162 160 159 148 148 148 144 139 138 139 136 136 135 136 138 139 139 136 138 144 151 151 142 142 138 135 136 136 138
193 184 187 180 174 168 169 171 162 159 162 156 157 174 178 172 174 183 175 168 174 180 165 162 159 154 160 165 171 166 157 154 157 157 162 157 154 159 150 148 148 157 157 153 157 154 157 165 160 154 156 163 169 163 157 153 151 150 148 156 156 159 166 169 175 166 162 162 157 162 162 162 169 165 159 162 160 163 181 169 168 169 171 178 183 177 174 174 172 162 159 171 186 175 159 156 160 162 169 175 159 163 171 172 177 189 181 172 172 172 183 184 181 181 183 184 157 157 159 165 162 162 160 165 165 165 157 157 165 163 162 160 159 175 180 172 159 157 160 160 160 159 157 162 160 160 160 156 154 154 162 154 148 151 157 157 151 150 151 151 151 148 148 150 153 154 156 162 162 160 169 171 166 159 162 154 147 141 139 144 151 151 145 141 145 148 148 142 141 142 142 145 145 145 145 148 145 156 159 153 145 144 145 147 151 156 151 151 148 144 144 145 142 141 147 156 151 153 154 157 160 156 153 150 142 141 139 138 136 136 138 135 136 136 133 135 135 136 136 138 141 144 142 138 136 133 132 133 135 136
193 187 178 177 177 183 187 169 162 159 159 163 169 180 183 177 177 183 183 174 180 180 169 165 162 154 160 165 171 171 162 150 150 157 168 160 154 162 163 157 156 160 162 159 162 157 154 157 157 156 156 157 160 156 153 153 162 160 154 162 160 165 177 178 177 165 166 166 165 166 171 165 162 171 169 166 168 168 183 181 178 180 169 169 175 172 172 172 180 175 172 178 193 187 163 165 160 163 171 175 171 171 181 183 189 189 174 168 183 189 187 186 184 184 184 178 163 162 160 165 165 166 169 165 163 163 159 163 168 168 163 174 169 175 181 180 168 165 165 166 171 171 171 160 154 154 156 157 156 156 162 151 148 147 148 150 148 147 150 151 151 150 151 156 156 157 160 160 160 165 166 171 160 159 160 151 147 144 144 144 150 151 148 145 144 145 145 141 141 144 144 145 148 145 145 147 145 154 160 151 145 145 145 150 153 156 151 150 148 144 144 147 145 144 153 156 151 156 171 168 154 151 151 142 141 141 136 135 135 133 129 127 132 135 133 133 135 133 135 136 141 139 139 136 133 130 129 135 135 138
189 195 186 178 184 198 198 175 166 168 165 175 175 187 187 181 180 183 183 169 174 180 168 166 169 162 163 165 162 162 160 150 150 156 169 166 156 157 168 172 166 163 171 171 180 166 159 160 157 160 156 157 160 162 157 156 166 175 163 160 159 162 172 175 171 165 171 168 165 172 177 175 168 177 174 174 189 183 184 189 189 187 174 169 174 180 180 168 178 193 183 177 193 184 168 171 163 163 171 175 169 169 178 178 187 175 166 169 187 199 199 186 190 190 192 183 172 169 171 163 163 168 180 163 163 180 184 190 187 186 186 198 198 184 177 174 175 175 168 172 174 172 171 162 157 159 159 160 160 160 162 153 148 147 147 147 147 147 150 150 153 156 157 166 165 165 163 160 160 160 160 160 159 157 157 151 147 145 151 150 150 150 150 145 142 141 141 141 145 148 145 145 150 151 151 153 154 159 163 157 151 150 150 156 160 157 150 151 151 148 144 144 147 144 151 156 151 156 171 160 150 147 145 141 147 144 139 141 133 132 130 127 133 135 135 135 136 133 133 135 142 142 142 139 133 133 129 135 133 133
199 199 198 184 187 193 190 166 165 165 171 175 172 183 187 177 177 181 183 171 180 180 165 165 174 172 180 175 163 160 162 156 162 160 169 168 156 156 160 171 172 166 169 180 180 175 165 163 156 154 160 160 166 171 171 160 165 175 166 165 160 159 159 165 169 172 183 183 174 178 178 172 174 178 174 177 189 184 187 189 187 183 175 168 168 180 174 168 177 193 189 178 186 184 177 180 169 165 169 169 169 172 169 178 184 166 166 180 184 192 205 201 202 192 192 178 171 177 180 163 165 184 198 177 181 196 210 219 213 213 219 223 223 196 175 174 178 183 181 178 178 178 183 178 171 175 169 166 165 165 165 156 150 148 150 148 147 148 153 153 156 156 154 165 166 165 160 156 156 154 160 157 156 162 160 150 145 147 154 156 151 156 150 150 147 144 145 145 145 150 150 148 151 163 166 165 169 169 171 160 154 154 156 162 171 175 159 156 156 156 148 151 162 153 151 156 154 153 151 150 148 147 144 141 147 145 142 142 135 132 135 135 138 136 135 136 136 135 135 136 142 142 142 141 135 135 135 136 133 130
211 211 208 190 184 178 172 165 165 166 169 171 168 169 177 180 177 183 192 189 189 180 168 172 180 183 183 180 166 160 160 166 166 159 165 165 156 156 157 166 172 163 163 180 178 175 162 156 154 154 156 162 174 178 168 162 163 169 163 166 165 160 166 180 178 184 192 198 187 169 174 177 184 180 174 174 183 177 177 178 178 183 180 169 168 171 168 169 177 183 184 189 192 187 181 180 175 174 178 181 180 178 177 181 183 183 177 178 184 186 196 210 210 193 192 181 178 193 189 172 177 195 205 198 205 214 223 237 241 237 235 238 228 199 181 181 189 196 195 196 204 201 195 178 175 183 178 168 166 175 180 160 151 151 157 153 148 151 156 156 159 154 153 160 166 169 160 156 154 157 163 157 160 168 160 150 145 145 150 150 153 156 150 153 153 151 153 151 148 151 162 154 154 165 175 177 174 175 165 159 163 156 159 171 175 175 162 156 156 156 153 162 162 156 151 162 162 151 148 147 147 147 145 144 145 147 139 135 135 132 133 136 142 138 138 139 141 135 136 136 133 136 141 141 139 141 139 136 135 130
201 205 198 187 187 172 168 169 171 171 163 163 171 177 174 177 174 181 193 190 187 174 168 175 181 178 180 175 171 159 156 157 160 154 153 162 160 157 160 165 165 163 163 175 172 165 162 160 160 159 166 172 187 187 178 180 171 163 163 162 159 159 177 183 178 189 198 195 183 171 178 187 193 177 168 169 180 181 177 177 178 183 184 180 172 168 172 181 183 184 186 190 192 183 172 174 175 178 181 183 178 183 184 189 190 199 192 192 202 199 198 205 210 192 190 187 186 202 207 199 199 205 214 213 217 228 235 240 243 243 238 231 223 208 201 207 214 210 198 214 238 225 214 195 190 195 193 172 168 174 180 162 154 156 160 157 156 156 154 154 159 154 153 159 165 169 165 156 151 156 166 166 166 171 165 153 145 150 153 151 154 165 166 160 160 160 163 160 153 154 162 163 160 165 172 175 181 181 169 165 162 162 169 177 177 171 163 162 160 154 154 160 156 148 150 157 156 153 154 148 147 148 148 147 147 147 142 136 133 132 135 138 141 142 139 139 141 135 133 136 133 138 141 139 139 144 141 139 138 132
181 190 184 184 187 174 168 174 175 175 163 163 172 177 171 169 166 183 193 181 174 174 174 180 174 175 178 172 171 162 156 156 153 148 144 156 163 159 163 169 166 171 163 166 171 168 171 175 162 159 175 181 189 186 183 183 174 171 166 165 157 157 174 183 177 184 193 178 174 180 183 187 193 178 168 174 187 189 189 187 183 181 184 183 177 171 183 193 192 195 196 195 189 177 169 169 178 184 186 186 186 187 190 192 199 210 210 210 205 207 207 205 199 180 187 189 184 186 205 211 214 220 220 219 213 228 237 241 232 231 228 219 219 217 217 220 223 223 214 228 238 223 217 204 196 195 189 177 174 177 175 163 154 156 160 160 157 156 157 160 156 153 154 166 165 168 169 154 151 154 160 160 166 175 171 159 156 156 156 156 165 184 184 163 159 162 169 168 157 154 159 165 165 160 165 168 180 181 171 162 157 165 180 172 168 166 162 160 157 154 157 153 150 148 151 153 148 150 156 151 150 147 145 145 145 147 141 136 135 135 139 139 142 142 139 139 142 135 132 135 139 142 141 135 136 148 148 139 139 136
171 192 195 186 184 181 175 178 180 181 180 157 159 165 157 160 168 181 180 169 168 180 180 169 165 175 174 168 171 166 163 156 147 144 144 159 163 154 156 165 169 171 165 169 175 180 180 177 166 159 172 183 190 190 190 187 181 178 177 171 165 162 174 184 169 174 186 172 172 174 175 190 193 184 178 183 189 192 193 195 192 187 186 190 187 184 192 198 196 201 201 192 186 181 174 174 178 187 192 195 192 196 199 196 204 211 211 207 207 207 219 210 189 180 187 189 184 192 205 210 211 205 199 195 202 222 231 231 219 207 211 208 202 216 220 213 213 213 222 228 220 213 220 204 196 192 186 186 187 183 187 172 157 154 157 160 165 162 166 165 159 154 159 175 175 174 172 156 153 156 154 154 165 172 175 165 154 153 153 153 157 171 177 166 159 160 169 166 162 160 160 165 165 162 160 159 166 172 165 159 157 168 181 169 168 169 166 159 157 159 157 150 151 151 153 153 145 144 153 153 151 147 139 141 144 144 138 136 136 138 141 139 141 141 142 142 141 132 132 132 139 142 139 136 141 145 147 145 139 138
171 198 214 189 178 177 172 174 174 181 177 159 156 160 154 156 165 180 174 163 163 180 174 168 165 171 174 163 162 162 166 150 144 145 150 159 156 153 154 162 166 166 165 175 177 174 172 172 171 163 171 193 192 196 195 190 187 183 174 166 171 166 171 184 168 165 175 174 181 175 183 193 192 186 186 187 186 186 186 196 201 199 196 201 202 196 196 199 196 201 198 190 181 183 184 183 183 186 196 199 201 207 207 198 202 225 220 216 217 219 216 208 204 190 181 186 193 195 193 198 202 204 198 195 195 222 229 222 207 198 198 199 199 208 214 207 204 208 217 219 213 217 222 210 201 196 196 204 195 190 189 181 171 165 163 162 166 168 177 175 169 166 166 187 187 181 166 150 150 156 151 150 154 165 169 159 150 151 153 156 160 162 162 165 160 159 165 162 162 168 165 159 157 162 166 159 157 159 162 157 165 184 187 181 187 186 169 166 175 169 157 153 150 150 157 157 145 139 147 159 159 147 139 139 147 148 142 141 142 139 139 141 142 139 139 142 141 135 135 133 135 138 141 141 145 147 147 145 139 133
180 204 214 190 178 180 172 181 174 174 168 162 156 156 154 157 163 180 180 163 172 184 174 171 165 168 175 175 157 150 157 150 145 151 159 159 150 153 165 175 171 171 165 169 168 168 175 178 178 178 186 199 199 196 192 190 192 189 174 162 160 162 162 172 168 165 169 175 181 174 178 184 187 187 192 195 190 186 190 199 210 205 204 214 216 205 205 204 193 190 193 186 181 187 192 192 187 192 201 205 204 204 205 199 213 234 234 232 232 216 208 213 216 204 190 181 195 193 195 208 213 217 228 199 208 241 246 238 222 208 216 220 220 214 202 202 207 210 219 219 217 222 219 211 199 201 210 207 199 190 189 172 177 187 184 168 162 175 187 177 174 180 178 193 193 183 163 148 148 153 151 150 150 160 166 156 151 150 153 180 180 154 154 157 157 159 159 159 163 168 165 160 156 163 166 160 156 157 160 153 154 186 187 184 187 187 166 165 175 166 165 157 151 145 150 156 147 139 145 156 153 147 145 145 151 151 148 151 148 142 139 139 142 141 138 139 141 142 142 135 133 138 142 144 147 148 147 142 138 133
186 202 199 187 178 180 175 186 186 174 169 168 160 157 160 162 166 172 174 168 174 184 166 166 163 166 175 175 160 150 150 151 147 148 156 159 150 154 175 171 168 171 165 171 174 174 178 172 174 183 198 205 201 201 193 199 202 195 181 168 162 166 169 163 171 171 175 171 163 168 174 181 184 186 193 195 196 196 198 201 210 204 202 220 220 213 204 205 199 190 186 181 181 186 195 195 195 201 211 219 213 205 201 205 222 226 226 231 231 217 217 217 217 208 196 190 199 211 223 228 229 231 237 228 228 255 252 243 238 225 222 222 222 220 208 207 207 207 213 214 214 217 217 207 202 211 214 205 201 201 195 177 181 195 198 186 172 186 198 180 175 180 178 183 190 175 165 154 151 153 154 156 154 157 162 156 151 150 154 180 177 148 148 154 157 163 163 157 154 154 160 162 154 156 156 154 151 154 156 153 153 169 181 180 178 175 172 174 175 162 160 163 153 145 148 153 148 144 147 150 148 148 147 144 145 147 148 151 147 145 142 144 147 145 139 138 139 141 141 138 139 142 145 148 150 153 147 142 139 139
184 190 192 190 184 181 169 168 174 171 165 165 165 162 165 172 175 168 171 174 178 178 165 165 160 160 159 162 160 150 150 151 148 145 145 150 150 153 160 157 171 172 168 171 181 184 175 166 172 178 199 205 204 207 204 201 204 198 187 177 163 166 169 163 171 165 163 169 163 166 169 174 184 184 186 187 187 186 186 195 196 196 198 210 216 211 208 205 207 199 181 186 193 192 190 192 195 204 219 225 222 208 202 208 219 220 222 229 232 229 228 226 229 219 207 201 205 217 229 232 231 231 237 235 252 255 249 240 241 226 220 220 220 211 216 222 217 208 208 213 217 213 211 205 210 214 213 208 208 210 204 196 196 202 210 202 192 199 211 202 181 175 172 174 174 168 165 157 156 156 159 165 160 160 151 150 151 151 151 156 156 151 153 156 154 157 157 154 148 148 150 151 150 148 151 150 150 151 159 159 153 157 165 159 154 162 172 178 177 162 160 163 157 148 151 157 150 148 151 150 148 148 148 144 145 145 145 147 145 147 151 150 148 148 144 141 139 141 139 135 141 148 148 148 147 151 153 148 145 144
184 190 186 190 189 183 175 166 165 165 163 163 166 165 166 169 175 169 175 175 178 175 168 171 162 159 160 166 157 151 150 150 150 148 150 150 151 150 154 154 165 172 169 168 169 184 174 166 178 178 192 201 196 204 207 204 199 198 178 172 159 159 168 174 174 172 163 168 171 169 174 178 183 181 183 178 192 190 186 187 195 201 201 201 199 201 205 211 214 210 193 199 202 196 195 192 192 198 211 226 226 217 213 213 220 226 231 237 238 235 241 235 234 226 211 202 207 219 231 241 241 237 237 238 255 255 244 252 252 243 244 238 226 223 229 237 237 223 216 214 219 213 208 208 208 213 208 219 228 213 205 207 199 205 210 201 196 204 214 207 192 177 172 172 163 162 163 157 156 156 163 180 172 160 145 142 147 148 147 145 147 147 150 153 150 156 162 156 151 151 148 148 151 148 150 147 148 150 153 153 148 151 154 154 154 160 171 175 175 160 159 163 154 151 162 162 150 150 151 148 145 147 147 144 147 147 145 145 145 151 156 150 153 150 145 144 141 138 135 135 139 145 145 144 144 147 148 148 144 139
193 190 186 187 192 186 187 187 177 172 171 166 160 159 169 172 174 175 180 174 169 171 169 171 166 160 162 166 157 151 151 150 150 151 156 156 151 154 163 165 163 163 169 171 169 184 175 172 181 181 184 190 190 192 202 199 189 186 177 172 163 159 180 189 189 184 175 175 181 183 184 189 181 181 183 180 202 202 190 186 195 210 211 204 198 198 201 214 208 198 204 214 210 201 201 196 193 199 207 219 226 222 220 228 237 237 226 229 235 244 252 238 225 225 213 207 223 226 225 232 241 232 229 225 225 225 219 234 249 247 244 241 219 225 229 229 237 234 226 219 216 220 228 226 220 208 208 234 234 213 202 211 210 201 190 180 181 193 214 210 192 174 166 171 162 160 157 157 159 160 166 180 180 160 150 142 147 145 145 145 144 145 145 150 151 162 162 159 150 148 150 153 151 151 150 148 145 145 145 144 144 151 156 156 154 160 162 162 166 160 159 160 156 150 156 156 148 144 151 147 144 144 141 142 147 150 148 147 150 156 153 153 153 148 145 141 142 141 138 136 138 141 145 144 145 147 142 139 141 133
189 195 193 189 192 187 190 193 192 189 187 172 159 159 175 180 181 184 177 168 169 169 169 171 171 165 162 165 160 154 151 151 156 160 153 154 156 163 168 172 171 169 166 174 184 175 175 189 189 186 192 189 183 178 190 190 184 183 177 172 169 172 183 189 192 184 177 181 183 172 187 189 184 181 184 192 202 202 192 193 219 223 217 216 207 199 205 214 208 204 214 225 217 211 211 205 196 199 205 219 228 220 220 238 246 241 229 234 247 250 252 240 237 228 222 225 234 234 220 216 207 195 198 190 169 163 169 180 193 195 190 187 193 204 204 195 205 214 219 214 220 234 247 249 244 216 208 222 223 214 202 211 211 199 180 177 181 192 202 196 175 159 159 163 163 157 157 165 165 169 168 175 174 166 154 142 145 145 151 151 142 141 144 150 151 157 157 154 151 153 153 156 154 159 159 156 148 145 145 148 145 154 157 157 157 163 160 162 171 166 162 157 156 151 150 156 148 144 151 151 145 147 141 144 153 157 151 151 154 157 154 156 151 145 144 142 148 147 139 138 138 142 144 145 148 148 144 139 138 133
189 210 220 214 205 192 190 196 196 195 189 180 168 166 178 183 183 187 186 168 166 169 169 171 171 165 163 166 169 159 157 157 159 163 159 162 160 154 160 166 172 165 162 169 181 174 168 180 187 192 189 175 169 174 183 183 174 177 184 184 180 180 184 183 184 192 189 184 180 169 169 172 178 184 193 196 199 198 190 204 228 228 213 202 204 210 210 204 207 207 220 225 210 202 210 210 201 196 201 219 228 220 222 240 252 249 238 252 252 249 249 252 244 232 219 207 207 195 168 148 136 129 130 126 115 109 111 112 114 114 117 123 132 138 139 139 151 168 180 186 198 219 237 249 237 219 217 222 216 216 217 213 211 202 180 177 196 201 196 187 175 172 172 174 177 177 166 165 165 172 168 169 174 172 163 145 148 147 147 148 145 144 142 151 156 157 157 154 156 157 154 153 156 156 160 160 157 151 162 168 156 157 172 162 157 162 166 171 171 166 163 157 156 151 150 154 150 148 150 150 150 147 144 145 154 157 156 160 165 160 163 163 156 145 144 145 153 151 144 141 141 147 151 147 148 148 147 147 141 136
214 216 220 214 199 192 195 192 192 190 192 183 172 169 174 178 177 183 178 163 159 166 163 162 162 163 169 175 174 171 163 162 163 171 169 165 154 154 156 156 160 156 154 159 157 159 166 169 178 181 177 169 174 184 172 168 168 177 181 178 177 181 178 178 178 193 193 189 183 172 171 166 166 184 189 190 192 186 181 192 205 204 201 198 196 201 201 201 201 195 204 204 198 193 205 207 198 193 199 211 217 208 229 246 255 253 247 250 250 240 237 237 219 189 154 130 115 102 85 76 64 64 67 70 63 63 63 64 61 61 61 61 61 61 63 76 88 105 114 126 141 156 172 187 196 220 222 222 216 226 232 220 213 205 193 202 211 196 181 181 193 189 189 187 183 183 175 169 174 189 181 183 174 169 166 151 151 144 144 148 148 145 142 151 151 156 156 154 156 157 154 150 150 150 153 156 153 156 168 166 154 162 172 160 150 154 171 169 159 148 150 157 160 157 145 144 150 157 153 151 154 148 145 144 150 150 156 168 172 165 165 162 156 151 150 150 156 153 142 142 145 153 153 144 145 147 147 147 142 138
210 205 205 210 190 189 196 196 196 190 192 186 181 177 181 187 181 177 180 166 159 165 160 163 165 169 175 193 193 175 166 169 169 172 171 160 160 160 156 156 156 154 156 160 156 157 169 174 184 184 178 177 183 187 183 177 178 189 183 177 177 187 189 189 183 184 181 192 187 172 180 175 174 183 178 184 193 186 181 181 192 196 199 201 199 193 193 199 199 195 199 201 196 193 214 214 196 193 199 202 207 220 237 252 255 250 252 252 243 223 187 153 130 97 79 61 60 61 61 63 64 64 66 69 69 64 64 64 64 64 63 61 57 57 57 57 61 57 60 63 79 96 117 130 150 198 214 219 223 243 243 225 222 217 204 216 216 201 192 195 198 198 195 192 181 181 183 175 181 189 189 192 190 154 142 145 151 150 145 150 147 144 142 150 150 150 154 163 166 163 154 151 153 156 151 148 148 154 168 165 154 165 171 165 150 159 171 166 153 148 153 160 157 153 144 144 151 153 157 157 151 147 147 150 154 160 160 165 172 177 159 157 160 160 156 151 156 151 142 141 147 151 148 144 141 144 147 148 145 144
204 199 192 190 186 187 196 196 196 190 193 186 184 190 196 199 190 181 184 171 159 165 165 171 175 172 177 193 193 177 168 169 169 174 169 162 162 160 156 160 157 154 160 157 157 160 166 169 180 181 193 193 184 178 193 193 189 189 184 178 181 187 190 192 181 177 172 189 189 178 180 178 177 190 181 178 193 192 192 186 196 204 205 205 205 204 205 201 205 202 195 205 201 201 210 198 199 199 196 204 219 237 241 246 247 247 237 228 186 142 121 88 64 60 61 61 60 61 63 66 64 63 64 66 66 63 63 64 63 64 61 60 55 54 55 60 57 55 54 55 57 57 61 72 96 127 151 199 223 237 241 228 226 226 217 213 208 211 201 196 196 196 198 195 186 187 186 175 175 184 183 187 186 157 142 144 151 153 151 153 150 148 150 162 156 153 159 171 165 163 160 157 156 151 147 145 151 156 168 156 153 165 171 165 162 166 171 169 160 154 160 165 157 154 153 151 148 151 156 153 145 145 150 156 163 169 166 163 171 177 169 162 160 157 162 154 156 151 144 144 147 147 145 145 141 142 151 156 150 148
198 187 181 175 189 195 192 192 195 190 195 189 186 199 207 210 201 186 183 174 163 166 172 168 175 180 177 187 186 178 174 174 172 174 171 162 159 157 156 160 157 160 162 157 165 166 166 168 183 178 192 193 180 174 183 189 187 178 178 181 178 181 184 192 190 178 169 189 189 178 184 175 175 190 183 180 198 196 198 199 204 207 201 204 205 210 210 205 205 199 195 204 205 202 199 196 196 196 196 208 229 238 241 244 228 204 165 133 97 73 67 64 61 60 61 61 60 61 64 66 63 63 63 63 61 60 60 61 60 61 61 61 55 55 58 60 60 57 54 52 52 52 54 57 60 57 70 118 153 202 214 211 222 226 222 219 220 222 208 195 186 186 190 189 183 172 168 172 172 172 169 169 180 165 160 153 151 156 156 153 153 154 157 171 171 165 165 171 174 175 166 166 162 153 144 144 153 154 153 151 150 168 165 160 171 174 180 180 171 171 166 166 171 171 166 162 150 150 151 153 151 150 151 154 165 169 177 177 168 172 178 177 159 154 162 162 157 154 148 144 147 147 145 145 142 145 156 160 153 150
189 177 169 171 189 196 195 190 187 190 202 199 193 205 214 211 205 190 183 180 174 177 177 162 168 183 186 193 184 172 172 183 172 174 169 165 160 160 156 160 159 166 162 157 166 169 171 169 189 189 175 174 168 168 171 178 190 187 181 183 177 174 177 180 180 174 169 178 187 178 186 186 187 189 177 190 204 195 195 199 201 214 207 189 193 201 204 202 202 201 198 204 196 186 190 199 199 198 201 204 229 229 223 204 163 135 102 67 60 61 64 64 64 61 63 61 60 61 63 63 61 61 61 61 61 60 58 58 55 54 55 55 55 57 60 61 61 60 60 58 54 52 51 52 54 54 57 61 76 118 153 186 204 220 225 220 234 243 237 211 190 181 178 177 175 165 166 177 184 183 169 169 163 165 163 157 150 150 150 153 157 162 159 162 172 172 163 159 181 181 172 171 175 175 160 154 160 157 156 150 153 163 157 157 171 175 177 177 174 171 171 166 171 171 163 163 160 154 156 157 157 153 151 153 160 166 171 169 165 174 187 184 163 154 160 159 160 166 156 151 151 147 145 142 145 156 166 166 157 147
186 183 175 178 193 196 192 196 181 181 208 210 201 214 210 193 195 186 183 183 174 178 171 162 172 184 189 193 193 172 178 193 187 183 169 163 159 159 159 166 166 162 157 166 175 174 175 168 174 184 175 174 168 168 181 190 199 195 181 183 175 177 175 166 166 166 174 183 187 192 192 198 199 186 177 193 204 196 198 204 204 219 211 189 189 201 208 216 214 208 213 214 198 180 180 199 207 204 210 216 220 214 199 151 117 78 61 60 60 63 67 70 70 69 70 64 60 61 61 61 60 57 61 61 60 58 58 58 54 51 52 54 55 58 58 57 60 61 61 60 57 55 54 54 54 52 51 54 60 60 82 130 157 193 219 228 241 243 241 222 204 196 192 177 168 169 180 187 198 195 184 175 163 165 165 157 160 154 153 157 168 166 157 159 169 171 159 159 165 180 180 174 174 175 171 171 169 165 162 156 159 169 163 174 178 178 193 186 172 163 163 163 163 163 169 180 169 159 154 156 156 160 153 154 165 171 168 169 166 190 190 180 171 162 160 160 169 172 162 154 156 151 145 144 151 157 166 165 154 147
190 195 190 190 195 193 189 202 192 186 210 201 201 210 205 199 192 184 177 180 174 175 166 169 175 175 184 187 193 181 184 193 190 184 172 163 165 162 165 166 166 159 157 166 186 183 174 169 168 174 174 178 172 168 183 198 201 192 186 181 183 189 187 174 175 175 187 189 186 186 198 205 204 178 177 189 196 198 205 216 217 219 204 195 199 210 219 222 222 217 228 228 216 201 198 210 217 222 223 201 193 181 144 111 73 61 61 61 60 61 64 66 67 70 75 69 61 61 61 61 60 57 57 60 60 57 58 58 54 54 60 58 54 55 60 58 57 60 60 60 58 60 60 55 54 51 51 52 60 57 60 60 91 139 189 219 234 238 231 222 220 205 192 178 181 181 186 187 195 198 195 186 178 171 162 160 168 166 159 166 171 165 157 166 165 165 171 166 163 175 184 177 168 168 168 168 172 171 165 163 165 178 186 202 196 196 207 198 192 178 159 165 169 175 184 184 171 162 163 165 163 165 156 154 180 181 172 174 177 187 187 174 163 162 159 162 172 172 160 156 163 157 151 150 151 154 160 160 153 147
198 210 199 189 190 186 180 202 201 196 201 201 201 207 205 205 192 181 174 174 169 172 163 163 166 168 178 178 178 183 192 195 190 187 174 169 172 163 163 166 166 163 157 166 189 187 175 177 174 174 174 178 178 171 178 196 205 199 187 186 186 193 193 183 187 183 187 189 183 172 187 202 193 181 177 181 192 201 211 217 213 213 210 210 205 214 217 217 222 220 228 228 226 222 222 223 217 225 219 178 151 133 93 67 63 61 63 63 61 61 63 64 67 72 75 66 61 61 61 61 61 60 57 57 60 60 57 54 55 55 60 54 52 54 60 60 57 57 57 58 57 60 60 57 54 52 51 52 54 55 55 58 64 79 130 186 234 241 234 229 226 207 190 189 196 202 195 192 199 195 198 198 187 175 165 160 165 172 174 174 174 163 159 171 174 174 180 174 174 183 189 184 175 172 175 174 181 184 175 174 174 192 204 205 199 207 205 201 199 187 159 159 163 172 183 183 169 165 180 190 180 175 166 163 177 183 183 184 184 183 180 172 157 154 157 162 172 169 153 150 163 165 157 156 154 153 156 157 151 148
210 207 199 193 186 178 178 190 201 202 204 204 201 207 205 199 190 183 177 169 172 172 162 159 169 169 172 177 177 184 196 196 190 183 178 174 175 169 172 175 177 171 168 181 202 196 181 174 174 169 168 175 183 187 184 196 210 210 186 192 192 187 181 177 187 183 177 183 177 172 177 178 183 175 171 187 201 208 217 213 208 213 217 216 208 213 217 217 222 217 226 231 229 223 226 228 228 219 184 141 112 73 60 63 63 63 63 64 63 63 69 67 72 76 75 64 61 61 61 61 61 60 55 54 54 58 54 54 58 58 54 52 51 52 57 60 55 55 55 55 55 55 55 55 54 52 52 52 54 54 58 58 58 60 61 124 189 232 243 243 231 219 208 204 214 223 205 198 205 199 196 192 184 187 177 162 165 175 189 184 174 172 168 184 183 183 187 181 181 187 190 192 192 190 189 186 192 189 175 183 183 189 205 205 208 213 204 196 192 183 168 163 159 163 183 187 174 168 178 190 183 174 171 171 174 174 178 174 178 180 172 171 159 154 154 165 169 166 156 150 168 171 165 165 160 160 156 157 151 148
216 207 199 184 178 187 184 186 186 196 202 204 201 201 199 196 186 186 198 183 177 174 162 159 171 178 183 184 181 181 198 202 189 178 178 175 169 169 178 178 172 172 178 190 211 207 190 177 172 166 166 174 181 187 180 190 205 201 193 198 198 189 172 172 178 178 169 178 183 177 178 174 174 172 171 198 214 222 225 217 208 219 222 213 208 213 217 211 213 217 220 226 225 222 220 226 225 183 141 106 70 60 61 61 63 63 64 63 61 63 66 72 78 76 73 64 61 61 60 57 60 58 55 54 52 52 54 55 57 55 52 51 51 52 55 57 57 55 55 58 55 54 55 55 54 54 58 58 54 54 54 55 57 58 58 67 105 162 234 243 235 229 232 231 238 237 216 204 208 201 186 180 180 198 195 183 175 178 189 183 181 177 163 180 184 181 187 183 189 198 195 195 202 202 196 189 198 186 177 181 190 195 204 208 223 228 216 198 190 190 187 175 159 163 187 193 183 169 178 192 183 172 171 168 175 180 169 162 163 175 174 175 166 159 154 165 166 169 169 162 169 172 171 172 166 163 159 156 150 147
213 216 207 186 181 189 187 181 184 193 195 196 201 193 196 198 196 198 198 190 192 190 174 168 172 183 193 198 198 189 195 202 196 192 189 183 178 172 174 178 174 184 190 196 211 201 193 192 195 187 187 193 186 186 180 196 210 201 196 190 181 183 175 172 177 180 169 174 183 178 178 178 181 177 184 202 214 226 225 204 204 220 217 216 211 211 222 217 208 222 231 232 231 229 223 219 187 139 109 76 64 63 67 63 61 61 63 61 60 61 64 73 88 79 72 66 61 61 57 58 58 58 58 58 54 54 58 60 58 55 54 52 52 54 55 57 58 58 60 58 58 54 54 54 54 54 54 55 54 54 54 54 55 58 54 55 61 85 151 219 240 240 235 240 244 243 241 228 217 205 196 190 186 192 198 186 178 181 183 183 187 177 163 172 177 183 187 183 186 196 202 202 202 202 202 198 193 186 178 187 199 204 219 222 226 228 222 210 201 192 187 178 162 168 187 193 184 171 184 195 181 172 171 168 174 180 171 159 159 169 169 174 180 166 157 166 169 174 169 172 189 175 169 174 180 171 166 160 150 144
208 211 201 192 192 192 192 181 177 183 184 192 198 190 190 192 198 199 199 198 192 192 184 178 172 172 202 207 202 195 196 204 202 198 193 184 184 178 172 183 181 187 193 205 216 210 204 201 201 199 192 192 195 192 192 205 214 210 187 175 177 177 177 183 183 178 169 187 187 172 174 177 184 181 186 205 214 223 225 204 210 219 207 207 217 219 225 214 208 225 241 243 238 226 223 198 141 97 73 73 67 63 66 67 63 61 61 61 60 60 63 76 97 79 70 64 64 61 60 58 58 60 61 61 58 54 55 60 58 58 57 54 55 60 60 58 58 58 60 58 58 55 54 54 54 54 54 55 58 54 54 54 55 55 55 54 55 61 82 151 240 249 246 243 241 244 246 234 228 219 208 210 198 193 196 186 190 192 181 183 187 187 183 181 178 187 178 177 181 186 193 198 190 186 189 186 180 187 181 189 205 217 232 226 216 226 223 217 199 190 187 180 162 168 186 178 178 181 195 198 177 169 174 177 172 169 171 160 162 172 165 163 181 175 169 175 175 175 174 177 190 183 175 169 180 174 175 175 154 144
211 195 193 193 201 201 196 184 177 177 187 196 201 190 190 186 195 195 199 199 192 192 190 183 177 175 199 207 201 199 199 201 202 195 177 166 168 175 178 192 192 198 199 207 216 216 210 198 196 201 205 199 201 205 201 204 214 201 180 175 181 184 186 189 184 177 172 183 187 172 175 183 189 190 193 210 211 208 216 213 211 211 207 207 217 225 219 213 216 234 241 243 223 216 204 145 100 61 61 73 72 64 63 64 66 64 60 60 61 60 63 78 97 76 66 63 61 60 60 60 60 60 60 60 55 54 55 60 57 58 58 55 55 60 58 57 58 57 57 58 55 54 52 54 54 55 55 55 58 55 54 54 55 55 55 55 55 57 57 97 186 249 249 246 241 243 246 243 241 240 220 222 223 210 195 186 201 201 186 184 186 186 192 192 178 183 178 177 181 177 177 174 175 172 172 174 184 190 192 198 208 223 232 219 208 219 222 220 201 190 183 180 163 163 178 178 187 193 199 199 187 169 169 177 178 175 168 160 159 172 169 163 175 183 183 181 183 184 172 174 190 187 183 178 181 174 169 168 153 147
210 195 204 207 214 223 205 190 178 187 192 195 205 193 186 193 207 198 195 199 196 192 190 192 190 192 205 204 201 201 199 199 202 189 163 163 163 172 189 202 202 201 205 208 205 208 210 201 198 207 223 223 216 210 210 210 214 205 186 184 193 193 195 195 189 178 174 178 187 178 174 184 195 199 204 211 204 201 205 205 207 208 210 213 213 223 217 226 232 241 241 235 217 207 153 102 63 60 63 64 69 63 61 61 63 64 60 61 61 60 67 78 85 66 63 61 60 57 57 58 60 57 58 55 55 54 54 54 55 55 58 54 54 54 54 55 54 55 58 58 55 54 54 54 54 58 58 54 54 54 54 55 57 58 55 55 55 58 57 67 108 198 244 247 244 244 250 247 246 246 240 229 223 220 207 196 207 210 195 190 187 190 190 189 186 192 193 192 184 183 175 163 163 171 165 168 198 196 201 211 219 222 216 208 213 217 222 216 192 178 169 172 169 163 181 187 181 190 196 196 181 178 187 183 189 189 174 162 157 162 180 183 181 183 183 183 189 189 177 171 189 199 198 186 180 166 163 163 148 147
210 208 210 208 216 225 202 198 196 189 201 210 216 210 195 205 225 205 198 201 205 201 192 198 202 204 205 202 207 210 207 196 193 181 166 171 171 172 186 199 204 202 210 210 202 202 205 201 205 219 232 226 213 208 207 211 214 214 193 186 190 190 196 196 190 175 174 178 183 174 169 181 204 211 205 210 202 202 204 199 199 204 208 219 216 222 220 237 241 238 234 235 234 195 120 63 60 61 63 63 61 61 61 60 61 61 60 61 60 61 75 85 84 63 61 61 60 57 57 57 55 55 55 55 55 55 55 55 55 57 55 54 52 52 52 54 54 54 55 54 54 54 55 54 55 55 55 55 54 54 54 55 58 58 55 55 55 57 58 55 66 114 199 246 244 249 255 252 250 247 243 234 223 219 196 193 210 210 199 198 190 187 184 184 195 199 190 190 187 189 178 165 163 165 159 159 184 201 205 220 222 222 213 207 208 214 214 195 172 172 169 174 180 171 198 214 201 190 190 186 178 178 189 184 189 187 175 166 157 163 180 189 181 178 175 184 187 189 178 171 192 202 202 186 175 174 166 160 148 147
211 217 219 220 228 237 217 213 214 211 223 219 211 211 217 222 225 211 207 210 208 205 193 196 201 202 208 211 211 207 201 190 180 163 159 166 171 172 186 205 211 211 211 211 207 205 210 204 205 220 232 225 213 208 207 213 222 213 202 199 193 199 204 199 192 181 184 177 183 177 171 192 219 216 204 208 208 213 219 213 208 213 217 229 226 222 225 241 240 234 235 238 216 141 82 61 60 60 60 60 61 61 60 60 60 60 60 60 61 73 94 109 100 79 64 66 61 61 60 60 57 60 57 58 57 60 60 58 57 57 58 55 52 51 51 52 52 54 54 52 52 54 55 58 58 55 55 58 55 54 54 54 54 54 54 55 55 55 54 54 57 60 123 219 243 249 255 255 255 247 241 241 240 214 180 177 196 205 196 190 184 186 192 186 201 201 193 195 189 190 187 177 174 172 171 163 186 201 201 202 208 220 213 202 205 219 210 184 172 174 175 180 171 175 202 214 214 192 187 183 184 193 193 186 184 183 184 168 157 163 189 187 175 174 177 183 178 177 180 171 190 196 192 189 178 187 175 162 154 148
211 219 229 231 235 238 229 226 231 225 232 231 228 228 234 231 226 217 207 207 213 220 208 195 198 214 216 210 205 196 186 181 169 159 159 163 168 175 186 201 210 211 211 213 214 214 216 204 202 202 207 213 213 213 217 217 222 228 219 211 210 214 207 207 199 192 189 196 193 181 181 207 219 213 204 213 223 226 223 222 223 228 226 238 241 234 235 247 244 235 246 243 160 93 61 61 61 57 57 58 61 61 60 60 61 66 73 85 99 109 124 135 135 129 124 124 112 99 93 90 88 84 79 69 64 63 61 61 61 61 60 58 55 54 52 52 52 52 52 52 52 54 55 60 60 57 55 58 55 54 52 52 52 52 54 55 58 54 54 54 58 60 61 136 229 249 255 255 253 243 240 241 234 208 180 177 196 205 195 180 178 186 195 193 205 214 205 205 199 196 196 198 186 183 189 193 216 201 193 201 213 219 207 201 202 219 214 186 177 180 183 189 186 190 195 202 196 190 187 181 186 198 195 186 184 183 184 175 157 162 184 180 178 175 175 187 183 177 175 186 198 192 181 186 190 186 183 171 160 163
219 220 231 243 240 229 235 243 247 231 229 232 238 238 237 220 228 225 208 211 216 223 225 207 204 216 214 199 198 202 192 184 174 172 175 175 184 192 192 201 205 213 217 216 208 211 225 214 211 208 211 220 220 216 220 220 225 234 228 213 213 217 213 216 210 201 196 205 198 186 193 214 219 207 211 219 232 232 225 226 231 241 240 249 255 249 250 255 247 244 247 211 126 67 60 60 60 58 58 60 60 61 70 84 93 109 124 133 142 150 154 163 183 189 177 168 150 139 133 126 127 124 114 103 96 88 78 73 64 61 61 61 57 57 57 55 54 54 54 54 52 54 55 57 60 58 57 57 55 54 52 51 51 51 52 58 58 55 55 58 57 57 61 82 168 249 255 255 244 240 240 234 229 225 205 199 211 208 196 189 186 198 196 201 205 216 208 204 202 204 210 211 189 189 207 219 219 198 193 208 219 219 213 208 204 210 210 180 177 181 181 192 196 196 193 192 180 177 177 174 178 193 198 198 189 186 189 175 168 186 174 166 180 181 186 190 186 189 186 199 211 201 181 184 198 196 190 174 162 171
217 216 228 243 240 234 255 255 255 244 229 240 238 237 229 202 217 222 223 229 228 234 234 216 217 217 217 214 205 210 196 193 183 181 183 187 192 190 190 204 214 217 217 214 207 211 225 225 222 226 229 241 237 229 231 231 232 234 228 213 213 217 217 213 214 204 204 205 199 195 201 216 217 208 216 225 231 231 228 231 235 244 252 255 255 250 255 255 250 247 229 142 79 61 61 60 60 60 63 73 85 103 124 136 142 153 180 190 210 232 220 219 243 247 217 193 187 186 168 150 148 142 135 130 127 124 108 100 90 79 78 73 64 64 61 60 57 57 57 55 54 54 58 57 58 58 60 60 57 54 54 52 51 51 52 55 58 55 58 58 57 58 57 57 103 220 255 252 238 234 234 231 231 229 223 217 219 217 211 201 199 199 201 210 204 217 222 213 213 220 213 208 202 213 214 217 211 199 205 213 225 228 222 216 211 211 205 186 186 183 181 190 196 202 199 196 190 178 175 169 168 178 198 210 201 196 189 168 183 187 175 166 183 181 199 196 193 202 189 204 216 208 199 198 210 219 202 178 168 171
214 213 228 235 238 249 255 255 255 253 243 253 249 229 219 202 208 214 222 229 234 235 234 226 228 220 213 213 213 211 204 196 184 190 195 189 192 193 196 205 213 217 208 208 207 208 214 219 222 225 232 241 241 241 241 232 232 229 220 214 213 213 207 208 214 208 205 204 195 195 205 211 213 222 231 229 229 231 231 229 240 250 255 255 255 253 247 255 255 237 175 103 64 61 60 60 61 82 102 121 133 145 169 198 216 232 243 253 255 255 255 253 255 255 253 225 211 211 184 168 162 151 151 148 142 136 132 130 117 96 93 87 78 73 72 70 64 61 60 57 57 57 60 58 58 58 60 60 57 57 58 54 52 52 52 58 55 55 57 58 58 58 58 60 79 136 250 255 247 241 235 229 229 231 217 211 223 223 222 216 207 196 198 213 222 226 226 226 229 226 208 213 229 241 229 211 217 208 217 214 219 228 223 211 204 216 214 199 198 186 187 192 202 205 198 207 196 193 186 163 163 171 195 205 210 202 184 178 187 177 178 187 183 186 202 202 201 202 186 193 228 232 223 208 213 219 205 187 175 172
216 213 222 228 231 250 255 252 253 255 255 252 241 226 222 208 208 216 217 219 226 232 225 225 231 237 232 216 211 208 205 199 196 202 202 196 196 205 210 208 208 217 208 211 213 208 213 222 219 216 228 235 231 235 235 226 225 220 216 219 213 211 205 205 211 217 216 210 198 195 201 205 213 232 243 243 240 238 241 241 247 255 253 244 244 249 247 252 241 204 135 81 64 61 60 70 93 114 130 147 177 198 225 255 255 255 255 255 255 255 255 255 243 243 255 249 223 216 195 186 163 153 153 150 144 139 138 136 121 100 99 93 82 78 76 76 72 66 66 61 60 60 57 58 58 58 60 60 58 57 58 57 55 54 54 58 55 55 55 58 57 57 58 58 57 73 189 252 255 249 241 231 237 238 216 204 220 219 216 216 205 196 198 225 229 225 222 226 232 232 222 220 237 241 237 217 234 222 226 220 216 216 219 213 204 216 214 195 198 184 184 189 204 199 201 211 195 184 177 168 172 181 189 195 207 202 192 195 181 181 192 190 183 186 195 201 193 190 181 181 228 232 222 211 222 219 198 190 181 175
202 217 222 223 216 241 255 250 252 255 255 243 234 229 228 213 207 205 205 205 214 222 222 231 232 234 237 226 204 204 205 201 204 207 201 198 202 219 222 213 213 222 217 216 229 228 220 223 220 216 223 225 228 231 228 231 234 234 228 228 222 213 205 208 214 217 219 216 204 198 201 208 216 226 241 243 240 235 235 235 244 255 244 234 238 246 246 237 210 151 97 67 61 61 70 97 120 127 136 153 168 190 214 243 243 247 255 255 255 255 255 255 255 255 255 255 255 255 249 237 214 184 171 159 150 153 144 138 127 114 106 97 84 82 78 75 73 67 69 70 66 61 57 57 60 60 60 60 60 60 60 58 58 54 54 52 54 54 55 55 55 57 58 58 60 57 121 232 255 252 246 240 240 244 240 207 199 210 217 214 198 193 201 219 229 223 219 222 226 232 238 237 235 237 223 229 238 231 237 231 216 219 222 222 211 217 204 199 192 189 198 198 196 184 195 211 201 186 177 177 184 189 178 171 186 204 202 190 187 199 190 178 178 186 199 195 192 187 184 181 207 217 213 211 225 225 211 195 183 171
202 222 229 226 216 231 240 244 255 255 244 229 229 237 226 211 208 205 193 193 202 222 225 241 241 231 235 235 225 217 211 213 208 207 208 216 211 213 226 226 226 226 226 225 238 238 231 232 225 220 225 225 228 226 225 228 231 231 226 232 223 217 205 202 213 217 217 220 217 213 214 217 222 223 234 235 244 249 243 238 244 250 240 234 243 246 243 229 190 121 73 66 63 70 87 112 123 127 130 139 177 240 255 255 255 255 255 255 255 255 255 255 255 255 255 255 255 255 255 255 255 247 232 219 207 204 189 162 148 135 126 115 103 96 82 78 75 70 72 72 70 64 61 61 61 61 61 61 61 61 60 57 55 52 51 51 52 55 55 55 55 55 57 58 60 60 67 156 244 250 249 247 244 246 246 237 199 202 216 213 201 189 201 219 223 223 208 208 211 217 232 238 231 229 225 234 235 240 235 232 231 223 222 219 216 223 222 216 196 189 198 199 195 184 190 205 205 205 198 181 189 189 181 166 168 187 189 180 198 199 184 177 187 193 195 187 181 177 190 192 193 205 204 211 213 217 211 201 178 171
216 222 223 231 229 229 229 235 252 252 235 229 231 237 222 207 210 201 193 198 213 229 231 237 241 231 235 244 247 235 217 220 223 225 226 229 217 216 220 231 237 231 223 223 234 243 247 232 231 234 231 231 222 220 220 217 217 226 232 232 216 213 204 202 211 223 229 232 231 226 223 220 222 232 240 240 246 252 249 246 250 252 244 240 244 246 241 214 154 91 64 66 69 76 90 102 120 136 153 198 253 255 255 255 255 255 255 255 255 255 255 255 255 255 255 255 255 255 255 255 255 255 255 255 252 243 223 195 168 148 133 123 117 109 99 87 79 75 72 72 67 66 63 64 63 61 61 61 61 61 61 57 55 52 51 51 54 55 57 58 58 55 55 57 60 60 60 117 202 246 250 250 247 246 244 238 208 208 214 214 210 189 189 211 220 217 213 208 207 207 216 228 229 234 231 231 238 240 240 235 235 226 220 219 216 223 222 220 201 189 196 196 192 186 193 196 195 205 201 189 181 178 175 168 166 171 177 186 195 196 181 177 181 195 186 172 168 168 184 192 205 216 208 204 208 208 208 210 192 171
240 240 238 247 241 237 231 235 231 220 228 232 237 228 213 204 205 199 201 211 213 223 225 222 220 229 249 255 255 250 240 240 240 243 241 232 226 226 226 237 237 237 231 234 234 247 247 229 231 240 246 246 231 225 220 225 220 228 232 223 208 208 208 211 214 220 234 235 231 234 234 231 235 247 252 249 250 255 247 247 255 255 250 250 249 247 237 178 126 70 64 69 72 78 100 129 147 190 243 255 255 255 255 255 255 255 255 255 255 255 255 255 255 255 255 255 255 255 255 255 255 255 255 255 255 255 244 229 204 168 150 136 124 115 109 97 88 78 75 73 73 72 67 66 64 64 61 61 60 60 61 60 58 52 51 51 54 60 57 58 58 55 55 55 58 58 60 67 141 237 246 250 246 243 243 235 216 211 211 210 201 199 196 205 208 208 220 220 211 207 213 217 232 238 235 229 235 237 235 240 240 240 231 223 216 217 219 220 205 190 192 201 195 199 210 201 195 210 207 199 187 178 181 183 178 178 187 190 192 190 178 172 175 189 193 193 187 178 184 195 204 210 216 207 217 223 223 207 195 180
241 250 255 255 244 234 231 235 225 216 216 228 237 226 208 208 202 204 211 213 213 219 222 213 214 234 255 255 255 255 255 252 246 243 243 229 226 229 226 229 232 237 246 249 240 238 234 225 229 240 255 252 240 234 237 240 231 232 225 216 211 214 213 226 225 226 237 237 231 232 237 237 241 252 250 246 249 255 250 250 255 255 255 255 247 234 202 139 94 67 64 69 76 88 121 148 186 247 255 255 255 255 255 255 255 255 255 255 255 255 255 255 255 255 255 255 255 255 255 255 255 255 255 255 255 255 255 255 232 199 177 150 127 117 109 100 90 81 78 75 75 73 69 67 69 66 63 60 60 60 60 58 55 52 51 52 55 60 57 58 57 57 55 55 57 58 57 64 102 214 243 247 247 244 244 241 220 205 204 199 205 207 202 202 198 201 214 214 193 195 210 211 229 241 241 226 228 235 240 240 240 240 229 228 217 217 213 214 210 199 193 201 201 214 228 214 199 207 210 210 192 180 187 190 193 187 193 192 195 196 193 177 172 180 195 210 201 196 192 192 196 198 213 220 214 223 216 201 190 195
243 253 255 255 240 229 246 247 232 216 216 222 232 226 211 213 217 216 222 222 216 222 226 225 231 249 255 255 253 255 255 238 235 237 244 243 235 241 238 231 229 229 243 250 253 243 235 226 225 235 252 255 253 244 252 255 252 246 229 222 223 223 225 234 231 232 238 235 225 220 228 232 235 240 241 241 244 247 250 250 252 255 255 253 241 214 165 117 73 63 61 72 87 106 135 175 226 255 255 255 255 255 255 255 255 255 255 255 255 255 255 255 255 255 255 255 255 255 255 255 255 255 255 255 255 255 255 255 241 217 193 168 139 123 111 102 90 87 81 76 73 73 73 70 73 72 64 60 58 58 57 55 54 52 51 52 55 58 57 58 58 57 55 57 57 57 55 57 66 147 232 244 247 249 250 249 220 195 195 201 207 196 192 192 198 199 196 195 181 195 216 226 231 235 237 220 211 225 241 241 238 240 229 225 226 226 211 207 210 207 207 201 205 214 228 223 211 208 207 207 204 196 192 192 193 195 196 195 195 195 196 195 184 198 201 207 214 219 204 193 195 208 216 222 213 204 193 192 184 177
246 255 249 229 226 234 253 255 246 234 234 231 225 226 222 222 232 237 238 232 225 226 226 226 246 253 255 255 255 253 244 240 244 250 255 255 255 250 241 235 235 240 240 246 255 250 240 231 229 235 246 255 255 249 249 255 255 252 246 237 235 231 235 243 241 238 240 232 226 220 223 228 235 231 225 229 241 249 250 252 255 250 250 255 249 198 136 79 61 60 61 76 97 121 150 207 243 255 255 255 255 255 255 255 255 255 255 255 255 255 255 255 255 255 255 255 255 255 255 255 255 255 255 255 255 255 255 255 243 219 195 169 145 129 117 103 88 90 88 81 78 76 75 73 73 73 66 61 60 58 58 55 52 52 52 52 54 55 57 58 58 57 57 57 58 55 55 54 61 112 214 246 249 249 252 250 235 202 210 205 199 187 181 178 195 190 177 177 196 210 213 220 232 231 228 216 211 216 234 240 238 240 234 225 225 229 226 211 198 204 210 208 210 208 213 222 213 217 217 217 220 216 195 180 186 201 196 193 192 193 204 210 201 207 219 220 217 219 210 208 217 229 232 219 211 195 189 187 172 172
246 255 253 234 228 235 253 255 255 241 247 243 225 226 217 211 231 240 238 238 231 226 226 231 244 255 255 255 255 253 244 252 255 255 255 255 255 244 234 234 246 247 240 240 246 246 246 235 229 231 235 250 255 250 244 247 250 247 246 246 238 235 243 250 252 246 238 232 226 216 211 223 234 226 208 211 232 247 255 255 255 247 243 252 232 162 117 61 58 57 61 79 105 133 166 211 253 255 255 255 255 255 255 255 255 255 255 255 255 255 255 255 255 255 255 255 255 255 255 255 255 255 255 255 255 255 255 255 241 217 190 159 139 127 121 111 97 94 91 87 87 84 79 75 75 75 70 63 61 60 60 57 54 52 52 54 54 55 55 57 58 57 57 57 58 57 55 52 57 79 189 249 247 246 249 250 243 220 211 199 189 183 169 166 187 193 184 189 210 217 216 222 222 216 220 217 219 226 237 235 240 243 241 237 229 231 237 217 198 201 210 211 211 207 208 217 213 226 232 226 214 210 192 180 196 214 207 199 198 201 204 210 210 202 204 220 208 204 208 217 234 234 229 217 210 190 193 196 192 184
246 255 255 250 244 240 247 255 255 244 249 247 235 226 216 211 235 240 241 250 246 234 241 250 252 255 255 255 255 253 249 247 252 255 255 255 247 243 243 255 253 240 240 238 238 240 246 243 232 231 229 229 243 249 246 244 250 255 253 249 241 240 247 253 255 255 247 235 229 216 211 216 222 216 207 207 220 238 255 255 249 246 238 232 169 124 82 60 57 57 63 82 111 139 174 211 250 255 255 255 255 255 255 255 255 255 255 255 255 255 255 255 255 255 255 255 255 255 255 255 255 255 255 255 255 255 255 255 240 214 187 154 133 126 121 114 102 96 91 90 88 87 81 75 73 73 73 69 64 61 61 57 54 52 52 54 55 58 57 57 58 57 57 55 58 55 55 52 54 57 132 241 249 247 246 250 246 213 195 178 174 166 159 159 171 198 210 216 225 228 228 226 213 214 219 241 243 243 243 234 234 244 246 241 234 237 232 204 201 205 210 205 208 207 211 216 213 226 238 237 211 202 204 184 207 223 219 207 208 223 223 213 210 202 202 217 217 214 204 207 232 231 213 208 208 219 202 210 205 184
246 255 255 255 253 249 255 255 255 253 244 243 240 235 235 240 255 255 255 255 255 255 255 255 255 255 255 255 255 255 253 247 255 255 255 255 253 250 255 255 249 241 238 238 240 243 246 243 231 231 231 234 244 250 249 247 252 255 255 244 234 234 246 255 255 255 255 250 240 234 228 220 219 217 211 207 208 231 255 255 240 220 216 207 135 76 61 60 57 57 67 91 121 145 174 207 246 255 255 255 255 255 255 255 255 255 255 255 255 255 255 255 255 255 255 255 255 255 255 255 255 255 255 255 255 255 255 253 231 210 187 160 136 127 120 112 105 99 91 94 87 82 78 73 72 70 70 72 66 64 61 57 54 52 52 55 58 60 58 58 58 57 58 55 55 55 55 52 52 58 84 214 249 246 246 252 249 213 190 172 166 159 159 162 163 202 220 225 220 226 237 237 229 241 246 246 246 247 246 243 240 240 246 243 237 220 210 195 205 210 210 204 202 214 219 213 199 219 238 231 213 214 214 211 219 220 223 222 220 232 226 217 214 211 226 234 234 232 208 217 232 232 213 207 214 219 210 210 210 195
246 255 255 255 255 252 255 255 255 255 240 229 234 243 253 255 255 255 255 255 255 255 255 255 255 255 255 255 255 255 255 255 255 255 255 255 255 252 255 255 255 255 255 255 255 255 255 250 235 234 240 244 253 255 255 255 255 255 255 250 244 240 244 250 255 255 255 249 240 240 238 231 225 226 226 222 228 235 235 241 241 223 205 163 106 61 60 57 57 61 76 103 130 150 177 211 244 255 255 255 255 255 255 255 255 255 255 255 255 255 255 255 255 255 255 255 255 255 255 255 255 255 255 255 255 255 255 240 217 196 181 156 141 130 118 112 111 106 103 97 84 81 76 73 73 70 72 72 69 64 61 60 54 52 52 54 58 60 57 57 57 57 58 55 55 54 55 58 52 54 60 163 247 246 244 252 241 195 184 168 169 165 162 159 159 198 217 222 213 220 237 219 225 246 246 241 241 244 249 255 241 207 244 241 229 211 195 195 205 219 211 201 201 214 219 219 199 213 232 232 217 219 219 228 232 232 229 231 229 235 237 232 220 213 234 241 238 237 225 222 226 229 217 207 214 208 195 193 202 211
246 255 255 255 255 253 255 255 255 255 244 229 235 252 255 255 255 255 253 255 255 255 255 255 255 255 255 255 255 255 255 255 255 255 255 255 255 255 255 255 255 255 255 255 255 255 255 255 250 246 250 255 255 255 255 255 255 255 255 255 255 255 250 250 253 253 250 243 238 238 238 235 232 237 246 246 249 235 216 234 241 238 184 126 84 72 60 57 60 63 81 109 138 156 189 217 244 255 255 255 255 255 255 255 255 255 255 255 255 255 255 255 255 255 255 255 255 255 255 255 255 255 255 255 255 255 240 222 201 181 166 151 141 135 127 121 115 112 108 99 90 84 79 75 75 73 70 72 72 66 61 57 55 52 51 52 55 57 57 58 58 57 57 57 58 55 55 54 57 52 61 130 240 241 240 232 181 157 166 169 169 169 163 166 166 198 234 220 193 192 198 189 208 234 231 216 204 240 255 255 235 171 237 241 229 217 202 198 219 213 207 202 201 204 213 217 202 204 223 232 226 226 223 225 229 237 240 241 240 229 240 238 226 229 241 247 244 240 232 232 228 225 229 229 226 216 195 192 192 195
247 255 255 255 255 255 255 255 255 255 255 235 240 255 255 255 255 255 253 255 255 255 255 255 255 255 255 255 255 255 255 255 255 255 255 255 255 255 255 255 255 255 255 255 255 255 255 255 255 255 255 255 255 255 255 255 255 255 255 255 255 253 250 250 255 255 249 240 235 235 235 235 238 244 255 255 252 235 216 220 241 228 142 91 85 76 60 58 60 64 78 105 135 162 198 223 246 255 255 255 255 255 255 255 255 255 255 255 255 255 255 255 255 255 255 255 255 255 255 255 255 255 255 255 255 247 226 208 186 169 160 150 139 139 135 126 118 117 111 99 90 85 82 79 78 75 70 70 72 70 66 60 57 55 55 54 55 58 60 58 58 60 57 58 55 54 54 54 52 52 58 90 193 237 237 195 144 145 163 168 169 166 166 166 165 186 234 220 171 154 157 171 195 210 217 213 204 231 250 255 216 171 234 244 232 226 223 207 214 211 220 216 207 208 217 223 211 208 223 219 222 225 222 222 223 240 246 246 241 240 240 235 234 234 244 247 244 240 237 237 235 225 232 238 237 222 201 198 187 180
247 255 252 255 255 255 255 255 255 255 255 252 237 249 255 255 255 255 255 255 255 255 255 255 255 255 255 255 255 255 255 255 255 255 255 255 255 255 255 255 255 255 255 255 255 255 255 255 255 255 255 255 255 255 255 255 255 255 255 255 253 249 249 255 255 255 250 246 246 243 238 240 243 247 255 255 252 244 238 204 214 160 108 91 87 72 60 57 60 64 78 105 139 169 202 228 249 255 255 255 255 255 255 255 255 255 255 255 255 255 255 255 255 255 255 255 255 255 255 255 255 255 255 255 255 238 220 204 186 169 162 151 145 141 136 130 121 120 114 106 97 91 90 85 81 76 73 70 72 72 70 61 60 60 60 57 57 57 60 58 60 58 57 55 54 52 52 52 52 52 57 61 147 223 193 150 136 139 148 154 162 166 165 159 153 171 228 207 150 145 145 165 183 189 211 216 216 231 243 241 171 199 249 250 243 240 240 232 219 207 219 220 216 211 214 223 217 214 223 208 202 208 219 222 222 238 244 244 241 241 243 241 241 232 241 243 238 240 232 229 240 237 235 235 241 234 199 196 192 180
244 252 252 252 255 255 255 255 255 255 255 255 238 247 255 255 253 255 255 255 255 255 255 255 255 255 255 255 255 255 255 255 255 255 255 255 255 255 255 255 255 255 255 255 255 255 255 255 255 255 255 255 255 255 255 255 255 255 255 255 255 255 255 255 255 253 250 253 252 246 244 244 244 250 255 255 255 255 255 237 184 121 96 94 76 61 57 58 60 66 79 111 142 177 205 231 249 255 255 255 255 255 255 255 255 255 255 255 255 255 255 255 255 255 255 255 255 255 255 255 255 255 255 255 252 235 217 201 187 172 166 156 148 141 139 141 135 126 121 118 112 102 93 93 87 81 76 72 72 72 69 61 60 61 60 60 57 57 58 60 60 57 57 55 54 52 51 52 52 54 55 57 127 172 144 132 129 126 127 145 157 162 166 154 150 163 193 180 150 145 145 153 168 172 198 205 208 237 241 223 153 204 249 250 247 228 229 240 223 198 199 211 213 211 207 213 214 219 222 211 202 198 213 219 220 240 243 241 241 241 246 244 240 229 244 244 228 220 225 241 243 240 232 229 241 229 202 204 195 180
243 255 255 253 247 253 255 255 255 255 255 255 240 249 255 255 250 249 250 255 255 255 255 255 255 255 255 255 255 255 255 255 255 255 255 255 255 255 255 255 255 255 255 255 255 255 255 255 255 255 255 255 255 255 255 255 255 255 255 255 255 255 255 255 255 255 253 252 250 249 246 250 255 255 255 255 255 255 255 225 133 99 100 82 67 60 57 60 61 67 82 112 141 169 204 228 249 255 255 255 255 255 255 255 255 255 255 255 255 255 255 255 255 255 255 255 255 255 255 255 255 255 255 255 250 234 217 199 192 184 178 165 154 147 142 144 142 135 129 123 120 115 102 100 99 90 81 73 70 69 69 63 61 60 58 60 60 58 58 60 60 60 60 58 54 52 51 52 54 55 54 60 99 133 132 130 130 126 129 147 157 160 166 148 142 150 157 166 150 142 138 139 148 154 177 190 199 226 223 184 144 199 240 246 232 166 193 223 222 208 198 213 219 207 207 211 216 225 232 229 213 198 213 220 235 244 246 243 241 243 246 244 229 238 247 247 234 220 234 244 244 241 223 222 226 219 208 207 207 180
243 252 252 249 247 255 255 252 255 255 250 247 238 241 255 255 238 220 225 255 255 255 255 253 255 255 255 255 255 255 255 255 255 255 255 255 255 255 255 255 255 255 255 255 255 255 255 255 255 255 255 255 255 255 255 255 255 255 255 255 255 255 255 255 255 250 244 238 238 243 252 255 255 255 255 255 255 255 255 177 108 97 87 67 63 61 60 60 61 75 93 114 139 163 204 226 249 255 255 255 255 255 255 255 255 255 255 255 255 255 255 255 255 255 255 255 255 255 255 255 255 255 255 255 255 235 216 207 201 196 187 177 165 159 150 148 144 141 135 127 123 123 115 109 106 96 87 75 72 72 69 64 61 60 60 58 57 60 58 60 60 60 60 60 55 52 51 52 52 54 54 58 67 112 126 127 123 127 129 141 157 153 148 141 138 139 145 154 144 132 132 138 139 153 184 195 211 225 204 148 139 195 231 244 214 148 162 210 228 222 213 217 228 220 220 232 229 234 237 235 225 225 237 229 240 246 246 244 243 246 246 246 240 241 247 247 244 241 240 240 243 244 235 220 213 217 205 201 199 181
228 229 238 249 255 255 255 255 247 243 240 241 225 211 220 228 231 226 216 234 255 255 255 255 253 255 255 255 255 255 255 255 255 255 255 255 255 255 255 255 255 255 255 255 255 255 255 255 255 255 255 255 255 255 255 255 255 255 255 255 255 255 255 255 243 234 234 238 243 250 255 255 255 255 255 255 255 255 247 139 103 93 73 61 61 60 58 60 61 84 112 129 144 177 210 234 250 255 255 255 255 255 255 255 255 255 255 255 255 255 255 255 255 255 255 255 255 255 255 255 255 255 255 255 255 240 219 219 222 208 201 195 190 183 168 159 151 145 141 135 127 127 123 115 103 91 81 75 72 69 67 64 63 61 60 57 57 55 57 57 57 57 57 57 55 52 51 52 54 54 54 57 61 100 123 120 120 124 121 133 151 145 133 138 141 141 138 138 135 129 129 133 132 148 180 207 225 211 172 136 142 190 219 237 198 144 147 192 238 240 240 228 229 237 240 241 241 243 240 241 235 240 243 240 241 243 246 246 241 243 246 243 238 243 246 249 249 246 243 241 241 243 243 231 213 223 207 184 181 189
207 202 211 223 231 249 255 255 241 226 220 228 216 195 195 207 220 220 207 216 255 255 255 253 244 255 255 255 255 255 255 255 255 255 255 255 255 234 225 216 244 255 255 255 255 255 255 255 255 255 255 255 255 255 255 255 255 255 255 255 255 255 255 255 244 238 244 252 255 255 255 255 255 255 255 255 255 255 190 114 100 88 66 60 60 60 57 58 60 87 121 141 162 192 217 235 253 255 255 255 255 255 255 255 255 255 255 255 255 255 255 255 255 255 255 255 255 255 255 255 255 255 255 255 255 255 238 234 235 229 228 222 213 207 195 178 169 154 148 141 133 130 126 117 102 91 81 70 70 72 69 64 63 63 60 58 57 55 55 54 55 55 57 57 58 52 51 52 52 54 54 55 60 91 126 124 124 120 109 132 148 142 130 138 139 138 135 129 129 130 129 127 132 145 168 199 223 195 153 136 157 178 199 225 178 142 144 175 237 241 240 229 234 241 244 246 246 246 244 246 241 243 244 240 241 243 243 243 229 231 238 231 231 241 244 247 249 246 244 246 244 241 240 231 222 223 204 181 177 186
205 195 186 175 198 225 234 222 223 216 204 196 196 198 192 186 202 199 193 216 255 255 255 255 244 255 255 255 255 255 255 255 255 255 255 255 255 231 223 204 211 255 255 255 255 255 255 255 255 255 255 255 255 255 255 255 255 255 255 255 255 255 255 255 255 255 255 255 255 255 255 255 255 255 255 255 255 255 139 94 96 81 64 60 61 61 58 58 61 91 124 145 175 196 219 241 255 255 255 255 255 255 255 255 255 255 255 255 255 255 255 255 255 255 255 255 255 255 255 255 255 255 255 255 255 255 255 255 255 255 255 241 231 222 216 204 192 178 160 150 142 136 129 121 114 100 85 75 67 72 70 66 61 61 60 60 58 55 55 55 55 55 55 55 58 54 51 52 52 55 54 54 58 82 121 126 123 102 96 124 138 136 127 127 127 124 130 126 126 124 126 129 136 145 160 175 180 162 138 142 171 166 180 207 163 142 148 180 234 243 241 240 241 240 246 249 247 249 252 250 243 246 246 240 244 247 240 232 229 238 225 231 238 240 244 247 247 247 249 249 249 244 238 222 222 210 196 183 169 166
220 211 190 171 177 175 166 183 193 198 186 171 171 187 172 174 190 183 177 199 247 255 255 255 255 253 255 255 255 255 255 255 255 244 234 241 225 222 229 204 202 243 255 255 255 255 255 255 255 255 255 255 255 255 255 255 255 255 255 255 255 255 255 255 255 255 255 255 255 255 255 255 255 255 255 255 255 252 121 94 93 73 61 61 61 60 58 57 61 100 133 156 180 201 228 249 255 255 255 255 255 255 255 255 255 255 255 255 255 255 255 255 255 255 255 255 255 255 255 255 255 255 255 255 255 255 255 255 255 255 255 255 241 232 226 219 210 190 174 162 147 141 130 126 120 109 88 76 67 67 72 69 61 57 60 58 57 58 57 58 57 55 55 55 58 54 52 52 54 54 54 52 57 72 114 120 115 96 97 106 120 127 121 121 120 112 115 117 120 117 118 130 136 145 153 154 156 145 136 148 171 168 184 193 148 139 144 180 243 249 243 241 244 240 241 243 249 255 255 252 246 247 250 246 247 247 244 241 234 238 235 223 231 241 246 249 249 246 246 246 249 249 241 220 207 186 196 189 172 159
220 201 190 174 166 154 148 150 150 165 187 178 186 183 163 163 172 168 168 192 226 244 255 255 255 249 255 255 255 255 255 255 255 219 199 217 208 213 223 198 202 222 228 255 255 255 255 255 255 255 255 255 255 255 255 255 255 255 255 255 255 255 255 255 255 255 255 255 255 255 255 255 255 255 255 255 255 217 118 99 84 64 61 61 60 57 57 57 63 102 132 151 183 210 234 255 255 255 255 255 255 255 255 255 255 255 255 255 255 255 255 255 255 255 255 255 255 255 255 255 255 255 255 255 255 255 255 255 255 255 255 253 241 231 228 223 214 196 175 165 151 142 132 124 115 100 91 81 73 72 72 70 61 57 58 58 57 58 60 58 57 57 55 54 52 52 51 51 54 55 55 54 57 64 103 109 105 105 106 96 100 123 124 124 123 111 111 117 114 114 114 130 135 138 141 142 142 135 138 154 157 157 189 193 147 139 142 178 241 250 247 241 244 240 241 241 244 255 255 252 250 250 243 237 244 246 243 241 240 238 238 220 220 241 247 255 252 244 241 243 246 247 240 208 192 181 202 195 169 154
195 207 192 165 160 148 147 138 130 147 186 202 202 199 187 186 169 168 163 183 207 202 228 255 255 249 249 255 255 255 255 255 243 202 193 205 205 205 202 193 210 214 207 226 255 255 255 255 255 255 255 255 255 255 255 255 255 255 255 255 255 255 255 255 255 255 255 255 255 255 255 255 255 255 255 255 255 180 112 96 78 61 60 60 57 57 55 57 61 97 127 144 172 207 232 255 255 255 255 255 255 255 255 255 255 255 255 255 255 255 255 255 255 255 255 255 255 255 255 255 255 255 255 255 255 255 255 255 255 253 250 243 235 228 219 214 207 190 175 160 145 139 130 124 114 93 90 88 79 76 70 66 61 60 58 57 57 57 60 57 58 57 58 54 52 51 51 52 54 58 57 58 57 61 97 100 94 100 102 94 96 117 123 124 123 117 117 121 123 120 121 129 129 126 127 130 127 124 141 159 150 147 186 181 148 141 136 159 228 250 250 240 241 240 240 241 244 250 253 250 247 246 241 237 244 244 238 238 241 240 237 220 225 243 249 255 249 241 241 241 241 237 217 193 177 178 202 168 153 150
195 207 187 159 156 147 142 132 129 142 169 189 193 192 184 187 184 181 163 159 181 192 208 232 235 235 223 243 255 255 253 235 225 226 202 193 195 198 184 180 207 204 189 190 234 255 255 255 255 255 255 255 255 255 255 255 255 255 255 255 255 255 255 255 255 255 255 255 255 255 255 255 255 255 255 255 255 153 99 91 76 61 60 60 57 58 55 57 61 96 124 141 165 199 226 246 255 255 255 255 255 255 255 255 255 255 255 255 255 255 255 255 255 255 255 255 255 255 255 255 255 244 235 234 247 255 255 244 240 235 232 229 226 222 208 199 193 181 171 150 138 135 129 123 112 93 82 84 82 78 72 69 63 60 57 57 57 58 58 57 57 57 60 58 54 51 51 52 55 58 58 58 58 60 93 100 93 96 94 93 90 108 117 123 123 121 124 127 129 123 127 132 127 118 118 121 121 124 141 159 144 142 177 150 136 136 132 147 205 247 247 243 240 241 243 244 244 247 250 247 244 246 243 240 244 241 241 241 238 240 237 220 225 240 247 247 235 229 232 228 222 202 192 178 174 174 165 150 147 148
207 207 184 150 145 148 136 132 129 138 151 171 184 169 157 163 184 184 165 144 148 174 190 211 226 228 216 211 223 226 232 207 232 252 228 193 192 198 175 162 181 177 166 175 216 255 255 255 223 234 255 255 255 255 255 255 255 255 255 255 255 255 255 255 255 255 255 255 255 255 255 255 255 255 255 255 252 133 91 93 82 63 60 60 60 60 55 57 61 90 118 139 159 196 222 240 252 255 255 255 255 255 255 255 255 255 255 255 255 255 255 255 255 255 255 255 255 255 231 180 175 159 159 172 190 201 211 223 237 222 213 223 225 214 198 190 172 156 148 136 129 126 120 111 108 97 87 82 79 78 76 73 64 60 57 58 58 57 57 58 57 55 58 60 58 54 52 54 58 60 60 58 57 60 91 108 97 91 85 85 90 102 105 120 126 127 130 129 130 129 129 132 126 120 117 115 120 127 139 147 136 144 175 138 121 129 132 148 172 186 208 240 240 243 244 246 244 246 247 246 244 243 238 238 241 241 241 243 238 241 243 240 243 243 246 240 216 208 211 211 201 186 174 163 165 168 157 144 144 139
207 193 165 145 145 142 136 135 133 135 142 153 165 160 157 163 181 183 169 144 144 153 165 187 223 228 223 219 210 204 223 207 228 252 228 201 195 193 172 154 162 160 159 178 223 247 243 186 148 162 211 255 255 255 255 255 255 255 255 255 255 255 255 255 255 255 255 255 255 255 255 255 255 255 255 255 223 114 82 84 79 63 60 60 61 61 57 58 61 85 117 139 168 199 222 235 238 235 229 223 219 220 232 252 255 255 255 255 255 255 255 255 255 255 255 255 216 192 150 130 126 127 135 139 142 148 162 174 198 195 187 189 195 186 165 153 150 139 129 123 120 114 106 106 106 99 93 82 76 76 78 76 64 57 57 58 55 55 55 58 55 54 55 57 58 57 54 54 55 57 57 58 58 60 87 108 96 85 84 81 87 96 97 112 120 126 132 135 136 133 127 127 126 123 117 111 118 127 135 141 133 148 177 138 118 124 136 147 150 139 139 195 240 243 243 244 247 250 246 243 243 241 241 238 241 243 244 243 238 243 243 240 244 244 240 225 216 208 210 205 196 181 159 150 150 160 160 151 153 136
165 154 145 145 148 138 133 133 129 132 138 147 159 160 156 169 181 181 181 160 148 150 150 166 189 189 196 196 189 196 204 196 201 204 202 189 169 171 160 144 147 150 150 165 171 154 144 127 130 138 148 208 255 255 255 255 255 255 255 255 255 255 255 255 255 255 255 255 255 255 255 255 255 255 255 255 186 97 78 76 75 61 61 61 61 61 60 60 61 84 121 147 187 216 232 229 216 202 189 165 150 154 171 205 241 255 255 255 255 255 255 255 255 255 255 208 150 135 118 109 106 105 111 117 121 129 132 133 141 145 145 144 144 139 135 130 129 126 114 111 109 99 97 99 96 94 90 79 75 75 76 73 66 60 55 58 55 54 55 55 55 54 54 55 58 58 58 55 55 55 58 57 57 60 88 108 90 79 79 81 91 103 102 112 117 121 132 136 133 129 121 126 124 123 118 111 117 126 129 135 130 151 177 135 114 121 142 148 142 132 132 163 225 244 244 247 246 249 250 244 240 240 241 243 247 246 246 241 241 246 240 240 243 241 238 232 226 205 189 193 207 189 160 150 153 157 154 159 157 132
138 142 147 148 147 139 133 133 129 129 136 142 145 151 156 157 172 171 159 154 160 166 157 159 159 159 193 192 177 169 172 168 163 159 168 169 148 148 142 138 141 147 153 162 136 118 120 118 127 129 133 159 168 184 234 255 255 255 255 255 255 255 255 255 255 255 255 255 255 255 255 255 255 255 255 255 147 90 79 75 69 61 61 61 60 60 60 57 57 79 124 150 193 219 219 202 174 150 138 127 114 118 132 148 190 243 255 255 255 255 255 255 255 244 208 150 118 96 82 85 87 84 82 88 96 103 105 103 102 111 117 118 117 115 117 111 102 111 100 94 91 82 85 90 91 90 87 79 75 75 78 73 66 60 57 54 54 55 55 55 55 55 55 57 58 58 58 58 57 57 58 55 55 60 84 94 81 78 78 82 94 103 97 103 106 108 114 115 123 123 121 121 120 121 118 111 120 129 127 124 130 159 154 130 108 118 138 139 141 133 136 153 217 252 252 250 246 244 247 244 238 235 234 238 246 247 246 246 243 244 246 243 243 243 241 240 232 205 184 193 207 184 157 150 150 151 150 154 144 121
133 141 148 141 139 136 132 132 135 138 139 138 139 151 160 159 172 162 153 153 162 166 157 159 165 180 195 195 168 153 153 148 150 151 156 162 151 138 135 136 141 147 157 153 127 117 120 118 132 136 133 142 142 144 163 231 255 255 255 255 255 255 255 255 255 255 255 255 255 255 255 255 255 255 255 232 132 84 79 75 67 64 63 61 60 61 60 57 57 76 118 142 156 160 154 145 132 115 100 96 91 93 103 118 138 190 249 255 255 255 255 255 255 208 159 129 99 79 70 75 75 73 70 70 79 84 85 85 81 81 81 90 94 91 93 85 85 88 82 79 76 76 78 81 87 82 81 81 78 79 79 73 64 60 57 55 54 55 58 58 57 58 60 58 57 57 57 58 57 58 57 55 55 60 69 84 81 78 78 84 91 97 88 85 93 99 93 91 108 123 124 117 108 115 114 111 121 127 124 114 130 159 142 121 99 111 132 135 141 139 138 144 201 252 252 249 244 244 244 246 241 234 237 229 229 243 244 244 241 243 249 250 250 246 241 240 223 201 184 207 199 172 153 150 160 154 150 148 133 117
132 136 139 133 133 133 132 133 138 142 142 138 153 162 160 162 162 163 156 162 157 153 154 165 175 184 183 172 157 148 144 145 147 147 147 145 141 129 130 130 136 142 142 132 117 115 121 126 136 138 135 135 132 133 144 148 225 255 255 255 255 255 255 255 255 255 255 255 255 255 255 255 255 255 244 210 132 85 76 70 67 66 64 63 61 61 61 60 61 75 97 109 120 123 117 103 93 93 93 99 93 85 85 90 100 133 201 255 255 255 255 255 234 178 135 100 81 72 64 66 67 67 79 97 120 136 142 138 124 97 82 73 73 75 73 67 70 69 63 67 69 72 76 76 79 79 78 78 79 79 75 72 66 61 60 58 54 54 58 57 58 60 60 58 58 58 57 58 58 58 57 55 54 57 63 84 87 78 76 87 87 87 85 87 93 93 87 88 94 111 124 111 108 114 109 109 121 124 118 112 126 136 121 105 97 111 126 132 141 141 138 139 184 243 246 244 244 247 249 249 241 234 237 229 231 240 240 241 240 241 243 247 249 243 238 228 202 196 201 207 184 153 153 181 202 165 153 148 129 114
135 132 133 135 133 133 133 132 135 141 141 148 171 172 165 166 157 159 156 151 151 157 162 181 181 174 165 147 150 145 141 144 141 139 139 133 126 123 120 118 118 124 123 114 111 111 120 126 136 138 132 129 129 133 136 126 154 255 255 255 255 255 255 255 255 255 255 255 255 255 255 255 255 252 241 223 136 84 76 67 69 66 64 63 60 60 60 57 60 67 79 85 85 84 85 91 118 142 154 154 144 132 117 85 84 103 150 247 255 255 255 255 211 150 121 82 70 69 61 63 66 85 120 142 162 180 180 177 147 124 102 79 67 63 61 61 63 63 60 61 64 67 75 78 78 79 79 78 76 76 75 73 70 61 60 60 54 52 54 55 58 58 60 58 60 60 60 57 58 55 58 55 54 57 61 88 88 81 76 79 82 84 84 87 93 90 85 87 84 93 112 115 112 114 111 109 117 121 112 115 120 103 91 91 96 115 127 133 141 139 133 138 184 241 246 247 246 247 247 241 225 225 234 226 237 238 234 240 235 235 229 240 238 231 219 205 193 196 199 202 183 153 154 190 202 177 153 144 126 114
132 130 133 139 139 136 135 133 132 136 142 156 190 187 169 168 159 145 138 138 148 163 177 180 171 169 160 144 145 144 141 142 139 133 132 126 114 111 109 109 105 111 114 111 114 117 117 123 133 136 133 129 129 135 132 114 139 249 255 255 255 255 255 255 255 255 255 255 250 250 255 255 255 244 241 220 132 84 79 70 67 64 66 64 60 60 58 57 60 63 73 76 78 78 84 109 133 148 147 142 127 121 121 109 90 84 126 216 255 255 255 247 187 138 106 81 66 61 61 64 82 117 127 126 120 111 109 102 90 90 88 81 78 67 61 61 61 60 60 60 63 70 79 85 84 84 87 81 78 76 76 73 69 61 60 57 54 52 52 54 57 57 58 57 58 60 60 57 55 54 54 55 55 57 61 82 88 84 81 81 84 88 87 88 90 87 85 85 84 90 102 106 108 109 111 108 114 123 121 117 109 90 84 90 97 112 124 133 139 136 132 133 172 240 244 249 249 246 244 225 199 211 234 229 225 225 225 231 238 228 226 225 211 204 198 193 195 193 190 184 177 157 157 175 198 163 145 142 129 126
126 130 136 141 144 139 133 132 132 136 144 157 190 190 159 154 151 141 136 136 150 160 172 168 154 154 153 144 139 136 135 136 139 135 127 118 112 111 108 109 105 105 106 106 115 117 115 120 132 141 139 132 127 132 126 112 136 255 255 255 255 255 255 255 255 255 249 238 228 216 228 250 246 235 229 198 130 79 76 73 69 64 63 64 60 60 60 57 57 61 69 73 75 75 87 96 90 82 76 61 60 60 66 85 96 91 97 172 244 255 255 237 168 123 94 81 67 61 64 76 91 102 93 84 81 61 51 51 51 60 61 61 63 61 61 57 60 60 60 61 79 94 97 99 94 91 90 81 75 73 73 70 64 60 60 58 54 52 52 54 58 58 55 55 58 58 58 58 55 54 54 55 55 57 61 75 88 88 87 84 82 88 88 88 84 85 93 90 88 99 109 106 100 96 100 103 106 118 124 121 109 91 81 82 87 93 105 121 130 130 133 133 157 240 247 253 255 253 244 223 199 208 237 229 213 223 217 217 232 220 213 204 190 184 193 190 186 181 172 172 169 163 166 174 172 153 144 142 136 132
126 133 141 144 144 138 136 135 132 138 147 160 177 175 153 148 147 144 136 144 153 153 154 150 144 144 147 141 135 132 130 133 136 136 127 114 112 109 109 111 105 103 103 105 112 117 115 118 130 142 144 135 126 130 127 112 133 255 255 255 255 255 255 255 255 255 253 252 225 216 243 249 241 235 225 193 141 84 73 67 64 64 63 61 60 58 58 57 57 61 64 70 75 75 76 78 84 97 84 57 51 51 60 61 81 100 94 144 232 255 255 232 154 103 82 78 67 66 73 81 85 100 124 136 132 81 51 55 54 54 54 54 57 57 60 57 60 61 61 79 111 124 120 111 102 99 91 82 78 75 70 72 69 61 61 60 55 52 54 58 58 54 54 55 58 57 58 58 58 58 55 55 55 55 60 69 87 88 87 81 78 82 81 82 84 84 88 93 91 99 109 108 99 93 93 94 102 115 124 124 114 93 78 78 81 82 90 100 118 126 130 132 144 220 250 255 255 255 246 234 208 219 237 216 204 223 217 216 225 214 204 189 178 171 178 183 184 180 168 168 169 169 172 172 166 151 141 139 136 133
129 132 139 144 144 144 147 147 138 138 148 160 160 153 145 148 153 153 150 156 162 151 144 144 139 141 144 139 135 127 124 132 136 136 127 118 114 111 115 120 109 103 111 109 114 117 114 109 121 138 148 142 126 127 129 117 130 252 255 255 255 255 255 255 255 237 244 252 238 225 247 247 237 225 213 202 162 111 78 61 61 63 63 61 61 61 58 57 57 72 96 103 88 76 81 103 133 142 118 61 57 60 61 61 67 102 121 136 223 255 255 232 154 100 76 73 67 79 96 105 127 172 220 219 181 115 60 61 61 60 61 64 76 73 76 85 103 120 121 130 136 144 135 121 109 97 90 85 81 76 73 72 69 63 61 58 57 55 57 55 54 52 52 54 55 57 58 57 58 58 57 55 54 55 57 67 82 84 79 79 78 78 79 81 87 85 82 87 84 85 91 99 96 93 91 84 94 105 115 120 118 99 78 78 79 82 91 96 94 117 126 127 133 189 250 255 250 247 243 225 220 229 226 202 198 205 208 214 211 204 199 192 189 186 168 175 184 180 168 172 165 154 159 169 168 150 136 133 133 129
129 132 135 138 139 145 148 147 139 145 153 154 153 148 144 151 157 154 154 160 162 151 147 145 139 141 142 136 130 124 124 129 135 133 130 126 120 114 117 120 111 105 109 114 115 115 108 103 112 135 148 138 124 123 126 132 154 255 255 255 255 255 255 255 202 157 166 214 241 226 216 226 238 216 208 205 177 124 79 63 61 61 61 63 63 61 60 57 57 91 133 147 127 114 126 142 175 193 154 121 102 100 97 99 112 127 138 144 228 255 255 228 154 106 81 75 70 87 114 133 165 247 247 241 223 171 121 103 103 102 105 108 111 103 108 130 147 163 168 169 166 160 145 129 117 106 94 85 78 76 73 69 64 61 57 57 58 60 60 60 54 54 54 55 55 57 58 58 57 58 57 55 54 54 60 70 87 85 81 82 82 81 82 82 87 85 85 81 78 78 81 88 87 85 87 84 87 91 97 100 106 102 85 85 84 82 96 97 93 105 124 133 139 171 246 255 249 244 241 225 222 223 219 210 204 198 205 208 198 201 199 186 184 181 163 177 178 166 174 186 165 153 153 157 157 145 133 132 130 127
133 136 136 133 136 144 148 142 138 147 159 154 154 153 144 156 157 154 162 163 160 160 148 145 145 141 139 133 127 126 129 127 132 136 141 136 123 105 100 109 105 106 114 114 108 105 105 103 118 138 142 133 123 121 132 198 255 255 255 247 244 255 255 223 148 124 130 150 198 198 192 190 228 229 217 207 180 124 70 61 61 61 64 64 60 57 60 57 60 97 139 168 147 132 144 177 207 234 234 214 157 139 130 130 136 136 141 150 234 255 252 228 153 112 87 76 73 90 114 139 160 207 241 225 225 214 162 139 138 133 126 117 112 111 123 142 162 183 195 202 196 180 153 133 120 111 100 87 78 78 78 66 63 60 57 55 58 58 57 58 55 55 55 55 58 58 57 57 57 58 58 55 54 54 58 75 91 88 82 82 82 88 87 82 84 85 87 87 79 78 82 87 87 85 88 85 87 87 90 91 91 97 94 93 90 85 99 102 91 94 118 136 145 163 228 246 243 241 240 226 211 208 214 210 204 204 214 214 196 201 199 190 183 162 162 180 174 166 174 186 171 160 157 160 156 144 139 135 130 127
136 136 136 133 135 147 148 138 136 145 159 154 162 163 148 153 156 150 154 165 163 163 150 148 148 144 144 141 136 135 135 133 139 142 142 136 117 93 85 99 108 115 115 111 106 106 106 106 121 136 138 129 118 112 139 249 255 255 249 238 241 241 216 172 132 124 129 126 138 153 168 159 204 237 226 214 168 106 67 61 63 64 64 61 58 57 55 57 60 109 142 168 159 144 148 156 169 187 190 168 136 115 103 117 127 132 139 159 247 255 253 225 150 102 85 81 81 90 112 135 142 148 168 166 168 160 145 135 130 127 117 103 96 103 126 144 168 199 214 225 220 202 159 138 124 114 102 85 75 75 75 64 63 60 55 54 58 58 58 57 57 58 58 55 58 57 57 57 57 58 58 57 54 54 57 69 91 87 81 82 85 90 90 82 84 85 88 88 84 84 84 90 91 91 90 85 88 88 87 91 94 94 90 94 102 99 108 105 94 93 112 138 144 159 225 243 238 234 240 237 213 198 199 196 198 207 210 195 186 199 198 187 180 157 157 171 180 180 174 174 171 166 166 159 145 138 136 139 138 127
136 136 136 135 133 145 154 142 136 148 162 165 163 156 145 150 151 151 150 169 175 160 151 151 147 139 147 147 144 139 139 139 141 142 141 129 102 90 85 97 108 115 115 106 108 109 109 109 120 132 135 129 114 108 139 228 216 217 232 228 217 196 157 139 127 126 126 112 112 133 144 147 187 232 237 223 139 84 70 61 61 63 63 61 57 57 55 57 61 126 154 183 192 180 163 142 136 130 121 112 94 91 91 118 138 159 162 180 255 255 255 220 147 102 85 91 91 94 118 138 148 148 147 136 132 127 120 118 112 108 99 96 111 138 154 177 201 225 241 241 234 214 168 141 126 105 91 79 70 66 69 66 64 60 57 55 57 57 60 60 57 55 55 55 58 57 57 57 57 58 57 57 54 54 60 63 79 81 79 78 79 84 79 78 79 82 84 82 82 82 82 84 87 88 87 85 90 93 91 87 93 90 82 85 100 103 108 105 100 97 111 138 139 147 225 241 234 234 241 237 214 193 192 192 195 210 198 175 186 198 192 183 174 163 159 163 168 169 168 168 169 166 163 150 139 135 135 141 138 127
139 139 139 141 138 144 154 148 145 157 171 172 157 150 145 154 156 150 157 180 180 156 147 145 141 141 139 139 142 141 139 139 141 147 142 126 94 88 91 102 109 118 118 111 106 106 109 108 117 126 133 132 111 100 138 180 148 177 228 219 190 165 142 126 124 130 132 118 112 123 126 132 168 223 232 172 108 81 75 63 63 64 64 61 60 60 58 58 63 132 184 222 247 247 231 189 157 139 130 121 114 121 133 157 207 229 217 208 255 255 255 220 145 108 93 97 100 112 133 150 177 193 171 147 138 136 133 127 124 130 136 147 180 225 228 229 237 241 241 241 223 202 165 139 124 103 85 76 70 66 69 66 63 60 58 55 57 58 60 60 57 55 54 54 55 55 55 55 57 58 58 58 55 54 57 61 79 78 76 75 73 73 73 78 79 81 87 85 84 87 84 90 96 90 85 85 90 96 93 88 91 88 82 82 91 97 100 102 103 108 114 132 135 136 193 232 231 240 243 234 204 189 195 195 192 198 186 172 183 187 183 178 174 169 165 168 174 175 171 171 165 162 160 148 141 138 135 141 136 127
139 139 147 157 147 145 148 147 148 162 172 162 154 151 148 154 156 148 157 171 166 151 141 136 136 138 126 127 139 141 136 132 138 147 147 123 91 91 96 108 112 118 118 108 102 102 106 106 106 115 126 124 99 90 132 154 121 133 195 198 154 142 130 117 121 136 136 121 117 115 112 121 156 198 184 129 90 79 73 64 63 63 63 64 61 61 58 57 64 133 202 250 255 255 255 255 255 253 223 199 186 196 207 237 255 255 255 244 255 255 255 210 144 112 100 102 112 133 165 216 238 249 237 226 231 252 255 244 244 250 255 255 255 255 255 255 250 241 235 222 201 177 154 139 123 103 82 73 73 69 66 61 61 61 60 57 57 58 60 60 57 57 55 54 54 54 54 54 55 58 58 58 55 52 55 61 76 76 75 76 75 75 78 82 82 82 88 88 88 96 93 97 109 109 109 108 102 94 93 94 94 93 85 82 85 88 91 90 93 108 115 124 129 127 150 199 234 240 243 222 190 189 199 199 189 184 180 168 169 177 177 174 174 175 174 174 181 181 172 166 160 157 156 150 145 141 138 138 136 130
141 144 159 159 147 144 148 145 142 153 163 156 151 148 144 147 151 147 148 151 151 147 139 135 135 130 126 133 141 141 132 126 124 138 136 117 100 100 100 106 112 115 111 99 97 96 96 103 106 103 114 112 94 90 124 138 111 112 153 162 133 132 127 114 114 132 136 129 117 108 99 114 151 181 142 97 81 75 69 61 60 61 63 61 60 57 57 57 67 135 214 255 255 255 255 255 255 255 255 255 253 255 255 255 255 255 255 255 255 255 255 199 144 120 109 105 120 148 202 252 255 255 255 255 255 255 255 255 255 255 255 255 255 255 255 255 250 235 222 204 183 159 144 132 115 97 81 72 72 72 70 61 60 60 57 57 57 57 58 60 60 60 58 54 52 52 52 54 54 55 60 60 55 52 54 60 72 79 76 75 76 78 82 82 81 82 85 85 90 97 103 106 109 115 117 117 108 94 91 94 93 93 87 85 81 82 88 88 88 97 103 117 126 127 138 183 237 240 240 220 202 205 210 210 193 168 168 166 168 186 186 168 174 190 187 178 175 171 165 159 157 157 157 153 148 145 144 145 144 138
144 147 148 132 121 132 138 141 141 147 156 153 150 147 141 141 147 145 141 141 141 138 133 136 135 127 126 138 141 136 124 114 111 120 118 102 100 100 100 105 108 114 111 99 90 87 87 93 97 96 102 108 96 91 106 114 102 108 130 138 129 129 126 120 114 126 133 129 115 105 94 109 142 150 115 88 78 73 70 61 60 61 61 61 60 57 58 60 73 136 219 252 255 255 255 255 255 255 255 255 255 255 255 255 255 255 255 255 255 255 255 193 144 126 120 118 127 165 220 253 255 255 255 255 255 255 255 255 255 255 255 255 255 255 255 255 244 226 205 189 166 148 135 121 103 94 81 75 73 73 72 61 60 58 58 57 60 58 58 58 58 58 55 52 51 51 52 52 54 55 58 57 55 52 54 57 70 84 79 79 81 81 79 81 81 82 88 91 97 102 106 109 109 105 105 97 93 96 93 90 85 91 85 87 84 81 82 91 93 90 91 105 120 132 139 168 223 231 237 226 226 223 205 196 190 177 168 168 174 175 169 168 181 192 184 174 168 163 159 157 160 160 160 154 150 150 151 153 151 141
144 144 129 99 90 114 129 135 139 144 145 147 144 141 138 138 144 145 139 138 136 133 132 132 132 129 127 132 135 129 121 114 108 108 105 100 103 102 97 100 105 115 114 102 91 87 84 85 87 91 96 102 96 90 94 102 102 108 117 118 118 123 123 120 118 123 130 126 114 97 85 103 133 130 91 82 76 75 75 64 61 61 57 60 60 57 60 61 73 132 193 226 255 255 255 255 255 255 255 255 255 255 255 255 255 255 255 255 255 255 255 189 142 127 123 127 139 178 222 255 255 255 255 255 255 255 255 255 255 255 255 255 255 255 255 255 235 213 192 172 154 142 133 120 103 93 84 75 67 67 69 63 61 60 58 57 60 57 57 58 57 55 54 54 52 51 52 54 55 58 58 57 55 52 52 57 75 91 93 97 94 85 79 81 84 84 84 90 94 93 97 99 94 91 88 82 81 88 97 96 84 84 82 81 81 79 81 84 84 84 82 84 105 127 138 154 204 229 237 234 229 220 199 181 184 193 178 166 175 174 169 174 184 189 178 183 183 168 159 159 162 165 165 159 156 160 157 156 153 139
141 136 120 99 90 99 121 133 139 141 144 144 141 138 138 139 145 147 141 139 138 133 130 130 129 124 121 126 127 127 126 123 114 100 97 102 106 105 97 97 106 114 111 102 99 91 82 82 85 93 97 103 100 90 94 103 108 111 108 105 108 112 115 115 115 123 126 123 111 93 85 99 127 118 82 75 73 73 75 67 63 61 57 60 60 60 60 61 70 124 169 211 246 255 255 255 255 255 255 255 255 255 255 255 255 255 255 255 255 255 255 193 147 132 124 124 142 177 219 255 255 255 255 255 255 255 255 255 255 255 255 255 255 255 255 246 219 196 174 156 145 136 129 118 105 96 84 75 70 69 69 63 61 61 58 58 60 58 57 60 60 55 55 58 54 52 52 54 55 58 58 57 55 54 54 57 73 91 99 111 105 90 84 84 84 82 82 84 84 90 99 94 90 88 90 85 81 82 94 97 82 82 84 81 79 79 82 82 82 85 84 88 103 121 130 138 159 202 228 228 216 202 192 187 181 193 189 166 171 174 178 180 187 183 181 198 202 183 163 163 166 166 169 166 169 168 163 156 151 139
141 136 121 109 106 111 124 139 145 145 144 142 142 141 141 147 154 151 147 142 138 135 130 127 118 109 115 120 126 127 127 126 117 99 97 103 108 108 100 99 106 112 111 103 97 96 87 88 88 93 97 105 102 94 96 103 105 103 94 93 90 91 100 108 115 120 123 118 105 93 90 102 126 109 76 73 73 75 76 70 64 61 61 61 61 61 60 60 67 111 150 196 237 255 255 255 255 255 255 255 255 255 255 255 255 255 255 255 255 255 255 202 148 135 127 127 145 177 219 255 255 255 255 255 255 255 255 255 255 255 255 255 255 255 255 235 205 177 159 147 139 129 123 117 108 94 81 76 73 73 73 66 63 61 57 57 57 57 60 60 60 55 55 58 52 52 52 54 55 57 58 57 57 55 54 57 76 97 109 118 115 103 99 96 90 90 84 85 90 93 96 99 100 96 97 93 90 85 90 99 102 103 97 81 84 87 88 84 82 93 94 100 111 112 120 124 136 148 159 172 177 177 181 175 172 180 169 166 166 168 177 177 181 183 183 198 202 189 172 171 171 168 165 165 168 168 160 154 148 142
148 138 115 105 108 123 138 153 153 147 144 142 145 147 148 159 159 156 148 142 138 135 129 123 112 105 108 115 123 127 127 126 118 105 99 105 108 108 109 109 115 118 114 105 94 96 96 96 91 91 97 103 100 93 96 99 99 93 88 87 81 82 93 105 114 120 120 115 102 93 90 105 124 96 73 72 75 76 73 64 63 61 61 61 61 61 60 60 63 97 139 186 228 255 255 255 255 255 255 255 255 255 255 255 255 255 255 255 255 255 255 208 150 136 129 132 151 183 204 246 255 255 255 255 255 255 255 255 255 255 255 255 255 255 250 223 192 163 150 139 127 121 117 114 103 87 78 70 67 72 73 70 66 61 57 57 57 60 60 60 57 55 55 54 54 52 54 54 55 55 58 57 58 58 54 60 94 132 142 144 142 136 133 130 130 132 133 132 129 124 121 127 129 121 120 120 115 111 103 114 121 126 115 91 97 100 94 84 91 99 97 100 112 108 108 114 121 124 132 139 148 150 165 157 157 156 150 154 162 165 160 154 160 171 172 183 189 186 177 175 162 153 150 150 156 160 153 153 153 139
148 130 97 91 93 109 138 151 148 144 141 141 142 142 141 145 153 151 147 141 136 133 124 112 102 102 102 114 121 126 126 124 121 114 105 105 102 102 106 118 118 118 109 99 93 96 97 97 90 90 96 102 100 93 97 96 97 93 88 84 82 81 90 102 115 120 120 115 103 97 96 109 117 87 66 64 70 69 64 61 61 61 61 61 61 61 60 57 61 84 130 178 229 255 255 255 255 255 255 255 255 255 255 255 255 255 255 255 255 255 255 211 162 142 136 133 145 178 207 246 255 255 255 255 255 255 255 255 255 255 255 255 255 255 240 213 192 162 144 133 120 118 111 105 94 85 79 75 72 67 72 69 67 61 57 58 60 60 60 58 55 54 55 54 54 54 54 55 55 55 55 57 58 57 55 60 111 153 153 153 148 148 148 144 150 163 181 184 162 156 157 181 181 163 154 154 151 148 144 142 142 141 141 136 135 132 126 124 130 132 129 132 139 135 130 127 130 136 139 144 144 147 162 159 153 148 144 144 148 156 153 144 144 150 153 159 163 162 157 159 153 145 142 142 145 150 150 150 154 139
121 106 88 84 84 84 120 138 139 138 135 135 136 135 129 127 132 135 136 138 136 132 121 106 102 105 105 117 124 126 123 118 118 117 114 103 102 108 112 118 118 112 102 94 93 93 94 93 91 90 93 96 97 99 100 93 93 93 88 81 78 78 87 99 108 115 115 105 99 96 97 102 94 73 63 64 64 63 61 61 61 61 60 61 61 61 61 57 60 78 121 165 225 255 255 255 255 255 255 255 255 255 255 255 255 255 255 255 255 255 255 204 175 150 139 135 142 162 207 246 255 255 255 255 255 255 255 255 255 255 255 255 255 255 235 210 187 159 141 132 123 120 115 103 91 88 87 79 76 72 67 64 63 61 58 58 60 60 60 57 55 55 57 58 54 54 54 55 55 55 55 58 58 58 54 58 78 118 127 138 144 136 127 121 118 141 168 184 180 171 171 186 187 184 168 159 153 153 156 159 157 162 166 171 168 162 160 156 157 163 168 165 177 180 171 171 162 160 160 163 169 184 202 190 172 159 163 163 157 162 159 162 160 153 156 162 168 168 156 156 159 160 156 150 153 165 166 157 157 147
94 93 85 82 81 81 105 132 135 135 133 133 133 132 126 120 121 121 129 130 133 129 120 109 105 106 109 120 130 127 118 118 120 121 121 114 109 112 115 112 106 100 96 94 93 94 93 91 91 94 94 94 96 100 100 93 93 94 90 81 76 76 84 99 105 108 109 100 96 99 94 93 87 64 63 63 61 61 61 61 61 60 60 61 61 61 61 60 61 76 114 153 216 255 255 255 255 255 255 255 255 255 255 255 244 247 255 255 255 255 249 199 178 153 141 135 139 148 180 234 255 255 255 255 255 255 255 255 255 255 255 255 255 252 226 196 177 151 138 129 121 118 112 96 82 81 84 79 76 73 72 66 63 61 58 57 58 60 57 57 58 58 57 58 55 55 54 55 55 55 55 55 55 55 54 57 60 81 93 109 118 108 102 100 100 126 142 159 168 171 159 168 175 165 157 147 145 148 151 157 159 162 163 168 180 193 193 190 180 180 180 178 186 187 193 193 193 183 178 190 210 220 220 204 198 190 204 202 189 189 190 190 180 159 154 148 150 163 159 154 171 189 184 172 180 202 202 180 166 150
90 91 87 81 79 79 94 124 133 136 135 135 130 127 121 118 117 114 121 127 129 127 121 112 105 108 111 114 130 130 123 120 123 124 124 123 109 106 112 112 106 99 96 99 93 94 94 96 96 99 97 93 96 100 100 97 99 96 90 87 81 78 84 103 108 106 106 96 96 99 90 87 84 61 61 61 61 60 61 61 60 61 60 60 61 61 60 58 60 66 99 142 205 249 255 255 255 255 255 255 255 255 255 234 208 225 255 255 255 255 249 204 172 144 138 132 126 132 154 222 255 255 255 255 255 255 255 255 255 255 255 255 253 238 210 181 159 144 130 121 115 108 100 90 81 78 76 76 75 72 72 69 64 61 60 55 57 58 57 57 58 57 55 58 55 55 57 54 54 58 55 55 54 54 54 55 60 75 84 85 82 85 90 93 94 99 108 124 135 139 138 141 148 142 136 130 129 133 136 139 142 142 141 141 145 163 180 180 180 180 175 174 172 168 174 187 193 198 202 214 225 238 238 225 210 205 210 208 202 190 175 160 148 142 141 133 133 142 147 141 154 186 189 184 192 193 192 174 156 133
90 91 88 81 79 79 88 117 132 136 135 133 130 129 121 120 121 114 114 121 129 126 120 114 103 109 112 118 132 135 130 124 123 126 124 118 106 106 114 114 109 105 99 99 94 93 96 96 97 102 102 96 93 97 99 100 99 93 90 97 91 81 91 102 103 96 93 93 94 94 85 82 75 61 61 61 61 60 60 60 57 60 60 60 61 60 58 58 60 63 85 135 190 232 255 255 255 255 255 255 255 255 247 220 202 228 255 255 255 255 255 205 165 142 133 132 127 126 148 223 255 255 255 255 255 255 255 255 255 255 255 246 234 222 198 162 144 132 121 114 105 99 93 90 84 79 73 73 73 72 73 69 66 63 60 55 55 58 57 57 58 55 54 54 55 57 55 55 55 58 55 54 54 54 54 55 60 69 78 75 73 78 81 81 84 88 88 94 99 106 111 118 123 115 111 103 100 97 96 99 106 111 109 111 117 127 129 129 138 148 157 163 156 154 154 165 186 189 202 216 220 229 237 228 204 192 193 186 159 139 130 126 121 121 126 129 126 123 121 121 132 148 169 189 214 211 189 169 153 132
87 91 84 81 81 79 88 118 132 135 135 133 130 130 126 121 120 115 112 121 126 124 118 114 103 111 115 120 132 135 135 130 129 124 124 120 105 105 111 112 109 105 100 96 94 93 94 94 96 100 103 100 93 93 96 96 97 97 90 102 102 91 94 100 103 96 93 93 94 90 82 81 70 61 61 61 61 60 60 60 57 60 61 60 60 58 58 57 60 63 81 126 163 210 235 255 255 255 255 255 255 255 240 208 202 243 255 255 255 255 255 208 162 145 141 138 136 130 138 220 255 255 255 255 255 255 255 255 255 255 250 231 213 210 189 148 133 123 117 109 102 96 90 85 79 78 75 73 75 73 72 67 66 63 57 55 58 58 57 57 55 54 52 54 58 60 58 57 57 58 57 55 55 54 54 55 60 67 78 70 70 75 76 78 82 87 87 87 88 94 97 102 102 96 93 88 84 84 79 81 82 90 90 85 88 99 99 93 97 121 133 144 142 141 139 145 156 163 181 189 190 187 186 195 187 163 150 138 130 124 121 108 103 120 121 121 115 103 100 102 118 127 138 177 223 223 172 148 138 120
87 87 82 82 82 79 85 114 133 141 138 133 132 129 123 120 117 112 115 124 126 120 111 106 103 106 114 117 124 127 132 136 136 127 124 121 114 105 112 118 112 105 100 102 97 99 93 96 105 105 102 99 102 105 99 97 94 97 97 103 103 99 99 99 105 102 99 96 93 91 90 84 73 61 61 61 61 61 61 60 57 61 61 61 60 58 57 55 57 61 79 117 144 174 213 243 255 255 255 255 255 250 228 193 189 238 255 255 255 255 255 214 166 144 138 138 133 127 124 196 255 255 255 255 255 255 255 255 255 255 240 216 196 178 157 141 129 120 115 106 99 100 87 81 78 76 76 76 78 73 72 69 70 64 57 55 54 55 55 55 55 58 54 52 54 58 60 60 60 60 58 58 58 55 55 55 58 61 73 75 73 75 75 75 79 81 85 91 88 85 90 96 94 87 88 85 84 85 81 78 78 87 90 84 84 88 88 82 84 94 99 114 124 129 133 136 136 139 153 156 153 150 148 153 153 139 130 127 126 126 117 103 112 120 117 108 99 97 99 97 114 120 112 136 163 160 133 120 115 100
87 87 84 82 81 79 85 106 126 139 139 133 130 127 123 118 114 109 112 120 123 120 109 106 106 108 114 112 115 117 124 132 133 127 121 123 118 108 114 118 114 114 111 109 102 96 96 103 112 112 105 102 111 112 102 96 94 97 102 103 100 97 96 97 103 102 99 99 97 96 94 88 73 61 61 61 61 61 61 61 61 64 63 61 60 57 57 52 55 60 76 105 129 148 190 229 246 255 255 255 255 241 217 168 154 213 255 255 255 255 249 175 138 127 124 123 117 115 109 162 255 255 255 255 255 255 255 255 255 246 223 205 189 160 144 132 123 114 108 99 91 93 85 81 76 76 79 78 76 73 72 70 72 66 57 55 55 55 55 55 55 58 55 54 52 54 55 58 57 60 60 58 55 55 55 55 57 60 72 81 75 73 78 81 79 81 85 91 93 85 84 85 88 82 82 87 91 91 85 84 82 81 81 84 90 88 82 85 90 94 90 91 102 111 123 130 129 132 139 136 133 135 130 124 129 124 127 129 126 126 117 109 118 118 106 103 97 99 100 91 109 115 105 109 124 121 97 85 96 91
87 87 84 81 81 81 87 94 105 129 142 138 129 127 127 124 120 109 114 117 120 121 115 108 108 114 111 115 118 112 112 121 126 124 123 124 124 112 115 121 121 120 115 105 99 100 102 109 114 112 108 106 112 108 100 94 97 99 99 97 94 90 91 96 102 100 100 103 99 96 91 85 76 63 61 61 61 60 60 60 60 64 64 61 60 57 55 52 52 57 66 96 123 142 178 214 228 240 244 243 238 238 222 162 130 153 237 255 255 247 175 132 111 99 94 90 91 94 93 142 247 255 255 255 255 255 250 243 241 228 205 186 163 151 141 127 121 114 103 96 90 88 85 82 79 79 79 78 75 75 78 75 70 63 60 57 55 55 54 54 55 55 55 54 52 52 52 55 57 58 57 57 55 54 55 55 57 60 72 81 73 73 78 82 82 84 88 91 93 87 85 84 79 78 78 82 88 90 84 87 90 82 79 82 90 87 84 91 91 91 91 94 99 105 114 124 126 127 130 129 132 133 126 118 120 121 123 126 121 114 114 117 121 117 99 102 112 112 100 90 100 111 109 100 103 106 91 85 100 99
85 87 87 82 84 84 88 88 90 115 142 142 132 127 130 129 124 115 115 118 120 121 117 114 109 112 114 115 118 115 111 112 117 118 115 123 124 118 117 123 124 123 115 109 102 105 108 111 114 114 114 109 106 103 99 97 99 99 97 94 90 90 94 99 105 103 105 102 94 93 90 87 82 66 61 61 64 61 57 57 57 61 61 58 57 58 55 52 51 55 61 87 118 138 165 192 207 226 228 225 234 244 250 225 144 120 142 184 181 142 112 96 82 76 67 67 76 78 81 127 210 255 255 255 255 255 240 238 228 214 195 165 148 138 132 127 117 106 103 97 90 87 82 84 81 79 78 78 76 78 79 76 64 63 61 60 58 55 54 54 55 57 58 54 52 51 52 54 58 60 57 55 55 54 54 54 57 60 69 79 75 73 75 81 87 87 87 85 85 82 84 85 81 76 76 79 81 88 88 87 90 88 81 79 81 79 81 91 90 85 85 90 93 99 109 118 121 120 123 120 123 124 121 117 120 121 121 126 123 103 115 123 123 121 99 102 112 114 109 90 97 111 108 100 100 102 96 90 102 102
82 82 84 82 81 81 88 82 82 103 133 142 138 135 133 130 124 118 114 114 117 115 115 118 115 112 112 114 118 115 111 111 112 109 109 118 124 120 121 124 124 123 121 115 103 105 114 115 114 114 111 109 105 97 96 97 100 97 96 94 93 94 99 105 108 103 100 97 94 91 88 84 82 66 61 63 64 61 60 57 57 57 58 55 55 57 58 58 52 54 61 84 114 130 148 169 193 205 211 225 253 255 255 255 255 157 120 120 118 96 81 79 67 64 67 70 67 73 82 126 186 247 255 255 255 235 232 237 210 198 180 150 138 133 127 124 115 106 100 94 91 87 79 81 81 79 76 76 79 79 78 73 67 63 61 60 60 55 52 54 58 58 55 55 54 52 52 54 58 60 60 57 57 54 54 54 55 57 63 72 75 73 73 78 79 81 82 81 81 81 84 82 84 78 76 79 81 82 82 87 90 90 79 73 76 79 85 91 93 91 87 85 90 96 106 111 115 111 114 112 112 114 115 112 120 120 120 123 118 103 117 123 114 108 97 108 106 108 112 97 96 103 103 99 97 99 99 100 112 103
81 79 79 76 78 81 82 81 81 99 121 136 139 135 133 129 126 121 118 117 114 111 112 118 118 115 114 115 117 115 114 115 111 111 111 111 115 117 120 120 123 124 123 114 106 103 111 111 108 106 106 105 96 96 99 102 109 112 103 102 99 100 105 108 108 105 102 100 96 90 87 85 85 66 61 63 64 64 60 58 57 57 57 55 55 55 57 55 54 55 60 81 108 123 138 153 169 187 196 225 253 255 255 255 255 255 189 109 76 70 73 72 64 67 75 78 75 78 96 132 181 237 252 247 237 213 201 196 175 163 157 142 132 129 123 123 115 105 100 96 87 87 79 79 82 82 76 76 78 79 78 70 69 66 61 58 55 54 51 52 52 54 55 54 52 54 54 55 57 60 60 60 58 58 54 52 54 57 63 76 76 76 78 81 79 81 84 82 82 82 85 85 87 82 76 76 79 79 78 76 81 81 78 73 76 82 90 93 99 102 96 91 100 111 118 114 108 106 109 112 106 103 106 102 111 111 105 114 118 109 118 120 115 106 97 100 105 111 112 111 111 106 105 97 99 105 106 108 114 108
79 79 76 76 79 82 79 79 82 94 100 132 139 136 135 129 126 124 124 120 114 111 112 120 115 114 118 115 115 117 112 115 114 111 109 103 108 111 115 120 124 129 124 117 106 103 106 106 106 106 109 109 103 102 108 106 111 115 112 108 106 106 105 105 106 103 102 100 97 90 85 90 87 66 61 61 64 61 60 60 60 57 57 58 58 58 57 58 58 57 60 78 103 118 133 145 154 159 171 204 240 255 255 255 255 255 255 196 112 67 67 69 66 73 78 79 84 94 117 139 184 219 211 201 192 177 169 162 150 145 145 141 132 126 120 117 114 106 100 94 85 87 79 79 79 78 78 76 76 78 75 67 64 63 60 57 55 54 52 51 52 52 54 54 54 54 58 57 57 57 58 57 57 54 52 52 54 57 61 78 81 87 88 88 90 90 93 93 91 87 87 88 90 91 85 81 79 82 79 76 76 78 78 78 81 88 93 96 100 102 102 103 112 120 120 117 106 99 97 93 90 94 97 96 102 105 105 112 118 114 114 112 114 114 97 97 108 117 120 123 130 121 111 105 112 117 111 108 114 108
81 82 78 79 82 81 81 79 79 87 93 130 142 141 135 127 127 126 124 121 115 117 120 124 117 114 118 115 111 109 106 108 111 112 105 103 111 112 120 124 126 129 124 118 105 105 106 106 108 112 114 109 109 108 103 105 114 115 112 108 103 102 100 102 102 105 103 100 97 93 87 91 82 61 61 61 61 61 61 61 61 57 60 61 60 58 57 58 58 57 61 73 99 117 132 144 150 151 157 181 219 255 255 255 255 255 255 255 159 100 76 76 73 81 87 88 102 117 132 147 165 180 174 169 154 145 150 147 144 144 141 141 132 127 120 114 111 109 103 96 85 85 85 81 79 78 79 79 78 76 73 67 64 63 60 57 58 58 54 54 54 54 54 52 54 55 58 58 60 57 57 57 55 55 54 54 54 57 61 79 82 88 88 88 94 100 102 102 97 96 96 91 91 91 91 87 84 87 84 82 84 81 81 84 87 91 93 90 94 96 97 93 103 114 108 102 93 91 90 90 90 93 94 97 105 109 111 109 112 118 115 111 111 120 106 103 115 120 124 129 132 127 121 117 118 118 117 109 111 103
82 81 79 82 84 82 82 79 79 82 93 124 142 141 133 126 127 127 126 124 121 121 123 124 120 117 117 112 106 106 109 108 112 117 115 115 115 114 124 124 121 123 118 106 100 100 106 105 105 108 111 108 108 106 103 108 114 114 109 105 99 97 99 103 105 109 108 102 96 97 94 90 81 61 61 61 61 61 61 61 61 60 60 63 61 60 57 55 54 58 60 64 85 114 132 144 145 150 154 168 196 231 255 255 255 255 255 255 198 130 99 96 91 99 106 109 120 130 138 142 145 142 139 139 132 126 135 142 144 145 147 144 133 129 123 114 112 111 108 99 91 93 90 87 84 79 79 78 78 75 72 67 64 64 60 58 57 58 58 58 55 54 54 54 54 57 60 58 60 58 57 57 58 55 55 55 55 57 61 81 84 85 84 85 91 94 93 97 99 99 99 91 87 91 88 87 87 88 91 91 91 82 78 82 90 90 85 79 79 88 87 82 91 100 97 91 91 91 94 94 96 94 97 103 100 102 108 106 108 118 120 115 120 120 111 109 118 120 123 136 136 136 127 123 117 114 111 106 103 97
82 82 81 81 87 82 81 82 82 84 94 121 142 141 132 126 127 127 127 124 123 120 123 124 120 118 117 108 108 109 109 106 114 117 114 112 109 108 117 117 114 115 114 105 103 105 103 106 102 102 105 106 106 105 109 114 115 114 106 100 96 97 103 108 108 111 108 103 99 97 97 94 84 67 63 61 61 61 57 57 60 61 61 64 63 61 60 55 52 52 57 61 79 109 133 142 145 151 150 153 165 180 214 246 255 255 255 255 222 148 133 126 121 120 121 120 126 136 135 135 132 129 121 118 112 117 135 145 147 153 157 151 141 133 126 118 112 105 103 105 97 96 87 84 87 81 78 76 76 73 73 67 64 64 60 58 58 57 57 57 55 55 54 55 55 55 60 58 55 55 55 58 60 60 57 58 58 58 61 76 81 88 88 84 85 87 85 85 88 85 88 87 87 90 85 85 87 90 91 88 81 70 70 76 81 81 78 76 76 78 78 79 87 100 99 96 96 100 103 105 102 105 105 102 100 102 108 114 121 121 121 124 127 123 111 115 115 115 118 129 136 126 118 109 99 97 94 94 94 84
81 82 81 81 88 82 79 87 87 88 90 117 142 142 132 127 129 127 123 123 121 118 117 118 117 112 109 102 102 108 108 106 114 115 111 108 105 105 114 115 114 115 114 109 111 111 109 108 105 103 105 105 106 111 114 117 118 115 108 103 99 96 100 106 111 111 106 103 96 91 96 97 91 70 63 63 63 61 57 58 60 60 61 64 66 61 61 60 55 52 55 60 75 102 126 138 145 156 150 144 145 139 144 168 214 243 255 255 237 189 159 144 132 126 126 123 124 130 127 123 117 111 102 103 118 132 145 151 153 154 159 153 141 132 127 124 117 103 102 105 102 91 85 82 87 82 79 75 75 72 73 69 61 61 60 58 58 57 57 57 55 55 57 57 55 55 54 54 52 52 54 55 58 57 57 58 58 58 60 69 82 88 82 79 79 87 102 96 90 84 82 84 88 93 88 88 85 90 91 84 79 73 70 76 78 81 81 78 79 79 78 79 91 99 106 111 114 115 114 111 106 115 118 112 114 117 123 129 132 124 127 130 129 120 111 112 115 115 115 117 117 109 97 82 81 90 90 85 90 81
79 79 79 81 88 82 78 82 88 88 88 111 138 141 129 127 130 129 121 121 120 120 114 111 109 106 108 105 109 115 108 111 111 112 106 105 108 108 115 115 114 115 111 114 108 106 109 109 106 108 109 111 111 109 111 117 118 115 106 105 100 96 99 103 108 108 106 99 88 91 94 96 93 75 64 61 61 61 60 61 61 61 61 64 66 63 61 61 58 54 55 60 67 91 123 138 147 159 160 145 138 124 99 99 121 127 138 153 171 168 147 130 118 114 114 111 106 106 106 96 85 79 79 102 136 156 159 159 159 159 159 151 141 133 129 124 118 108 102 105 99 93 87 82 84 79 76 75 70 72 72 63 57 58 57 55 57 57 60 58 57 58 58 58 58 54 51 51 51 51 52 52 55 57 57 57 58 57 57 64 84 87 79 79 79 91 103 103 93 84 81 82 90 93 87 90 91 97 97 93 91 84 79 81 87 88 85 84 87 85 85 87 96 105 120 126 123 123 121 120 117 118 121 127 126 126 130 132 132 129 130 127 123 120 114 115 117 117 105 100 103 102 85 79 79 88 90 85 91 85
79 79 79 81 88 81 78 81 84 93 96 112 139 141 132 127 130 126 120 120 120 118 115 112 106 106 111 108 118 118 109 109 111 114 114 106 108 111 115 115 112 112 114 115 108 102 102 102 108 111 111 111 111 111 108 114 115 115 109 105 102 97 99 100 102 99 97 94 87 91 91 91 91 82 67 63 61 61 61 61 61 61 63 63 66 63 61 60 55 55 55 58 61 78 117 136 147 160 172 166 142 126 94 84 84 91 91 96 118 130 124 111 93 85 85 82 79 79 79 79 79 79 99 132 157 163 165 165 162 160 160 156 139 133 126 120 118 115 106 103 96 94 88 84 85 78 75 73 72 67 64 61 60 57 55 54 55 58 60 60 57 58 58 57 54 54 52 52 51 51 51 52 55 58 58 57 58 58 57 63 79 87 85 85 84 91 99 94 90 85 81 87 90 91 87 88 97 103 103 100 94 90 90 85 91 93 88 90 94 94 96 99 105 115 124 126 126 123 127 129 126 121 126 136 129 127 132 132 129 126 123 123 121 121 117 115 112 100 85 84 94 99 88 82 85 90 90 87 91 91
82 82 82 82 81 81 79 82 84 97 106 117 138 141 133 129 127 123 120 121 121 114 114 109 108 111 109 112 118 117 111 115 115 117 118 115 115 115 117 117 112 112 114 111 109 106 105 108 106 109 111 103 105 106 103 105 109 111 105 105 105 100 99 99 93 85 87 85 88 90 85 85 91 87 67 61 61 61 61 61 60 61 64 63 66 64 60 57 54 52 55 57 60 64 102 130 148 169 183 193 180 154 142 154 193 198 162 147 139 130 112 100 100 94 91 85 84 85 88 96 109 127 144 157 162 166 169 169 165 160 159 151 136 129 123 117 114 114 109 105 93 90 88 85 82 76 75 72 72 67 66 67 61 58 55 54 55 58 60 60 57 58 58 55 54 54 54 54 52 51 51 52 55 60 60 58 58 58 57 61 72 84 90 91 90 91 96 94 93 87 87 91 91 93 96 96 100 99 96 91 91 94 96 93 90 93 91 97 108 105 105 106 109 117 123 126 127 127 135 138 135 127 126 136 130 127 127 127 123 118 120 121 123 121 114 103 93 82 82 85 93 102 100 97 99 96 87 84 88 88
87 88 85 81 81 81 81 84 88 99 105 118 133 135 130 129 123 120 121 123 120 111 111 109 109 114 114 117 118 118 117 118 118 117 118 115 112 112 112 112 103 100 99 102 105 103 103 108 108 111 108 102 102 103 100 100 99 100 102 108 108 103 103 100 93 85 87 85 88 90 85 85 91 82 67 61 61 61 61 57 57 63 66 66 66 61 60 54 52 52 58 60 60 61 82 120 144 181 198 205 223 214 228 255 255 255 255 255 253 211 162 162 159 142 132 127 121 124 126 130 138 153 159 160 162 165 169 169 166 162 157 145 133 129 123 114 109 103 103 102 91 88 88 88 82 76 73 66 67 69 67 67 61 57 55 54 55 57 58 57 58 57 58 57 55 55 55 55 54 52 52 52 55 58 60 60 57 57 57 60 67 90 88 91 91 90 90 90 93 94 96 93 91 97 103 100 94 91 90 90 96 96 96 96 94 99 99 102 108 105 109 106 102 115 120 123 127 129 135 138 136 126 126 129 127 123 124 121 120 118 115 118 120 112 100 85 81 81 81 82 85 97 102 97 99 99 85 84 90 90
85 90 88 81 79 81 81 84 91 99 108 123 133 135 129 126 123 120 121 123 121 117 115 115 115 115 117 117 115 117 114 117 115 115 117 112 111 108 106 106 96 90 88 93 99 97 99 102 105 109 106 106 108 105 102 100 96 93 99 102 100 100 103 100 96 94 94 93 91 94 97 93 91 79 64 64 64 61 60 60 60 63 66 63 61 60 57 55 52 52 54 60 58 57 70 100 130 156 186 201 223 237 255 255 255 255 255 249 243 208 186 195 195 159 144 133 130 130 132 139 151 159 163 163 165 165 166 166 163 159 153 138 126 124 118 112 105 99 96 102 97 91 88 85 82 75 67 66 72 70 66 63 60 55 55 58 58 57 58 60 58 57 60 58 58 57 58 55 55 54 54 54 55 55 60 60 57 55 57 60 64 84 85 90 88 85 85 85 90 93 96 99 102 106 106 105 99 97 96 93 97 97 96 102 96 100 108 100 102 103 109 103 102 111 115 124 129 126 129 130 130 129 127 126 123 123 121 118 117 111 100 97 93 93 87 82 85 91 85 87 85 93 99 97 97 96 97 90 87 90
84 90 85 79 78 79 82 88 96 103 115 124 130 130 127 124 121 121 123 124 126 124 121 123 120 115 114 117 117 114 114 118 117 115 115 111 108 109 103 99 94 93 88 93 99 97 97 102 99 99 102 103 109 109 103 96 93 91 91 94 96 97 100 103 103 103 103 103 97 100 108 103 103 82 64 66 69 66 61 61 60 61 66 63 60 57 55 60 57 55 54 54 54 57 63 78 108 133 150 174 201 231 255 255 255 255 225 181 159 148 139 138 136 130 124 117 112 114 121 130 141 156 159 160 160 160 160 160 159 153 145 135 126 120 117 112 103 94 93 99 99 94 87 79 76 75 72 72 72 72 66 61 57 55 54 60 60 58 60 61 61 60 60 58 58 58 58 55 55 55 60 55 54 54 57 58 58 58 57 60 61 78 87 87 91 94 99 99 97 99 96 100 103 105 102 105 105 103 100 97 97 97 94 102 100 102 108 106 106 102 106 106 105 108 114 124 129 126 123 121 123 126 127 126 120 115 117 109 99 90 84 84 81 82 79 79 88 91 91 96 96 100 111 112 112 112 109 91 88 96
82 87 81 78 78 78 81 90 102 111 115 120 126 129 130 130 126 129 127 123 126 126 123 123 118 112 115 121 123 121 117 118 115 112 117 115 109 109 108 100 97 100 97 100 102 100 102 97 91 91 97 94 94 99 91 85 91 93 90 96 102 97 97 100 105 105 105 105 105 100 111 112 112 85 66 70 67 66 63 61 60 61 66 61 57 55 60 60 60 58 57 52 52 54 60 63 84 111 129 150 168 199 240 255 255 253 228 171 133 118 99 91 94 91 85 91 97 109 117 123 130 138 144 150 157 159 154 154 156 144 135 129 124 117 111 108 99 91 93 97 96 90 81 75 75 75 76 72 66 69 64 61 57 57 57 57 58 57 60 61 60 60 60 60 60 57 55 54 54 55 60 55 54 55 57 57 58 58 57 60 61 78 93 94 96 96 100 100 97 97 102 106 105 106 103 102 100 100 100 97 94 94 93 105 106 100 106 111 112 103 102 99 97 102 109 118 123 120 120 115 106 106 111 114 108 105 99 90 84 79 78 78 78 79 79 82 87 87 88 99 106 109 115 114 105 105 99 88 93 100
82 82 76 76 78 79 82 90 99 105 108 114 123 126 129 129 123 127 126 124 124 120 121 118 114 112 117 120 123 120 114 115 111 112 118 118 108 108 103 99 99 103 108 106 100 99 97 93 91 96 100 96 91 91 90 85 87 90 91 97 102 97 97 102 100 103 103 105 105 100 102 105 109 84 70 70 64 64 63 61 57 60 63 63 60 57 57 60 60 57 54 52 52 52 55 60 69 87 105 132 150 174 204 247 255 247 234 184 139 120 99 91 93 85 88 94 105 117 118 126 132 141 147 151 156 157 151 147 145 135 127 121 117 108 102 99 97 91 91 96 93 85 78 75 75 75 76 69 66 69 66 61 61 60 60 58 57 57 60 61 61 61 60 60 60 57 54 54 52 52 52 54 58 58 58 60 58 58 60 61 61 82 108 109 103 96 94 93 91 91 106 112 112 112 109 109 105 100 103 100 97 97 93 99 96 94 97 102 112 102 97 97 96 96 100 103 99 97 102 100 93 88 90 96 97 93 85 79 79 79 78 76 76 81 84 84 85 87 82 102 118 120 120 114 102 102 96 91 99 100
82 82 76 75 76 81 87 91 94 94 99 100 108 120 123 121 118 120 120 120 120 112 111 111 114 111 115 112 112 112 106 106 106 108 114 114 106 99 97 100 100 108 106 105 106 102 102 96 91 99 100 100 96 96 96 93 93 88 90 96 100 99 99 102 100 99 99 103 105 99 100 99 96 79 67 70 66 64 61 61 57 60 61 61 60 60 57 57 58 57 55 54 54 54 54 55 60 69 82 117 138 154 171 217 238 240 235 217 193 159 136 130 129 118 123 124 126 129 138 144 151 154 153 150 145 148 148 145 139 127 117 114 106 103 99 96 94 91 94 94 93 87 79 75 75 75 72 67 66 69 64 61 61 61 61 58 57 57 60 61 61 60 60 60 58 55 54 52 52 52 52 52 54 55 57 60 58 60 60 61 60 81 109 109 100 91 91 91 91 94 103 112 109 109 112 115 115 106 109 111 106 96 93 97 94 96 94 88 99 103 103 102 102 93 94 97 90 90 90 90 85 82 79 82 87 88 84 76 76 81 79 78 81 85 85 82 85 87 82 100 121 124 126 120 109 108 100 94 99 96
82 79 75 75 76 79 87 90 90 90 90 88 93 109 112 112 117 120 115 115 115 109 106 105 105 105 109 109 106 106 105 102 102 102 111 106 102 94 94 96 99 102 96 100 106 103 103 97 93 100 99 99 100 97 96 99 100 96 93 97 97 96 99 100 100 99 97 100 103 99 105 106 103 84 64 66 66 66 63 61 60 60 60 60 60 60 58 58 58 58 57 58 60 57 54 52 55 60 63 90 120 136 159 202 232 235 241 255 255 246 216 204 201 184 168 160 148 148 162 163 156 153 154 153 145 144 145 144 138 126 114 103 100 99 94 93 91 90 90 90 91 91 87 78 75 73 73 69 66 66 69 63 61 61 60 58 60 61 61 61 61 57 57 57 58 57 54 54 54 57 54 54 54 54 55 58 57 57 60 60 57 76 100 103 99 91 91 91 91 91 99 108 109 112 114 120 120 114 115 120 114 94 93 99 99 94 94 88 97 106 106 99 94 93 97 100 94 91 91 91 85 82 76 76 79 87 82 76 78 81 79 81 90 91 85 82 85 93 93 102 118 126 132 126 114 111 100 93 93 94
81 79 78 76 78 79 88 90 87 88 87 87 87 100 106 105 112 118 117 117 120 117 117 114 106 106 109 109 108 108 108 105 102 102 105 99 99 97 97 96 96 97 91 91 106 106 103 102 99 100 97 97 103 102 100 100 100 102 100 103 100 97 99 106 100 97 97 100 102 100 103 109 111 90 64 64 64 64 64 64 61 57 57 55 57 58 58 60 58 58 58 60 60 58 54 52 52 54 60 70 90 118 148 195 220 241 255 255 255 255 255 255 255 255 234 207 177 171 181 171 154 151 159 159 148 141 142 141 130 118 106 99 97 97 93 88 88 84 81 81 82 84 82 76 75 72 73 69 64 69 69 63 60 57 57 57 60 61 61 61 61 57 58 57 58 57 58 55 55 58 57 58 58 54 55 58 58 57 57 60 57 75 91 99 105 102 96 99 97 94 105 111 112 115 115 120 114 112 118 120 117 100 99 111 106 100 108 100 97 100 97 96 99 103 106 105 102 102 99 100 85 81 82 79 79 81 84 81 87 91 85 85 99 102 96 100 105 105 108 114 118 124 132 130 123 114 108 99 96 94
82 82 87 81 79 79 79 81 85 88 85 82 82 90 103 108 115 118 120 120 124 124 124 123 117 111 112 112 114 112 114 112 108 106 109 103 102 100 97 99 102 100 96 91 99 103 105 105 105 106 111 115 115 117 118 118 115 115 114 115 117 118 117 121 120 115 117 117 112 115 115 120 120 97 64 64 66 66 64 69 67 61 57 55 55 60 60 60 58 57 58 60 60 57 54 52 51 52 57 61 70 90 126 156 192 237 255 255 255 255 255 255 255 255 255 229 195 183 178 166 154 145 153 150 141 141 135 129 118 105 97 90 94 91 88 87 84 82 81 82 81 79 78 75 75 72 69 64 64 69 69 63 60 57 55 60 60 60 60 60 61 60 57 57 58 58 58 57 57 57 60 58 57 54 54 55 58 55 55 57 60 75 91 106 112 108 108 103 97 102 109 109 111 112 114 109 109 111 115 114 103 97 105 111 100 97 108 106 99 96 100 108 108 114 118 108 106 111 102 99 88 88 97 102 91 84 93 94 96 93 85 99 111 106 109 117 120 120 118 123 127 127 135 136 126 112 115 106 99 94
84 84 87 84 81 76 75 76 81 84 81 79 79 85 97 111 115 115 118 120 121 121 120 124 120 114 112 115 115 115 109 106 109 111 111 109 108 105 102 105 108 106 100 94 96 100 100 102 103 111 120 123 123 121 121 123 123 121 121 123 124 127 130 132 132 130 132 136 132 130 132 133 133 112 76 69 69 70 66 64 66 61 60 57 57 58 61 61 60 57 57 60 57 54 52 52 52 54 55 61 61 66 93 130 162 225 255 255 255 255 255 255 255 255 255 238 201 183 168 160 153 145 147 142 136 133 129 121 108 102 94 85 88 88 87 84 82 91 87 84 82 76 73 73 75 73 67 66 69 69 69 64 60 57 57 58 60 60 60 61 61 60 57 55 55 55 57 58 58 57 60 60 57 55 54 58 58 55 55 55 60 76 96 111 115 115 115 114 109 106 105 105 109 114 114 117 118 117 115 108 97 97 106 105 93 91 100 102 97 96 102 108 106 115 118 115 114 115 112 108 105 111 117 124 114 100 111 118 112 106 105 112 112 109 115 114 115 120 114 120 127 127 135 136 129 121 117 114 102 94
79 79 79 81 79 76 75 75 75 78 76 76 76 78 84 97 103 106 111 115 117 118 115 117 114 108 106 115 115 106 102 100 105 109 109 105 102 103 108 108 100 103 106 96 94 97 99 99 100 111 118 123 123 121 117 120 121 115 117 118 123 124 129 132 129 126 127 132 136 136 136 135 133 117 78 70 70 69 64 63 64 61 60 60 60 60 60 60 60 60 60 60 57 54 52 54 58 55 55 58 57 60 67 94 133 190 253 255 255 255 255 255 255 255 252 226 199 178 166 160 153 144 141 142 130 123 120 114 102 96 94 87 84 85 85 87 87 91 87 81 78 75 70 72 75 73 66 66 69 66 66 64 60 57 60 60 60 60 60 61 60 58 60 54 54 54 55 57 57 60 60 60 60 55 55 54 55 54 55 55 60 73 91 102 114 114 115 118 118 115 109 106 112 120 121 124 124 118 112 106 102 103 109 103 93 93 100 105 102 96 96 100 100 103 108 112 115 115 118 118 111 118 124 124 121 114 118 118 118 115 115 115 109 111 112 105 102 103 105 111 123 126 127 130 132 129 123 117 111 97
76 76 76 79 79 75 73 75 75 73 73 75 75 73 70 78 88 100 103 109 121 123 117 111 105 105 103 109 109 103 100 99 103 105 106 102 94 96 97 97 94 102 106 99 99 102 103 99 96 106 108 112 114 117 109 111 112 108 106 109 109 114 118 123 121 117 114 112 120 123 124 121 124 112 78 66 66 64 63 61 64 61 60 60 61 61 60 61 61 61 61 61 58 54 52 55 58 54 54 54 55 57 60 67 97 138 181 237 255 255 255 255 255 255 235 208 189 171 162 153 147 139 133 129 120 112 109 103 96 91 91 84 82 82 88 91 87 87 82 81 76 75 70 72 72 72 67 66 67 69 70 63 61 61 61 61 58 57 58 58 58 57 58 55 54 54 54 55 58 60 60 58 58 57 57 55 55 55 55 57 60 72 85 99 112 115 117 115 114 115 115 112 109 123 129 123 121 115 111 106 109 109 105 106 102 102 112 111 106 102 99 97 97 97 102 108 106 102 102 106 100 105 120 118 120 120 117 115 112 111 111 112 112 106 103 105 100 102 106 111 120 121 117 118 124 126 120 112 105 94
75 75 76 82 79 70 67 73 75 72 70 72 75 73 67 67 78 91 99 108 121 123 117 109 108 105 103 103 102 99 99 99 102 106 106 100 93 94 91 91 91 96 99 99 99 100 100 100 96 100 103 102 99 96 94 96 100 100 97 97 99 100 103 109 109 111 105 102 100 100 106 112 120 112 81 70 64 63 61 60 61 63 61 61 61 61 61 61 61 61 61 61 60 55 54 58 57 55 52 52 54 54 57 61 76 96 130 172 214 231 246 253 247 241 220 184 163 157 153 144 136 129 123 117 105 102 99 100 96 93 93 85 82 88 91 84 79 81 79 79 76 75 73 72 72 66 67 69 72 72 69 63 61 61 60 58 57 55 55 54 55 57 57 57 60 55 54 54 57 60 60 57 57 60 58 58 58 55 54 57 60 75 94 103 108 115 117 111 109 115 117 114 109 121 127 126 124 120 118 115 115 115 105 105 103 106 115 114 105 108 106 100 103 106 109 109 103 105 105 102 100 100 106 108 109 106 106 108 109 109 112 114 112 105 105 100 96 99 108 106 114 115 111 109 112 108 100 93 93 90
73 75 75 82 81 67 67 70 72 70 72 70 73 75 70 69 70 79 91 108 123 123 117 109 108 106 108 106 105 100 102 102 102 105 109 105 102 99 91 93 91 94 100 99 100 103 100 100 100 100 108 109 100 94 93 96 103 105 97 100 99 99 100 105 109 111 111 109 105 102 103 112 123 124 93 67 66 64 61 57 61 63 63 61 61 61 61 60 60 57 60 61 60 57 57 58 58 55 54 54 54 58 55 57 63 76 94 129 153 181 202 195 189 178 165 153 142 139 135 130 123 112 106 100 94 91 90 94 91 87 88 85 90 90 87 78 73 75 76 76 75 75 70 72 72 66 70 75 76 72 72 64 61 57 60 58 57 54 54 54 55 58 60 58 60 55 55 52 55 60 60 58 57 60 60 57 58 55 54 55 60 75 93 99 100 109 114 108 109 117 115 109 109 115 121 123 124 118 115 118 120 120 115 109 108 108 115 111 108 117 117 103 102 103 109 114 109 109 111 112 117 114 112 109 106 102 108 100 94 94 99 111 109 97 100 93 88 93 100 109 121 118 111 109 111 96 91 90 90 87
72 73 78 84 79 72 72 73 72 67 72 73 75 75 72 67 67 73 82 102 123 123 114 112 111 108 111 112 114 108 108 109 105 102 111 112 108 99 91 94 91 99 106 102 105 105 100 100 105 105 108 109 109 106 103 108 117 120 111 111 114 115 118 123 124 126 130 130 126 120 123 126 132 133 109 67 66 64 60 57 61 63 63 61 61 60 58 57 57 60 61 61 60 58 60 60 58 55 58 55 55 58 55 55 60 64 76 93 121 136 154 156 145 141 136 130 126 123 115 108 100 96 94 93 91 88 87 88 87 87 87 85 85 81 78 75 67 72 73 73 72 70 67 67 75 75 76 76 75 75 76 69 63 57 58 60 58 55 55 58 55 57 60 57 57 58 58 55 57 61 61 60 58 58 57 58 57 54 52 54 60 75 88 94 100 102 108 111 106 111 108 99 99 105 106 111 117 111 103 109 112 114 112 109 103 103 111 114 112 117 114 108 103 100 109 114 112 111 105 111 118 121 124 120 111 102 106 105 99 96 90 93 97 97 103 94 88 90 99 117 132 129 124 124 123 109 96 90 88 84
73 75 78 84 76 73 73 72 70 67 75 76 75 75 72 69 69 73 79 97 118 123 118 118 114 111 118 121 121 120 117 115 115 111 115 114 105 105 102 97 96 103 106 105 105 100 99 102 108 108 103 103 117 115 112 117 124 124 124 126 124 124 129 133 135 135 136 139 136 132 135 135 139 139 126 82 66 61 61 61 63 61 61 61 60 60 55 54 58 61 61 61 61 60 58 58 54 55 58 58 58 58 55 54 57 60 63 70 84 97 117 124 118 114 112 108 102 103 97 93 91 91 91 85 85 88 87 88 87 91 93 85 81 79 76 70 67 69 70 70 72 69 67 70 81 81 79 78 73 73 78 72 61 57 57 60 60 58 57 60 57 57 60 57 55 57 58 57 60 60 60 61 60 58 60 60 57 54 52 55 60 70 87 100 100 94 100 100 99 94 90 84 85 93 91 91 96 96 99 100 94 100 102 100 94 96 105 111 112 111 100 97 102 99 106 108 106 99 85 93 105 115 124 124 117 105 102 106 103 103 94 90 96 106 106 105 94 96 117 132 138 138 135 130 127 117 103 90 88 85
75 75 73 76 73 73 73 73 73 79 81 78 79 78 70 69 67 73 82 100 112 115 121 123 117 114 118 123 123 121 120 117 117 117 115 108 102 103 100 99 100 106 105 105 103 96 96 100 103 105 103 108 117 115 112 115 123 120 123 126 123 123 126 130 135 136 139 147 147 142 144 144 144 144 136 100 61 61 63 64 64 61 60 61 60 60 55 55 57 60 60 60 61 60 57 55 52 52 54 55 55 55 54 52 55 57 57 60 64 76 81 88 90 88 88 93 85 93 94 91 93 87 81 78 81 88 87 85 87 93 93 87 82 81 75 70 67 69 72 72 69 67 72 73 82 84 79 76 75 75 78 69 61 57 57 60 60 58 58 60 57 58 60 58 57 58 58 60 61 61 61 61 61 60 60 60 57 54 52 54 60 67 88 100 94 85 85 93 94 88 78 79 84 87 87 87 87 85 97 97 88 93 96 93 93 90 99 100 103 100 85 81 87 93 96 93 88 79 73 85 99 106 109 111 109 103 96 94 93 96 88 88 96 97 99 96 90 96 117 126 132 136 138 138 132 124 118 111 108 96
75 75 73 73 73 75 76 76 79 84 82 76 79 79 72 72 67 72 81 93 94 105 118 123 118 111 112 117 120 117 115 114 112 108 106 103 96 94 91 96 91 97 97 99 99 97 94 96 96 99 102 109 115 109 106 108 111 108 103 109 112 109 115 124 127 132 135 141 142 141 141 144 144 141 136 109 61 61 61 61 63 61 60 60 60 60 57 57 60 60 60 60 61 60 57 55 54 52 52 54 55 55 54 54 54 57 57 57 60 63 66 72 76 78 79 84 82 88 90 85 82 79 78 76 78 81 81 82 82 78 76 78 78 76 76 75 72 73 69 72 67 69 75 78 84 82 76 76 76 75 76 69 61 60 60 60 57 55 57 60 58 60 60 57 57 58 60 61 61 61 63 63 61 61 61 60 57 58 54 55 60 66 79 90 91 87 93 94 93 88 79 78 87 87 87 84 85 85 97 96 87 91 85 81 85 87 88 84 85 87 82 78 78 79 88 90 87 78 73 87 103 99 88 93 96 97 94 88 82 79 78 79 82 79 87 96 90 96 102 97 112 126 136 136 132 124 118 115 111 97
73 75 72 73 72 76 78 79 84 84 76 70 73 75 73 70 67 67 70 76 81 96 114 118 114 109 108 109 114 115 115 109 106 103 102 99 93 91 94 90 85 90 96 96 99 99 96 97 96 96 102 114 111 102 99 99 103 100 97 97 100 102 102 112 114 120 124 126 132 132 132 138 141 139 133 112 61 60 61 61 61 61 61 61 60 60 60 57 61 61 61 60 61 61 60 60 58 55 55 54 54 58 58 54 52 54 54 54 55 57 60 61 66 67 70 75 76 78 79 78 76 76 79 78 75 75 75 76 75 67 67 75 76 75 78 75 72 73 72 69 67 70 78 82 84 79 75 75 75 75 73 69 63 60 60 60 55 55 55 58 57 58 57 55 55 58 60 60 61 61 61 61 61 61 60 58 58 55 54 55 60 64 76 84 87 90 91 93 90 90 87 81 85 85 84 87 88 85 88 88 84 84 78 78 81 87 84 81 81 88 88 76 75 78 87 93 88 79 79 90 91 82 76 78 82 85 82 79 75 67 67 72 67 67 84 97 100 103 100 94 94 109 118 123 123 115 111 109 106 99
72 70 70 73 70 75 79 82 84 82 73 70 70 72 73 73 72 66 66 73 79 96 112 115 109 111 111 109 109 109 108 105 100 100 102 102 96 96 96 91 85 91 99 100 105 106 103 106 105 105 114 124 121 111 111 117 117 112 108 114 117 123 123 126 127 129 129 132 139 139 139 144 147 141 135 121 70 60 61 61 61 61 61 61 57 60 58 57 60 60 61 60 60 58 57 60 60 58 60 55 54 54 52 52 51 52 51 52 52 52 57 60 64 67 67 72 67 72 75 75 73 72 78 78 70 72 72 72 72 67 69 72 73 75 78 73 72 73 72 69 67 70 75 79 84 84 75 75 78 79 78 70 64 61 61 60 57 55 58 54 55 55 58 54 54 55 55 57 60 61 61 60 60 61 60 60 57 55 54 57 61 64 75 82 85 90 87 84 84 85 90 84 87 85 90 91 91 85 85 87 84 84 79 79 81 87 90 82 82 85 84 78 75 76 84 93 88 84 84 88 81 76 73 73 75 75 76 75 70 66 67 72 72 76 87 97 103 106 106 97 96 96 96 100 103 100 108 115 115 103
72 70 72 72 67 72 79 81 81 78 70 73 72 73 73 76 76 66 67 75 85 94 103 114 115 117 117 115 115 114 115 118 117 117 115 114 111 111 108 108 109 109 115 117 117 123 124 127 126 127 132 138 138 132 129 130 132 132 132 135 138 144 142 141 141 141 144 147 147 147 142 147 154 148 139 133 94 61 61 61 61 61 60 58 58 57 57 57 58 57 61 61 60 57 60 61 60 58 60 58 54 52 52 51 51 51 51 51 52 52 55 60 67 75 75 73 67 72 75 70 67 66 72 73 70 70 70 72 73 72 70 69 70 75 75 75 70 70 69 67 72 76 75 78 87 84 78 81 84 84 82 75 72 61 61 60 58 57 58 54 55 58 58 55 54 54 55 57 60 61 61 61 60 58 57 60 55 54 54 57 60 63 69 75 79 88 91 84 84 84 87 84 88 97 99 96 94 94 90 94 91 88 93 90 85 85 90 84 82 85 81 79 76 76 81 81 87 91 84 82 79 76 73 73 75 75 73 72 69 66 67 72 76 81 91 90 91 102 105 97 93 85 82 84 91 85 111 120 120 102
72 75 73 69 67 73 75 76 75 73 70 73 73 72 70 75 76 75 73 76 90 94 100 112 117 123 126 129 126 124 124 129 130 130 124 123 123 123 123 123 123 123 126 126 126 126 129 132 132 132 133 135 139 141 138 135 141 144 144 144 153 153 147 145 145 145 148 153 153 139 138 147 154 153 147 138 111 67 61 61 61 60 58 58 57 58 58 57 60 60 60 58 57 57 61 61 60 58 57 57 54 52 52 52 52 51 51 51 52 58 57 57 69 79 81 79 78 78 75 70 67 66 69 73 72 73 73 75 75 76 76 75 76 78 76 76 75 73 69 69 75 76 76 78 84 87 85 88 87 82 81 78 75 61 57 58 58 58 54 54 58 60 58 54 55 60 58 58 60 60 60 60 57 57 58 58 55 52 54 55 60 63 69 73 78 82 90 91 90 94 97 91 91 96 99 97 94 94 93 94 91 94 97 97 90 84 85 82 82 84 82 79 78 76 78 79 82 91 81 79 78 75 70 73 75 75 73 73 72 72 73 70 73 78 87 84 78 85 99 93 90 85 82 87 85 82 102 115 115 105
67 75 73 72 67 67 70 73 76 70 70 72 72 72 70 75 81 79 76 76 79 87 93 108 115 123 132 132 132 126 126 130 130 129 124 123 123 123 121 121 123 123 124 124 123 121 118 121 123 126 123 124 129 135 132 129 136 142 145 145 145 148 147 145 144 144 147 151 151 139 138 145 147 144 141 135 121 79 61 61 60 57 57 60 60 57 60 60 61 61 58 57 54 55 60 61 60 58 57 55 54 52 52 60 60 54 51 51 52 58 57 60 75 91 97 91 84 82 78 70 72 69 67 72 75 75 73 75 73 78 78 76 79 81 76 76 79 76 67 67 75 78 78 78 82 90 91 88 81 78 79 78 70 61 58 57 57 60 55 55 60 60 57 54 55 58 60 60 60 60 60 61 58 57 55 54 52 52 54 55 60 64 76 84 87 85 85 93 96 97 94 88 88 87 87 90 88 93 91 91 90 93 96 93 85 84 84 84 84 84 85 82 81 81 82 81 79 81 79 76 75 75 76 70 75 76 75 72 73 78 81 75 75 70 73 75 75 84 91 90 100 99 93 94 90 82 102 109 111 111
67 69 67 69 67 67 69 72 73 69 73 73 70 72 72 78 81 76 73 73 73 70 76 99 109 115 123 124 123 120 120 124 121 115 117 115 117 117 117 117 117 120 120 117 112 111 111 112 112 118 121 117 117 126 129 130 138 145 147 151 148 145 148 151 150 147 147 145 142 138 138 141 144 145 141 135 127 97 63 61 60 57 57 60 61 60 60 57 60 60 58 57 54 55 57 60 60 58 55 55 54 54 52 54 55 54 52 51 52 54 58 60 73 100 112 106 94 93 88 78 75 75 73 73 75 75 73 75 73 76 78 76 79 81 76 78 78 79 78 76 79 82 81 82 87 91 87 84 79 76 76 73 66 61 60 57 57 60 60 55 55 54 55 58 55 57 57 58 60 61 61 60 60 57 55 55 54 52 54 58 61 64 76 82 87 85 85 88 91 91 85 81 84 82 84 85 88 93 88 90 90 93 93 87 88 90 90 88 85 87 87 87 87 85 97 90 81 85 81 78 75 78 78 73 75 81 78 75 73 76 81 79 79 70 70 75 79 90 88 88 91 102 102 102 96 91 100 108 120 120
67 69 67 67 72 73 69 69 69 70 75 75 72 70 73 73 75 72 69 70 72 69 67 94 109 111 112 112 111 111 111 114 108 105 111 111 112 111 111 111 111 115 117 114 111 111 112 120 120 121 126 127 132 135 136 139 141 147 151 151 148 147 151 162 162 150 148 147 138 138 138 139 141 144 142 139 138 126 82 61 60 57 58 61 61 61 61 57 60 60 60 60 58 55 58 60 58 57 55 55 54 54 52 52 54 52 51 49 51 54 58 60 67 100 120 118 105 99 94 81 79 79 79 79 79 78 75 78 76 78 79 78 78 78 81 82 81 81 84 82 82 85 90 91 93 90 84 82 79 76 76 73 63 60 60 55 57 60 60 58 55 54 55 58 57 58 57 57 60 61 61 57 57 58 57 60 58 57 57 57 60 63 73 78 81 84 87 87 84 84 81 81 81 81 82 87 93 90 79 81 81 82 84 84 87 90 87 82 81 84 85 85 87 87 100 100 99 91 84 82 78 76 75 73 75 78 81 84 78 78 82 82 81 78 76 84 90 93 94 90 88 96 102 99 96 96 100 106 124 124
75 73 73 75 75 75 70 69 69 69 72 72 70 70 72 70 75 70 69 70 72 70 67 93 108 114 118 118 111 108 109 106 105 108 112 112 117 118 115 115 115 120 124 124 123 123 126 129 129 129 133 136 141 142 142 142 142 144 147 145 141 142 151 162 156 145 145 144 141 139 142 141 139 139 136 135 136 130 102 66 60 60 60 60 60 61 61 60 61 60 57 60 58 58 57 58 57 57 55 54 54 55 52 52 52 51 51 51 52 58 58 57 66 99 120 123 114 105 99 90 88 87 87 87 88 82 79 78 78 78 82 81 78 78 87 87 84 85 88 85 87 87 87 93 94 93 84 82 79 78 75 72 63 57 57 55 57 60 60 57 57 58 58 58 57 60 60 58 60 60 60 58 57 58 58 60 61 61 58 58 60 64 76 78 78 84 94 91 87 87 82 84 84 82 88 90 88 82 78 78 79 79 82 79 79 84 81 76 76 82 84 85 90 88 94 103 108 99 85 87 82 78 73 73 76 78 79 88 82 81 84 85 93 94 93 97 102 102 103 97 96 99 99 91 96 106 108 103 121 118
75 76 78 84 82 81 78 76 75 73 70 70 70 73 70 70 73 72 72 72 73 76 79 97 109 111 114 114 111 112 114 117 120 121 124 126 127 130 129 126 124 129 136 136 130 132 135 135 135 136 138 139 141 141 139 139 138 138 139 139 139 139 144 148 148 148 147 145 147 142 142 147 147 141 139 138 139 135 121 84 61 60 61 60 57 61 63 63 63 61 57 60 60 60 57 58 58 55 55 54 54 54 52 52 51 51 51 52 54 54 55 57 63 94 120 124 121 117 112 102 96 93 94 96 90 85 82 81 78 78 82 81 79 79 84 85 87 88 90 90 94 96 93 93 97 100 93 85 82 78 76 66 60 57 57 57 58 60 61 60 58 58 58 54 55 58 58 57 57 57 58 60 57 55 55 57 61 60 57 55 57 63 79 78 78 84 97 96 88 91 91 93 99 99 103 108 111 109 100 103 100 96 96 85 82 90 94 88 82 91 93 100 108 99 103 106 109 111 100 102 91 84 84 84 88 87 90 97 94 94 97 99 103 106 106 109 108 108 108 97 97 99 96 88 96 111 111 105 117 109
78 81 87 91 93 93 93 93 91 88 78 75 75 73 70 70 70 70 75 75 79 87 99 117 115 109 108 109 109 117 120 124 127 130 132 133 133 130 129 129 126 127 130 132 132 135 133 133 133 136 139 141 142 145 145 142 139 138 138 139 139 141 144 147 151 153 151 151 147 141 142 144 144 138 139 141 141 138 130 99 61 60 61 60 57 61 64 64 61 61 60 60 61 60 60 61 60 55 54 54 54 52 52 51 51 51 52 52 54 54 52 54 57 81 114 124 126 124 121 112 105 103 102 100 96 96 91 88 85 81 84 84 82 82 84 88 90 93 93 91 99 103 103 103 105 109 103 94 88 79 76 64 60 61 60 57 60 61 61 61 60 58 57 55 55 55 58 58 57 57 57 57 57 55 55 57 60 58 55 54 57 60 76 87 85 87 96 97 99 99 103 106 115 118 126 133 142 144 139 138 130 123 120 118 118 120 121 118 111 109 109 117 120 114 114 115 117 118 115 118 111 105 105 99 105 108 108 111 115 117 112 112 112 112 112 112 105 97 97 97 97 97 88 88 100 106 105 111 124 115
82 91 97 100 103 105 108 109 108 102 85 84 79 78 76 76 79 81 82 85 94 105 114 118 115 109 111 112 117 121 126 129 130 136 136 135 135 130 129 127 127 132 133 133 133 135 135 135 135 139 141 142 145 148 148 147 142 141 138 139 141 144 145 150 153 156 153 153 145 142 141 138 138 138 139 139 139 133 124 109 67 60 60 60 60 61 61 61 57 57 60 61 60 60 61 61 60 55 54 52 54 52 52 52 52 52 54 54 54 52 52 54 57 76 109 127 132 132 127 121 118 114 108 105 102 99 97 103 93 85 87 87 85 84 87 90 93 94 94 97 106 109 106 108 106 109 108 100 90 82 78 64 60 61 61 60 61 61 61 61 61 60 60 58 55 55 55 58 54 54 54 55 58 58 58 57 58 57 55 55 58 60 69 90 93 96 100 105 112 114 114 115 124 130 136 144 154 154 153 147 135 129 124 126 132 136 135 129 124 123 120 126 129 129 127 129 129 121 121 124 124 126 127 123 120 124 124 123 123 129 130 133 139 139 136 132 124 112 112 106 102 99 96 99 108 112 123 127 144 138
97 108 114 115 115 112 112 111 111 106 102 100 93 87 84 82 87 94 99 105 117 124 123 123 121 120 120 123 127 129 129 130 133 138 138 135 132 132 130 129 132 135 135 135 135 135 135 136 136 139 141 142 144 145 145 144 141 141 142 144 145 147 151 156 157 156 150 145 139 139 142 139 138 136 139 139 135 127 121 108 66 60 61 60 60 60 60 57 57 60 60 61 61 60 61 61 57 55 55 54 54 58 55 54 58 58 55 55 54 54 52 54 60 66 97 130 138 136 133 126 123 120 115 112 106 100 105 100 93 85 85 87 84 87 88 85 90 97 100 102 109 111 111 112 112 114 111 105 93 85 78 63 61 63 61 60 61 60 60 61 61 61 61 61 60 57 55 54 54 54 54 54 55 57 57 60 58 58 58 60 58 57 61 78 88 91 100 109 120 120 117 123 132 133 138 148 144 141 141 138 129 127 126 126 135 138 138 135 129 129 129 135 141 145 159 166 147 133 129 124 124 127 130 130 126 132 130 130 127 136 144 153 177 177 168 168 154 148 144 126 115 114 114 117 118 118 120 121 139 144
114 118 123 120 118 115 115 111 114 115 114 111 100 94 96 97 102 106 114 117 121 124 123 124 124 121 121 124 126 126 126 129 127 130 135 133 130 130 130 130 132 130 130 133 132 130 130 135 135 135 139 141 145 145 141 141 141 142 145 145 147 151 157 159 159 151 145 138 138 138 144 142 141 138 136 135 133 129 124 105 63 61 61 61 60 61 61 60 61 61 60 61 61 60 60 60 57 58 58 54 54 58 57 58 58 58 58 55 55 55 54 55 57 61 90 124 141 142 138 130 127 124 121 117 114 109 108 105 94 88 88 90 87 88 88 85 93 102 103 103 115 114 117 117 120 120 115 108 99 93 82 72 64 63 61 60 61 60 60 61 61 60 60 61 60 58 55 55 55 55 55 55 57 58 57 58 60 58 58 60 58 58 57 66 81 90 96 103 109 105 103 111 118 118 124 130 126 121 124 127 124 126 127 129 135 136 135 130 129 130 135 141 153 157 180 180 153 135 129 121 120 123 127 124 126 136 136 144 148 151 163 172 168 147 142 144 139 139 132 117 103 111 112 112 105 106 109 103 118 126
120 124 123 118 118 120 123 120 120 123 123 118 111 109 115 118 118 117 120 120 120 121 118 121 124 120 121 123 123 123 123 126 123 121 130 130 130 130 135 135 129 127 129 126 124 126 126 130 130 133 141 144 145 145 141 138 141 144 145 145 145 145 148 151 156 151 147 145 141 139 142 147 148 138 127 124 133 135 132 105 63 61 61 60 60 61 63 61 61 61 57 60 57 58 60 58 57 57 55 55 55 55 57 58 57 55 55 58 58 57 60 57 57 60 81 120 138 142 141 135 130 129 126 123 120 117 114 111 103 94 96 94 90 91 93 96 99 103 103 106 121 124 124 123 124 123 120 112 105 99 94 79 64 61 60 61 61 60 61 61 61 60 60 60 60 60 60 57 61 61 60 60 61 61 57 57 60 58 55 55 57 58 60 60 66 84 82 82 82 79 81 79 81 81 84 94 97 94 99 106 108 112 118 123 129 129 127 127 127 135 142 147 151 151 151 153 141 124 118 114 121 129 126 123 127 136 136 142 144 142 147 138 126 109 100 100 97 97 85 88 97 109 97 97 94 103 109 103 97 96
120 124 124 124 123 126 126 124 123 124 124 123 121 123 123 123 123 124 124 123 123 121 118 118 120 121 123 127 127 126 126 124 118 102 103 118 127 132 132 132 130 129 126 111 99 103 117 124 124 132 139 145 151 151 145 138 138 141 144 144 142 141 144 145 151 148 147 147 144 139 139 148 153 136 112 97 124 135 132 100 64 63 63 61 60 61 63 60 61 61 57 60 60 58 58 60 57 55 58 58 55 57 60 60 55 54 55 55 57 57 60 57 60 57 76 112 132 139 139 135 133 130 129 129 127 124 120 115 105 96 97 94 90 94 102 106 106 105 109 115 124 129 129 129 129 129 124 120 109 102 105 88 70 63 60 60 61 61 66 63 63 61 60 60 60 60 60 60 61 61 61 61 63 63 60 58 58 55 54 54 55 58 58 58 60 69 70 67 64 63 69 66 64 66 66 67 73 75 76 73 79 82 91 103 115 120 120 129 135 147 147 142 141 138 135 133 124 112 112 121 127 129 126 120 120 127 121 118 117 112 109 100 99 97 94 94 94 82 79 82 108 112 100 93 91 96 93 88 87 84
121 121 123 123 126 126 126 123 126 123 123 126 127 127 127 126 123 127 127 123 123 121 121 121 126 126 127 132 133 133 132 121 102 93 93 106 117 115 114 121 124 129 123 100 88 84 88 106 103 109 124 139 154 156 147 139 135 138 141 141 136 138 142 141 142 142 144 147 144 144 148 157 157 132 93 93 117 133 130 96 66 66 66 61 61 61 63 60 61 61 61 63 60 58 60 61 60 57 55 58 58 58 58 60 57 57 55 57 55 55 55 57 57 60 70 100 124 136 141 141 136 136 135 135 130 129 126 123 114 102 108 103 94 99 105 109 109 112 123 126 129 133 133 133 135 133 129 124 117 109 105 90 76 66 60 60 61 61 63 66 66 61 60 60 57 60 61 60 60 60 60 61 66 67 60 57 55 55 54 54 55 57 58 55 58 61 64 69 64 63 63 61 63 63 61 61 63 64 64 64 69 67 76 87 100 111 124 136 142 138 127 123 121 117 120 120 115 121 130 144 142 142 142 138 132 129 121 120 111 109 111 106 112 117 112 103 91 81 79 85 117 118 111 102 91 84 81 82 84 84
114 120 123 126 127 121 121 127 129 127 127 129 129 129 129 126 129 130 129 127 129 129 130 133 138 138 139 142 142 136 126 109 100 97 91 99 105 93 91 97 123 124 117 103 93 87 79 82 90 82 84 118 144 153 154 142 135 135 139 133 124 124 129 129 141 144 145 151 142 138 138 151 147 123 96 91 102 118 121 88 64 63 63 61 63 63 61 61 61 61 64 66 60 57 61 61 60 58 58 60 60 60 60 60 60 60 60 57 57 57 57 58 61 66 76 94 118 127 133 141 141 141 141 139 135 133 130 130 121 109 115 115 108 109 114 118 121 123 129 130 135 135 136 136 136 136 135 129 123 114 109 94 84 75 63 60 60 60 61 64 64 61 57 58 57 60 61 61 61 60 60 61 66 69 61 57 55 58 58 54 54 55 55 55 57 61 66 66 64 64 61 60 61 61 61 61 61 64 64 64 64 64 67 79 93 103 123 136 133 115 96 84 79 76 82 93 109 126 136 148 157 166 168 156 151 148 133 123 120 120 121 117 118 118 108 94 85 93 91 97 118 112 106 100 91 87 84 81 84 85
114 121 126 127 127 127 129 132 132 130 130 133 136 136 136 133 133 133 133 135 136 138 141 148 157 157 159 159 153 129 109 103 108 97 91 96 99 90 91 96 118 120 106 96 91 93 81 79 90 82 81 94 127 142 153 130 112 121 127 121 108 109 111 112 130 147 153 153 130 112 112 127 126 106 96 91 91 97 103 81 64 63 61 61 64 63 61 61 61 63 66 63 60 57 60 61 61 57 60 61 61 60 60 60 61 61 60 57 57 57 60 61 69 75 79 96 115 120 126 135 142 147 145 141 139 135 135 136 127 118 120 121 117 120 120 123 123 129 133 135 136 139 141 141 141 141 139 135 127 120 112 99 88 78 72 61 60 57 60 61 63 61 57 57 57 61 61 61 61 60 60 61 66 69 60 57 58 57 55 55 55 55 54 54 57 61 66 64 63 63 61 60 60 61 61 63 64 66 70 69 69 64 67 75 85 94 106 114 112 94 81 67 60 61 61 67 85 112 121 130 142 157 168 157 157 157 136 123 118 121 124 126 118 99 79 79 93 102 91 99 112 105 100 93 88 93 88 79 85 84
117 123 127 127 127 129 132 129 130 133 133 135 138 138 135 133 136 135 133 136 136 141 142 147 153 153 153 148 130 112 105 109 108 100 97 102 96 93 91 81 85 90 84 82 84 93 91 85 90 84 79 82 99 109 117 96 85 108 111 108 114 117 112 99 97 117 126 127 102 93 85 85 94 99 97 91 87 87 85 73 67 66 63 61 64 64 63 61 61 61 61 61 60 57 57 60 57 60 61 61 60 60 60 60 61 61 60 60 61 61 66 73 79 85 90 99 109 114 121 135 142 147 147 145 141 138 136 135 129 126 129 123 121 126 127 127 129 132 135 139 141 141 144 145 145 145 142 139 130 123 115 100 84 79 78 64 60 57 60 61 63 61 61 60 61 61 63 64 63 60 60 61 69 67 60 57 58 55 55 58 57 58 54 52 55 60 61 63 63 63 63 61 61 63 64 66 69 69 69 72 70 66 67 73 84 90 81 73 76 76 70 64 61 57 57 63 73 79 88 97 121 141 151 145 144 139 127 126 121 118 129 132 120 84 79 84 103 100 90 105 112 100 94 88 91 94 87 79 84 85
121 127 129 127 129 130 129 127 129 133 132 133 135 133 132 132 136 133 133 135 132 132 132 132 139 145 141 126 102 103 109 112 108 102 99 106 102 99 88 73 73 76 79 82 79 84 96 93 88 84 82 82 85 82 84 81 81 96 105 108 117 114 106 85 82 82 90 105 99 94 81 73 78 87 93 90 90 87 81 70 66 64 63 63 63 63 63 61 60 60 61 61 60 57 55 57 57 57 60 60 57 58 60 61 63 61 61 63 70 75 79 84 93 102 105 102 106 117 129 136 141 145 145 145 141 141 141 135 129 129 130 127 129 130 135 136 136 139 141 144 145 145 147 150 150 150 147 145 136 129 121 108 85 81 73 64 61 60 61 61 61 63 64 63 63 61 63 67 64 60 60 63 69 66 60 57 58 55 55 58 58 58 55 52 52 55 60 61 63 63 63 63 63 66 66 70 70 69 66 69 70 64 64 73 81 84 76 70 69 69 66 64 61 60 57 61 64 70 73 82 96 132 151 138 132 126 124 126 123 127 132 127 106 88 85 94 103 94 90 109 117 102 97 97 97 93 85 81 87 84
127 130 130 129 133 135 129 127 130 133 132 130 132 133 129 130 133 130 130 130 129 129 130 132 138 144 130 103 102 115 120 118 109 102 102 106 106 96 82 78 78 81 87 87 79 85 102 99 91 88 88 81 81 82 82 79 76 82 99 109 109 96 90 87 82 81 87 100 100 91 78 73 75 76 84 87 87 88 81 72 67 66 64 63 64 63 64 63 61 61 61 61 60 57 55 57 58 60 60 58 57 60 60 63 63 61 64 75 84 87 94 99 106 118 121 115 112 121 139 145 144 145 145 145 144 145 147 142 138 135 136 135 133 133 141 147 145 145 147 150 150 151 153 154 156 156 156 150 142 133 129 124 112 81 70 66 61 61 61 61 61 61 63 64 61 61 64 67 64 61 61 63 69 63 60 57 54 55 55 58 60 57 55 52 52 54 58 61 63 61 63 63 64 66 67 70 69 66 66 66 69 69 72 73 73 75 73 66 66 64 63 61 63 63 61 61 63 67 75 81 85 126 157 157 150 135 127 123 123 127 126 106 90 88 94 103 103 88 94 112 123 114 103 100 94 91 90 85 90 90
126 132 135 133 135 135 130 129 133 136 133 132 135 135 133 129 132 132 132 133 133 130 130 132 136 129 111 102 114 120 121 112 103 108 106 106 99 87 82 87 88 88 90 87 85 97 111 106 97 93 93 81 78 81 87 84 76 78 85 93 91 88 87 90 85 82 88 97 94 90 78 76 78 76 78 84 87 87 78 73 72 66 63 61 66 63 63 64 63 61 61 61 57 57 58 58 57 57 60 60 57 60 61 61 64 70 76 85 96 103 118 126 135 136 133 129 127 127 145 156 153 150 153 150 147 147 147 151 147 142 144 141 138 138 147 151 153 154 156 157 160 160 162 162 165 165 165 160 151 139 133 135 124 82 73 70 61 61 61 61 61 60 61 64 60 61 70 72 64 61 61 63 67 63 60 57 54 55 55 58 60 58 55 54 52 54 57 60 61 63 61 61 63 67 64 63 61 61 63 63 64 69 73 73 70 72 66 66 67 66 64 61 63 64 61 61 66 73 76 81 90 118 139 147 144 133 126 118 114 115 112 93 88 90 96 103 96 84 96 114 123 123 105 106 99 96 88 84 85 85
124 132 135 135 135 133 133 135 133 136 136 135 138 138 136 133 135 138 135 135 136 138 127 118 121 112 102 109 118 121 117 106 103 108 105 99 91 82 85 91 93 91 87 90 90 99 112 112 106 93 90 81 78 81 87 87 79 78 81 87 94 94 93 88 85 85 88 96 93 87 81 78 81 82 78 82 91 87 76 73 72 66 61 64 66 61 61 63 61 61 60 57 57 55 57 60 58 57 60 60 61 63 61 66 81 94 96 100 108 120 132 141 166 166 154 145 138 138 150 175 175 160 160 159 153 150 145 153 157 150 148 147 145 148 154 159 165 166 171 172 174 174 174 174 174 175 175 172 165 156 153 142 124 90 78 69 63 63 61 60 58 57 60 61 60 61 70 72 69 61 61 63 66 64 61 57 55 55 55 58 60 58 55 54 54 55 58 60 61 64 63 61 61 64 63 61 61 61 64 64 66 73 72 70 73 73 73 75 76 78 76 73 70 72 64 67 79 81 85 96 114 129 141 145 139 139 139 133 118 103 88 84 94 97 96 94 84 88 99 111 123 121 115 117 103 96 85 78 79 85
123 129 132 133 133 130 132 135 135 135 135 133 136 135 132 129 127 136 138 138 142 142 123 108 105 102 114 115 120 123 115 106 109 108 103 93 85 82 82 90 96 96 90 90 90 99 109 111 109 94 91 82 79 79 85 88 84 79 84 87 90 94 94 93 87 87 87 93 88 84 82 81 82 79 76 81 90 91 78 72 69 66 66 69 69 64 64 63 61 61 61 61 60 57 57 58 60 61 61 61 64 67 73 90 103 111 112 115 123 129 138 150 189 199 195 172 153 150 159 171 175 166 159 159 156 150 145 157 160 154 151 150 154 162 169 172 178 183 184 187 187 187 187 186 187 190 190 189 181 171 162 142 121 93 84 73 66 63 61 57 58 60 60 60 58 60 64 69 66 61 63 63 64 63 61 60 57 55 57 58 60 57 55 54 54 55 58 58 60 63 69 67 64 69 66 63 61 61 66 67 70 75 73 79 82 87 90 93 94 97 99 93 88 87 81 84 91 94 100 114 126 135 145 154 160 162 162 162 126 90 76 81 97 102 94 82 81 94 114 118 118 114 117 117 105 94 84 75 75 81
115 123 129 129 130 130 132 133 132 132 133 133 129 127 124 114 114 126 129 132 138 126 105 102 102 109 126 126 123 123 112 106 109 105 94 90 85 90 87 87 99 103 96 88 90 102 103 100 106 96 91 85 79 78 84 91 91 87 85 85 84 82 88 88 88 88 87 88 90 87 88 82 78 76 76 78 84 84 75 72 63 63 64 66 69 69 67 63 63 64 63 64 60 57 57 58 61 61 64 67 73 78 90 111 117 111 114 121 130 139 148 168 199 220 219 201 183 166 174 178 186 193 187 168 157 153 150 154 165 166 163 159 163 175 183 190 192 196 199 199 199 196 196 196 196 199 204 205 195 183 159 144 123 94 87 75 72 66 64 60 60 61 61 60 57 60 67 72 69 61 61 64 66 63 61 60 58 57 57 57 57 57 58 54 54 54 55 57 57 61 72 79 81 84 79 76 76 78 76 76 81 82 91 102 109 114 112 114 118 117 114 117 114 112 117 120 120 121 126 133 139 150 169 177 171 157 148 142 118 81 76 78 93 102 85 81 85 105 118 115 111 105 109 106 94 93 88 79 75 75
103 114 121 127 132 133 135 135 133 135 136 132 126 118 120 117 117 117 118 117 118 106 93 105 109 115 124 126 123 117 106 108 108 102 96 91 91 93 93 88 93 103 102 88 91 102 96 94 105 99 91 88 81 78 84 90 87 85 85 87 87 82 82 85 90 90 90 91 93 88 85 78 76 75 76 76 75 73 72 69 61 60 61 63 64 64 64 63 64 64 63 64 61 57 60 60 61 64 67 76 84 103 111 117 117 114 117 127 139 144 163 187 201 217 223 220 201 180 192 204 210 216 208 186 169 166 159 159 174 189 192 184 184 192 199 204 205 208 210 210 208 205 205 204 204 205 210 210 202 190 160 147 132 114 91 73 72 70 67 61 60 61 63 61 57 60 72 76 70 61 60 66 70 61 57 57 58 60 60 58 57 58 55 54 54 54 54 58 58 60 69 93 96 105 105 96 97 108 108 102 102 108 118 124 132 138 136 136 139 141 136 138 139 142 150 151 151 157 163 171 168 186 199 199 157 129 108 100 88 81 78 81 91 96 82 81 88 97 100 97 102 99 96 97 91 87 87 82 79 78
93 100 114 121 132 132 133 135 133 136 136 129 123 112 114 115 115 109 111 106 96 91 94 105 108 114 117 121 117 109 105 108 106 102 99 91 91 93 91 90 94 106 102 88 93 102 96 93 102 96 94 88 87 82 85 88 88 85 85 90 90 81 81 87 88 90 90 93 97 88 85 79 76 75 76 76 67 66 66 66 61 60 61 63 63 63 63 63 64 64 63 63 61 60 61 61 66 70 79 94 118 132 129 124 126 127 135 145 156 168 181 195 204 217 228 232 222 207 213 228 228 213 207 201 195 189 177 178 183 196 210 210 207 213 219 222 222 222 222 219 217 214 213 208 205 207 208 210 202 183 162 147 138 120 85 73 69 69 64 60 60 61 61 60 57 60 72 76 66 60 60 69 70 61 57 57 57 57 57 60 60 55 54 52 52 54 54 55 57 57 61 69 78 93 100 94 94 105 117 117 115 120 130 136 147 156 160 160 165 177 169 172 181 186 189 186 177 177 177 157 144 148 171 151 124 102 88 84 81 84 90 94 97 96 88 88 91 97 96 96 102 93 84 91 93 88 85 84 85 82
91 93 100 108 121 124 129 133 133 133 135 126 114 109 108 108 106 105 105 94 88 91 97 108 109 106 114 115 108 100 99 105 103 97 97 90 85 85 88 93 105 109 100 90 96 102 94 93 97 94 93 87 85 87 87 90 94 91 87 90 85 78 82 88 88 90 85 99 105 94 90 84 78 75 75 75 72 66 63 63 63 61 61 61 64 64 64 66 63 64 63 61 60 60 61 66 70 78 96 121 133 141 138 138 141 142 153 180 190 195 195 204 217 226 237 240 235 226 226 232 232 220 217 216 205 204 196 192 186 198 214 228 228 234 237 237 237 235 231 228 225 222 217 213 208 205 205 205 196 175 160 147 127 96 73 67 63 67 69 61 57 57 60 57 60 61 76 73 66 61 61 70 69 63 61 57 57 57 57 57 58 54 52 54 55 55 55 55 55 57 57 60 60 70 75 67 76 82 99 111 111 112 124 142 180 180 168 187 186 193 202 211 207 202 196 184 163 150 138 124 112 109 118 118 100 94 88 85 85 90 99 106 109 97 90 91 96 108 97 94 102 84 81 90 91 91 90 90 93 91
93 93 91 96 108 115 124 129 132 133 130 121 108 109 109 105 108 108 105 93 88 91 99 109 109 105 109 109 103 97 94 96 96 93 93 87 84 84 87 96 108 109 97 93 99 100 94 94 93 90 87 87 88 88 85 88 99 96 90 87 82 78 81 87 84 87 85 102 105 91 87 81 79 75 75 75 72 69 63 61 61 63 61 61 63 64 64 66 61 61 61 61 60 57 61 69 78 97 118 130 136 144 150 154 163 168 180 201 214 213 219 226 232 240 246 249 246 238 231 234 235 231 225 222 214 213 210 205 202 208 220 229 240 249 255 253 249 246 241 235 231 226 222 214 210 205 201 196 184 169 156 144 117 81 79 72 63 70 70 66 61 57 57 60 61 64 79 76 67 61 63 70 69 63 61 58 57 57 60 58 55 54 52 55 57 58 60 57 57 58 57 57 57 63 66 66 70 73 78 82 82 84 94 124 159 154 157 204 219 223 228 220 207 195 189 177 144 129 118 106 102 93 93 105 106 94 94 97 102 100 111 117 117 105 93 90 97 108 94 94 102 84 81 88 88 97 99 94 97 99
102 96 93 91 94 105 112 123 130 132 127 118 108 103 103 103 106 108 108 94 91 90 100 109 108 105 106 103 103 97 93 93 93 93 96 94 87 88 93 105 111 111 100 102 112 109 105 97 91 88 87 88 87 82 79 84 99 103 102 93 84 79 82 87 82 82 90 99 96 85 85 78 78 76 75 72 72 69 61 61 63 64 63 61 61 66 69 63 61 60 60 61 60 57 63 67 90 120 126 133 142 153 175 189 196 210 225 229 234 232 240 243 249 250 255 255 255 250 246 246 244 240 231 225 220 222 222 222 223 228 235 240 249 255 255 255 255 255 250 244 235 231 225 217 210 204 196 190 178 160 150 136 106 88 96 75 64 66 69 67 61 57 57 61 63 66 81 76 67 64 64 70 66 60 60 57 57 58 61 61 57 55 55 58 58 60 60 60 58 58 57 57 60 61 64 66 70 72 70 70 66 66 70 85 114 118 132 216 255 255 238 210 193 178 166 162 133 112 105 100 96 91 102 106 105 94 96 99 102 105 112 109 109 100 96 96 96 96 90 94 97 81 85 94 88 97 99 99 96 97
106 100 103 100 94 102 102 106 111 114 115 112 108 100 97 99 100 106 105 93 93 94 105 106 105 103 99 102 102 103 103 97 94 100 103 103 97 99 105 111 115 112 111 114 117 117 112 97 90 87 87 87 85 81 79 91 103 105 103 94 84 81 81 82 82 84 90 99 97 88 87 79 78 79 72 72 72 66 61 63 63 64 64 61 61 66 69 61 60 57 58 60 61 61 67 78 111 129 132 138 157 178 196 204 211 228 243 243 247 246 253 255 255 255 255 255 255 255 255 255 253 246 240 231 231 229 232 235 240 246 246 249 255 255 255 255 255 255 255 250 244 235 228 222 213 201 192 183 171 156 144 133 102 93 96 70 64 64 64 64 61 61 61 66 64 67 81 78 69 64 61 67 64 60 57 57 58 60 61 61 60 57 60 58 57 58 60 60 60 58 58 58 57 60 61 63 66 69 69 69 66 66 67 75 82 90 118 202 255 255 232 189 162 154 148 141 121 103 99 94 91 96 106 102 94 91 91 93 96 100 105 94 96 96 96 99 90 88 88 93 96 82 87 97 93 97 100 96 94 85
108 106 109 109 103 108 108 100 96 97 99 97 100 100 97 96 99 106 99 94 100 102 106 105 103 96 94 100 103 105 105 106 105 102 105 114 112 108 105 115 118 115 117 115 114 115 109 103 94 87 88 88 88 87 84 93 103 106 100 94 88 82 81 82 84 85 88 96 94 88 87 81 79 75 67 69 69 64 61 61 61 63 63 63 63 63 63 61 60 57 57 61 63 63 73 103 132 145 153 163 193 210 213 211 217 243 252 244 250 255 255 255 255 255 255 255 255 255 255 255 255 255 247 240 238 238 241 246 250 250 253 255 255 255 255 255 255 255 255 255 250 243 235 225 213 201 190 177 166 153 144 144 117 97 93 75 66 70 69 64 61 66 66 63 63 67 81 76 63 61 60 63 61 60 57 58 57 60 61 61 60 60 60 57 54 54 55 58 60 60 58 55 54 55 57 61 64 64 70 69 67 69 67 67 73 79 111 169 225 225 207 177 160 150 145 133 112 105 105 105 99 102 106 105 100 97 94 91 100 100 96 93 97 96 103 103 96 96 90 99 102 93 97 105 100 111 108 102 94 85
109 106 102 105 108 108 103 100 96 94 93 88 90 93 96 96 97 105 99 99 105 105 106 106 103 93 93 103 108 109 106 108 108 102 117 124 118 108 105 118 120 120 118 115 112 109 106 106 96 88 87 88 88 85 84 88 99 106 99 93 85 81 82 84 84 85 87 91 87 87 87 79 79 76 70 67 67 64 61 61 63 61 66 69 66 63 61 61 57 60 61 70 70 66 81 120 144 177 198 199 220 237 232 222 231 250 253 252 255 255 255 255 255 255 255 255 255 255 255 255 255 255 255 250 246 244 246 252 253 255 255 255 255 255 255 255 255 255 255 255 255 246 240 228 217 204 192 178 166 154 150 154 130 100 84 70 70 75 75 66 61 64 61 60 61 64 81 67 60 60 60 61 61 60 57 55 55 57 60 61 61 61 60 57 52 51 52 55 57 57 58 54 51 52 54 58 61 63 69 70 67 67 69 69 72 79 106 144 178 190 172 162 157 147 157 148 124 118 123 121 115 114 111 111 106 103 99 94 99 96 93 96 100 100 103 103 99 102 105 112 115 111 120 115 102 112 111 106 106 96
109 105 102 105 108 108 102 102 99 93 96 91 87 87 91 96 99 106 106 102 103 103 106 106 100 96 100 106 109 111 108 103 102 103 120 124 115 106 111 126 124 117 115 106 103 106 108 108 97 85 85 87 88 84 85 94 103 103 97 93 87 85 87 85 84 87 90 91 87 85 84 79 79 79 70 69 70 66 63 61 63 63 64 69 64 63 61 60 57 63 72 73 72 67 85 124 148 189 214 219 231 241 243 235 240 250 255 255 255 255 255 255 255 255 255 255 255 255 255 255 255 255 255 255 255 250 249 253 253 255 255 255 255 255 255 255 255 255 255 255 255 250 243 232 222 205 195 183 169 157 156 148 138 111 76 67 73 78 73 69 61 60 60 60 61 64 75 64 60 57 58 61 60 57 55 55 55 57 60 61 61 61 60 55 52 52 54 58 55 55 54 52 51 51 52 55 60 61 66 70 69 69 69 69 73 79 96 123 148 175 193 184 168 174 204 207 175 156 150 138 127 121 120 117 118 124 118 102 99 96 99 100 99 99 99 100 100 111 114 124 129 129 127 123 124 126 124 123 124 102
108 106 103 108 106 106 102 103 103 102 103 99 88 87 90 97 106 111 111 108 106 105 106 105 97 97 108 111 111 108 100 93 91 106 118 115 106 106 118 126 124 114 106 102 103 105 106 106 97 87 87 85 87 87 91 97 106 106 103 99 94 88 88 88 87 88 91 94 91 85 87 84 84 78 69 72 69 69 63 61 63 63 63 63 61 61 61 61 61 70 73 70 67 73 99 130 171 210 226 235 235 238 246 240 249 255 255 255 255 255 255 255 255 255 255 255 255 255 255 255 255 255 255 255 255 255 252 255 255 255 255 255 255 255 255 255 255 255 255 255 255 255 246 235 223 211 199 184 172 160 159 151 138 120 88 67 75 78 75 75 61 60 61 61 61 63 70 61 60 57 58 60 57 55 55 58 58 58 58 60 57 61 60 55 52 54 58 58 57 58 55 52 51 51 52 55 60 61 63 67 72 75 72 72 75 78 84 111 142 172 198 198 175 189 198 207 204 199 186 162 147 144 148 144 142 147 144 138 133 126 121 123 124 120 117 123 127 133 130 138 142 142 138 138 138 136 127 127 126 94
103 106 106 108 105 105 102 102 105 103 106 100 93 87 88 97 106 111 111 112 112 108 108 102 94 94 105 111 111 102 91 85 88 102 115 111 106 106 123 126 118 114 109 102 102 105 103 96 91 88 87 87 85 87 88 91 96 103 103 97 96 82 84 87 84 85 90 93 94 88 88 87 87 75 70 72 69 66 64 61 63 63 63 63 61 60 60 63 64 69 72 67 70 81 118 138 189 225 237 246 247 246 243 250 255 255 255 255 255 255 255 255 255 255 255 255 255 255 255 255 255 255 255 255 255 255 255 255 255 255 255 255 255 255 255 255 255 255 255 255 255 255 249 238 226 214 201 186 171 157 156 148 136 118 108 84 73 75 75 73 64 61 60 60 57 63 70 61 57 55 58 58 57 55 55 57 58 58 58 58 57 57 55 55 54 54 55 55 60 60 58 55 54 54 54 55 58 61 64 69 75 73 72 75 78 78 82 103 130 147 154 147 150 166 172 177 187 202 202 198 195 199 199 193 172 177 177 180 180 151 154 154 153 142 133 132 132 138 141 142 136 133 136 133 126 112 102 112 108 85
105 103 103 106 108 105 102 103 109 103 106 102 96 93 90 99 102 108 111 117 118 112 106 99 93 93 97 102 106 102 91 85 90 103 120 115 106 102 114 118 112 112 111 97 94 100 100 93 88 90 87 88 87 85 84 85 94 97 94 96 96 84 82 84 82 85 94 99 97 90 87 84 81 75 67 70 69 64 63 63 63 63 66 63 60 60 60 64 69 72 75 73 73 93 123 138 195 232 238 240 250 249 243 255 255 255 255 255 255 255 255 255 255 255 255 255 255 255 255 255 255 255 255 255 255 255 255 255 255 255 255 255 255 255 255 255 255 255 255 255 255 255 249 240 228 214 199 183 169 156 147 141 129 115 114 87 67 66 72 72 66 61 60 57 57 63 69 61 57 55 55 58 57 57 58 57 58 60 57 57 55 54 54 54 54 52 52 54 60 60 57 57 58 55 58 55 55 60 67 73 75 73 70 75 79 85 93 99 120 129 129 130 133 150 162 153 148 153 157 153 153 156 154 148 142 142 142 142 138 135 148 144 136 129 118 114 126 133 135 135 133 130 129 121 97 93 93 99 88 84
106 106 105 111 111 106 103 105 109 105 105 108 102 100 94 94 93 102 111 115 118 114 105 99 93 97 109 114 111 105 93 88 97 108 120 118 106 102 106 112 111 114 109 96 93 97 103 97 93 91 90 90 88 85 84 87 94 93 91 100 99 87 85 85 82 90 96 99 99 90 87 84 79 73 67 69 66 61 61 63 64 63 66 63 60 60 61 69 70 69 70 78 88 105 118 148 214 247 247 244 255 255 255 255 255 255 255 255 255 255 255 255 255 255 255 255 255 255 255 255 255 255 255 255 255 255 255 255 255 255 255 255 255 255 255 255 255 255 255 255 255 255 249 240 231 217 199 178 165 154 142 133 118 105 99 84 67 61 72 78 64 61 61 60 57 63 67 63 60 55 54 58 57 58 55 57 58 60 60 57 54 52 54 54 54 52 51 54 57 60 57 58 57 57 58 55 54 57 61 72 75 75 70 75 84 93 94 97 105 106 103 103 100 102 111 108 97 96 100 109 112 112 99 99 99 103 103 97 96 94 109 109 112 114 114 120 142 147 130 130 138 138 138 123 94 96 100 94 84 84
103 106 106 108 108 106 106 106 106 102 106 112 108 108 97 91 91 97 108 115 118 115 105 103 99 106 120 121 112 108 102 100 106 111 123 124 117 109 108 109 111 114 108 97 93 97 105 103 96 94 91 88 90 87 85 94 100 93 91 100 96 85 87 90 93 97 96 91 94 90 88 87 79 70 67 70 66 61 63 61 64 66 64 63 63 61 63 69 67 67 73 87 108 112 132 174 223 246 252 253 255 255 255 255 255 255 255 255 255 255 255 255 255 255 255 255 255 255 255 255 255 255 255 255 255 255 255 255 255 255 255 255 255 255 255 255 255 255 255 255 255 253 246 240 231 219 204 184 168 156 142 129 112 102 88 76 66 61 72 78 64 61 61 60 61 63 66 63 60 54 54 55 60 58 57 57 58 60 60 58 55 54 55 55 55 54 54 55 58 58 60 58 57 57 57 55 52 55 60 75 75 73 69 70 78 81 78 78 82 84 81 78 81 84 94 96 96 117 123 103 100 105 118 138 148 147 117 82 85 91 100 109 120 120 118 139 147 136 118 118 136 142 142 126 100 99 100 94 90 94
103 106 109 111 109 109 106 106 108 102 112 114 111 109 97 90 93 96 97 109 120 117 108 102 102 117 127 123 118 115 114 108 108 117 127 129 126 118 111 111 114 111 105 99 94 102 106 105 96 94 88 84 88 85 85 96 100 96 96 97 90 85 91 96 96 100 99 90 90 87 88 82 75 64 66 70 69 64 64 63 66 64 64 64 69 70 72 69 67 70 78 94 106 124 151 195 241 255 255 255 255 255 255 255 255 255 255 255 255 255 255 255 255 255 255 255 255 255 255 255 255 255 255 255 255 255 255 255 255 255 255 255 255 255 255 255 255 255 255 255 255 250 246 240 231 223 210 190 174 160 144 129 114 99 82 67 63 61 66 76 64 61 61 60 61 63 66 61 57 52 52 55 60 60 57 57 57 55 57 55 57 58 60 55 55 57 60 60 57 57 60 58 58 57 58 57 54 54 55 61 63 66 66 66 73 81 85 81 79 78 78 102 124 118 100 99 117 150 163 138 111 100 139 207 223 223 139 81 81 91 103 114 123 123 130 142 129 109 97 109 126 132 139 130 106 100 99 99 99 99
103 106 112 114 112 109 105 105 108 105 111 114 112 109 99 90 91 91 91 100 118 121 120 114 114 127 136 130 123 123 118 109 109 117 126 129 126 117 109 109 114 114 105 99 94 97 106 105 96 91 87 84 85 87 85 93 97 94 94 99 97 93 90 93 94 100 99 96 90 84 81 72 67 64 64 69 67 64 63 61 63 63 63 69 72 73 73 73 67 76 87 91 111 135 169 204 246 255 255 255 255 255 255 255 255 255 255 255 255 255 255 255 255 255 255 255 255 255 255 255 255 255 255 255 255 255 255 255 255 255 255 255 255 255 255 255 255 255 255 255 253 246 243 238 231 222 207 193 174 156 144 129 115 96 73 69 61 61 61 69 63 60 60 60 61 61 66 61 57 52 54 58 57 57 58 57 57 54 54 54 58 60 58 58 60 61 63 63 61 61 60 58 58 60 60 60 55 54 54 55 57 60 60 61 70 93 94 94 78 76 82 124 133 133 103 99 127 163 163 151 126 108 135 171 172 153 127 91 84 94 109 121 130 130 130 126 103 97 109 120 112 103 124 126 114 102 102 114 115 102
99 103 109 114 109 105 102 103 106 106 108 111 109 106 96 93 91 96 91 94 118 133 136 135 132 136 136 135 130 129 123 112 111 120 126 127 123 117 111 114 115 112 109 106 96 96 102 100 93 85 85 90 94 96 87 87 96 96 96 99 100 96 94 97 100 100 97 97 91 82 73 61 63 66 64 69 66 64 63 61 61 61 61 69 73 78 79 72 66 79 94 97 117 141 180 207 252 255 255 255 255 255 255 255 255 255 255 255 255 255 255 255 255 255 255 255 255 255 255 255 255 255 255 255 255 255 255 255 255 255 255 255 255 255 255 255 255 255 255 253 249 243 238 231 226 219 205 190 169 153 147 129 109 87 67 67 63 61 61 69 63 60 60 60 60 60 64 61 57 55 55 55 55 55 57 58 57 54 54 54 57 57 60 60 63 70 72 69 66 61 60 57 58 58 60 60 57 55 52 52 52 52 54 55 61 67 78 76 76 75 81 118 132 120 97 97 120 145 154 148 132 114 126 139 139 130 126 124 117 112 126 135 139 132 121 118 112 121 138 142 121 103 121 133 129 127 127 130 130 117
97 102 109 114 111 105 100 100 100 103 106 106 106 102 93 93 94 97 97 97 115 139 153 151 147 141 138 138 138 135 127 121 118 126 129 126 121 114 108 115 115 115 115 112 105 99 96 93 94 99 97 100 100 96 90 88 93 100 105 105 102 97 94 102 106 103 99 94 87 76 67 61 63 66 64 64 64 64 64 61 61 61 61 69 75 84 84 70 66 79 88 96 127 142 174 216 255 255 255 255 255 255 255 255 255 255 255 255 255 255 255 255 255 255 255 255 255 255 255 255 255 255 255 255 255 255 255 255 255 255 255 255 255 255 255 255 255 255 255 250 244 240 231 226 219 213 204 187 163 147 147 129 97 73 67 78 69 64 64 72 70 61 60 60 60 57 63 64 60 57 55 55 54 55 58 60 57 57 57 57 60 63 64 69 72 72 69 66 61 60 57 55 57 58 60 58 58 52 51 49 51 51 51 52 55 57 61 63 67 67 76 99 118 120 130 139 147 159 163 159 156 147 148 168 174 168 165 169 166 154 154 159 150 144 138 144 147 153 166 180 180 162 162 157 154 157 153 147 141 123
97 106 109 111 109 105 100 99 102 103 105 105 105 103 97 91 93 96 94 93 102 132 153 151 147 144 147 147 153 148 139 133 133 132 132 127 120 108 108 117 117 117 117 111 99 90 90 91 99 109 100 96 91 93 99 96 99 103 105 106 103 96 93 103 106 99 94 81 70 63 63 66 66 64 61 63 63 61 61 60 61 63 69 72 78 81 79 78 84 81 81 99 138 139 180 243 255 255 255 255 255 255 255 255 255 255 255 255 255 255 255 255 255 255 255 255 255 255 255 255 255 255 255 255 255 255 255 255 255 255 255 255 255 255 255 255 255 255 253 246 243 235 228 222 214 208 201 187 165 151 144 127 96 73 78 81 75 72 67 76 76 64 61 61 61 57 63 64 60 57 55 55 55 57 60 60 60 60 61 66 67 67 67 63 63 63 63 61 60 57 57 55 55 55 55 55 55 52 49 49 49 49 49 51 51 54 55 60 64 70 72 78 82 94 124 138 148 162 171 172 198 219 225 232 232 229 228 214 208 204 223 225 210 211 201 207 211 202 199 207 220 219 214 198 190 202 187 169 147 126
103 106 103 102 102 102 99 100 105 105 106 108 108 106 102 93 91 94 93 91 94 120 142 135 127 132 142 154 159 159 157 148 142 135 132 130 123 112 112 117 117 117 117 105 93 90 90 91 102 109 94 91 91 94 99 97 106 106 103 106 99 93 94 102 102 90 79 70 66 61 61 66 69 64 61 64 64 61 61 60 61 69 72 76 82 84 79 85 97 85 82 106 142 148 205 255 255 255 255 255 255 255 255 255 255 255 255 255 255 255 255 255 255 255 255 255 255 255 255 255 255 255 255 255 255 255 255 255 255 255 255 255 255 255 255 255 255 255 253 246 240 232 226 219 213 205 198 183 160 151 144 132 100 81 81 73 73 75 70 73 70 61 61 61 60 61 63 61 60 57 55 55 57 60 61 64 64 66 67 67 63 61 60 60 60 60 60 60 60 61 60 60 60 57 57 57 57 54 51 49 49 49 49 49 51 52 52 55 60 61 64 64 69 67 76 82 96 115 127 138 159 202 214 208 216 232 229 220 211 204 232 234 234 237 237 241 247 234 223 214 222 216 214 208 202 223 202 180 153 130
102 103 99 97 96 97 97 100 103 105 108 108 105 102 97 90 90 93 91 91 93 100 120 117 102 96 117 142 159 159 154 156 151 141 136 133 126 121 114 114 118 118 123 120 112 99 94 102 102 99 93 93 97 96 94 97 102 103 103 105 96 90 93 96 91 78 70 67 69 64 64 66 69 64 63 64 64 63 61 60 61 69 73 81 82 88 84 96 111 90 82 94 138 186 241 255 255 255 255 255 255 255 255 255 255 255 255 255 255 255 255 255 255 255 255 255 255 255 255 255 255 255 255 255 255 255 255 255 255 255 255 255 255 255 255 255 255 255 255 246 240 232 226 219 213 205 195 177 159 148 142 130 99 79 76 70 75 75 69 66 64 61 61 61 60 60 60 60 58 57 58 60 60 61 67 67 66 61 61 60 60 60 60 60 63 64 72 75 81 84 78 72 72 64 61 61 61 61 54 51 51 52 51 51 49 51 51 51 52 54 57 60 61 63 64 66 67 70 76 82 94 111 118 121 144 190 198 195 219 193 196 225 216 193 175 207 247 247 228 213 214 220 232 222 207 223 208 169 145 129
100 97 96 102 97 96 97 99 105 108 108 100 93 90 88 87 88 91 90 90 88 85 100 106 96 85 100 136 151 151 148 154 159 151 148 145 138 130 124 129 133 133 133 133 123 106 105 103 94 88 87 91 97 97 94 93 94 102 105 103 94 90 91 87 78 70 66 67 70 64 63 69 69 69 61 63 63 61 60 60 63 67 73 81 90 99 108 111 103 85 84 109 168 243 255 255 255 255 255 255 255 255 255 255 255 255 255 255 255 255 255 255 255 255 255 255 255 255 255 255 255 255 255 255 255 255 255 255 255 255 255 255 255 255 255 255 255 255 255 250 244 235 229 223 217 208 196 177 159 148 142 130 99 76 70 72 75 73 64 63 61 61 61 60 60 57 55 57 57 60 61 61 63 61 61 61 61 61 61 63 66 76 81 78 85 88 91 91 91 82 76 72 67 63 61 61 61 61 54 51 52 57 57 52 51 51 52 52 51 51 51 54 61 61 61 63 69 70 67 66 66 67 70 70 84 120 138 144 160 150 138 150 142 118 103 132 169 208 214 193 172 193 232 228 202 214 198 157 139 132
97 94 94 102 96 93 93 94 100 103 99 94 90 94 90 87 88 88 87 87 85 87 94 99 93 85 93 124 139 147 153 157 162 163 163 163 148 141 136 138 138 135 130 124 121 115 109 103 91 90 87 87 91 91 90 90 96 106 105 100 91 87 81 75 67 64 64 66 70 66 63 66 67 64 61 63 63 61 61 60 63 67 75 85 103 111 118 115 102 109 118 157 228 255 255 255 255 255 255 255 255 255 255 255 255 255 255 255 255 255 255 255 255 255 255 255 255 255 255 255 255 255 255 255 255 255 255 255 255 255 255 255 255 255 255 255 255 255 255 255 246 240 232 228 222 214 201 183 159 151 147 126 96 76 70 75 73 67 64 63 61 61 61 60 58 55 54 55 58 61 63 61 64 61 63 75 81 88 91 84 85 93 93 81 84 79 78 78 75 64 61 61 60 57 60 60 57 57 54 51 51 52 52 52 52 52 52 57 54 51 49 51 52 58 60 60 61 61 61 66 67 69 72 75 82 97 124 129 124 118 112 109 102 93 84 84 112 142 160 156 144 144 163 198 187 175 157 141 120 117
96 96 94 94 94 93 90 90 97 99 96 94 91 94 91 85 88 88 87 87 87 88 87 91 90 85 82 99 120 123 133 144 153 160 165 160 151 141 136 130 127 124 121 112 117 112 105 105 102 97 90 87 91 91 93 99 103 106 105 99 88 82 70 67 64 64 64 66 69 69 66 64 64 64 63 63 61 60 60 61 64 67 79 97 112 111 111 121 132 144 169 211 244 255 255 255 255 255 255 255 255 255 255 255 255 255 255 255 255 255 255 255 255 255 255 255 255 255 255 255 255 255 255 255 255 255 255 255 255 255 255 255 255 255 255 255 255 255 255 255 250 243 235 231 228 223 210 189 172 162 141 120 97 87 75 72 69 66 63 61 61 61 61 60 57 57 60 60 57 61 73 81 94 94 90 97 100 100 94 79 76 79 78 70 67 67 73 70 67 63 61 61 61 61 60 60 60 60 55 52 51 51 52 54 54 52 54 55 58 58 51 49 51 52 54 57 57 57 57 60 60 61 61 66 75 84 97 108 111 118 105 96 97 91 84 82 85 121 135 138 138 121 126 157 151 133 124 120 93 97
99 102 99 94 97 94 88 88 96 99 96 91 87 88 87 85 85 88 88 87 87 84 84 87 90 87 78 81 88 85 100 118 133 150 159 163 154 142 132 126 124 126 118 112 115 112 106 109 109 100 91 93 100 99 102 103 102 103 103 96 79 67 64 69 69 66 66 64 69 66 66 64 64 64 63 61 61 60 60 63 69 76 93 117 123 127 121 120 145 186 219 232 249 255 255 255 255 255 255 255 255 255 255 255 255 255 255 255 255 255 255 255 255 255 255 255 255 255 255 255 255 255 255 255 255 255 255 255 255 255 255 255 255 255 255 255 255 255 255 255 253 244 237 232 231 225 207 189 168 159 141 117 102 94 70 67 67 69 63 60 60 60 60 58 58 60 61 61 64 79 100 111 111 108 94 96 87 82 79 70 70 78 81 81 78 81 87 84 85 91 84 79 78 79 76 69 66 66 61 58 52 52 52 54 54 54 54 55 58 58 52 49 49 49 51 54 58 57 57 58 60 57 60 61 64 67 76 85 88 93 94 100 102 99 93 87 91 111 124 126 120 99 117 142 130 111 102 99 88 93
102 103 96 94 97 96 94 93 97 99 93 90 88 87 88 90 90 91 88 87 87 85 85 88 85 84 76 76 78 78 78 79 91 118 136 148 144 136 127 130 135 133 126 117 115 115 114 111 102 99 102 105 105 102 106 103 96 93 93 84 67 63 64 70 70 69 66 66 64 63 61 61 63 63 61 61 60 60 61 64 75 88 106 121 130 150 180 147 144 198 229 249 255 255 255 255 255 255 255 255 255 255 255 255 255 255 255 255 255 255 255 255 255 255 255 255 255 255 255 255 255 255 255 255 255 255 255 255 255 255 255 255 255 255 255 255 255 255 255 255 253 244 237 231 226 213 198 178 159 157 142 106 82 76 67 70 66 66 64 61 60 57 57 60 57 61 73 84 93 96 94 93 84 81 82 81 76 76 82 94 112 109 100 97 100 106 114 112 111 111 102 90 79 78 75 66 63 61 60 58 52 52 54 54 52 52 54 55 55 58 52 51 51 49 49 52 58 61 61 61 60 60 61 63 63 61 64 67 64 70 85 97 102 100 96 96 96 97 100 100 90 81 105 123 112 102 94 85 82 88
103 105 97 97 96 94 96 96 102 103 96 94 90 88 90 96 99 97 90 87 90 88 87 88 81 79 78 76 76 76 76 76 78 81 100 126 135 130 127 135 141 141 132 121 118 118 118 112 97 97 100 106 108 103 103 108 96 85 82 75 64 63 64 69 69 66 69 69 64 60 60 63 66 64 61 61 61 61 66 72 79 99 112 126 144 181 243 243 166 195 238 255 255 255 255 255 255 255 255 255 255 255 255 255 255 255 255 255 255 255 255 255 255 255 255 255 255 255 255 255 255 255 255 255 255 255 255 255 255 255 255 255 255 255 255 255 255 255 255 255 253 244 235 228 217 199 178 171 165 154 132 93 73 73 75 75 66 63 61 61 61 58 57 61 63 75 82 88 91 84 76 67 70 70 70 78 82 100 115 127 136 124 111 105 121 121 117 105 88 84 79 67 63 61 61 60 57 58 54 51 51 51 51 52 52 54 54 54 55 54 54 58 52 51 49 51 54 60 60 61 61 61 66 70 66 64 61 61 60 61 75 87 85 81 81 85 82 79 79 79 78 84 99 105 109 99 85 82 84 96
103 108 106 105 100 97 93 93 102 105 102 100 90 87 87 94 102 97 90 87 88 90 82 81 81 78 78 81 79 79 79 76 76 76 79 106 127 129 132 136 138 136 133 129 127 123 121 117 105 100 108 111 106 105 109 109 103 88 75 69 64 61 63 64 63 63 64 67 66 63 64 67 66 61 60 61 61 61 69 73 82 106 126 147 172 198 234 238 180 211 252 255 255 255 255 255 255 255 255 255 255 255 255 255 255 255 255 255 255 255 255 255 255 255 255 255 255 255 255 255 255 255 255 255 255 255 255 255 255 255 255 255 255 255 255 255 255 255 255 255 255 246 235 225 210 192 172 165 159 142 115 90 81 81 76 75 63 61 64 64 63 61 64 69 72 73 76 75 75 70 64 64 73 82 94 117 130 138 147 147 130 112 99 87 91 91 78 70 61 61 60 57 57 57 57 55 55 52 49 48 48 49 49 49 51 52 54 54 52 54 54 58 57 51 49 49 51 54 57 61 61 61 69 70 70 69 63 61 60 60 61 70 73 67 70 76 75 73 73 73 79 90 102 111 108 102 99 114 123 124
106 108 105 103 99 97 88 87 93 102 105 100 94 93 91 93 102 99 93 91 90 87 81 79 82 78 78 81 82 84 82 76 76 76 76 85 118 130 136 138 132 126 130 132 132 129 129 130 126 118 114 114 109 108 111 103 97 79 66 66 61 60 61 61 63 61 61 61 64 66 66 67 63 61 60 61 63 61 66 70 84 112 135 169 211 216 213 189 180 232 255 255 255 255 255 255 255 255 255 255 255 255 255 255 255 255 255 255 255 255 255 255 255 255 255 255 255 255 255 255 255 255 255 255 255 255 255 255 255 255 255 255 255 255 255 255 255 255 255 255 255 250 240 226 208 192 174 162 144 124 112 109 96 84 73 66 63 64 66 69 70 69 69 67 63 63 63 61 61 61 67 79 103 126 133 142 142 138 133 117 90 79 73 63 60 61 60 60 57 57 54 52 52 52 54 52 51 49 48 48 48 48 48 48 49 51 54 54 52 52 54 54 52 51 49 49 51 51 55 61 61 61 64 67 72 69 66 63 61 60 60 60 63 63 61 70 76 82 93 96 99 117 135 142 141 136 136 144 148 138
99 103 97 96 91 91 88 87 90 99 99 99 102 99 96 97 100 97 94 93 90 85 79 78 82 79 79 82 87 84 82 81 79 78 73 76 100 124 121 109 100 100 109 126 132 130 133 142 148 136 126 123 120 114 108 90 82 67 64 63 61 58 60 61 61 61 60 61 63 63 61 61 60 60 60 63 67 63 64 73 90 115 135 175 228 223 220 211 220 255 255 255 255 255 255 255 255 255 255 255 255 255 255 255 255 255 255 255 255 255 255 255 255 255 255 255 255 255 255 255 255 255 255 255 255 255 255 255 255 255 255 255 255 255 255 255 255 255 255 255 255 255 243 228 213 195 180 157 141 120 117 117 102 84 67 64 69 69 73 73 69 66 63 61 60 57 57 61 73 93 108 124 142 142 139 127 117 97 85 67 61 61 61 57 58 58 57 58 57 54 52 49 49 51 51 51 51 49 48 48 48 49 48 48 49 51 54 52 54 52 52 52 49 49 49 49 49 49 52 55 58 60 61 67 69 72 70 66 63 61 61 60 61 60 60 61 64 84 120 138 142 157 190 180 175 162 151 153 148 136
85 93 94 93 90 87 88 90 93 94 96 102 100 97 99 97 93 91 88 88 88 87 78 75 78 81 82 88 88 82 81 82 82 75 67 67 90 109 88 82 85 85 85 90 108 120 126 144 151 151 144 138 127 117 103 79 67 63 61 61 61 60 58 60 60 57 57 61 61 61 60 55 54 54 57 61 67 64 64 70 88 114 129 157 211 235 247 255 255 255 255 255 255 255 255 255 255 255 255 255 255 255 255 255 255 255 255 255 255 255 255 255 255 255 255 255 255 255 255 255 255 255 255 255 255 255 255 255 255 255 255 255 255 255 255 255 255 255 255 255 255 255 246 228 214 196 169 153 142 124 117 111 88 70 64 72 75 76 75 70 64 61 60 60 63 73 81 109 127 132 132 132 130 120 96 78 61 61 60 57 57 58 57 57 55 58 57 55 54 52 51 49 48 49 49 49 49 48 48 48 49 49 49 49 49 52 54 58 55 54 54 52 49 49 49 49 49 49 51 51 52 55 60 61 64 70 70 70 64 61 63 63 61 57 60 58 61 61 96 130 142 166 204 204 174 165 162 157 145 130
85 88 88 88 87 85 90 93 94 93 96 96 94 94 94 93 87 85 85 85 88 84 78 75 78 81 87 84 79 76 76 79 76 73 67 76 88 93 79 82 85 79 70 70 81 90 102 130 142 144 148 142 132 118 93 70 64 61 60 61 61 60 57 57 57 57 60 61 61 60 55 51 49 51 55 61 63 66 69 72 79 108 129 150 201 246 255 255 255 255 255 255 255 255 255 255 255 255 255 255 255 255 255 255 255 252 255 255 253 252 255 255 255 255 255 255 255 255 255 255 255 255 255 255 255 255 255 255 255 255 255 255 255 255 255 255 255 255 255 255 255 255 244 226 214 192 166 153 142 130 115 88 70 67 73 79 76 67 63 63 60 61 63 78 108 117 118 124 127 124 111 91 81 73 61 60 57 54 52 54 55 57 58 52 52 57 52 52 52 51 49 49 48 48 48 46 48 48 48 48 49 49 49 49 51 52 54 58 55 58 58 52 49 49 49 49 49 48 48 49 49 52 60 60 60 61 61 64 63 61 63 66 69 61 60 60 60 60 60 60 67 100 133 168 162 166 168 171 172 147
90 88 85 84 85 85 88 93 93 94 94 88 87 87 85 87 87 85 87 88 87 81 78 76 79 84 84 79 73 67 67 67 70 70 76 84 88 79 73 75 76 73 70 70 76 78 81 109 129 138 141 138 132 111 76 61 61 61 60 61 61 60 61 61 60 61 61 61 61 60 55 51 51 52 58 61 63 64 69 72 67 90 124 151 202 247 255 255 255 255 255 255 255 255 255 255 255 255 255 255 255 255 255 255 246 244 249 246 244 247 255 255 255 255 255 255 255 255 255 255 255 255 255 255 255 255 255 255 255 255 255 255 255 255 255 255 255 255 255 255 255 253 240 226 213 195 177 154 147 133 103 82 84 88 79 75 66 61 60 60 64 76 79 96 117 117 108 93 85 82 75 63 61 60 55 54 52 51 49 51 57 58 52 51 51 51 51 51 51 51 49 49 49 48 48 46 46 46 48 48 49 49 49 49 49 51 52 52 54 55 58 52 51 49 51 51 51 49 49 48 48 51 58 60 61 60 57 60 60 60 60 63 69 69 64 63 61 61 60 57 57 60 67 100 126 141 154 187 202 166
94 91 87 84 87 88 88 91 91 91 90 90 88 85 85 87 87 88 88 88 85 82 79 79 84 85 84 78 73 67 69 72 73 79 84 84 78 75 72 70 75 78 81 82 81 76 78 109 127 135 138 129 118 85 61 61 61 60 57 61 61 61 61 63 63 61 61 64 61 61 58 52 52 55 60 61 66 66 67 66 66 76 102 141 189 237 255 255 255 255 255 255 255 255 255 255 255 255 255 255 255 253 253 243 231 229 240 241 243 249 255 255 255 255 255 255 255 255 255 255 255 255 255 255 255 255 255 255 255 255 255 255 255 255 255 255 255 255 255 255 255 249 235 234 226 214 207 190 148 124 99 99 103 88 75 66 61 61 64 67 82 94 97 100 94 87 79 70 64 61 60 55 54 52 51 51 51 49 49 49 51 52 51 49 49 48 49 49 49 49 49 49 49 49 48 46 46 48 48 48 49 48 48 48 49 49 51 51 51 52 52 51 49 49 51 51 51 49 49 48 48 49 52 57 61 61 57 60 57 55 55 60 61 66 69 66 63 63 61 61 61 61 60 61 81 126 177 214 214 166
94 94 93 88 88 87 87 88 88 87 84 87 82 82 84 84 87 87 87 87 84 84 79 81 84 85 85 79 76 72 72 76 76 76 76 73 70 70 70 76 81 84 84 84 78 78 94 124 135 136 132 121 97 66 60 60 60 57 58 60 61 60 61 61 61 60 60 64 61 60 55 52 54 60 61 64 76 73 67 66 66 67 78 123 156 201 235 255 255 255 255 255 255 255 255 255 255 255 255 255 255 250 247 231 216 220 229 234 249 255 255 255 255 255 255 255 255 255 255 255 255 255 255 255 255 255 255 255 255 255 255 255 255 255 255 255 255 255 255 255 255 249 247 249 243 223 202 162 132 114 112 103 93 76 61 61 63 70 76 79 90 91 88 78 63 61 61 60 57 55 52 51 49 49 49 49 51 49 49 49 49 51 51 49 49 48 48 49 49 49 49 49 51 49 48 46 48 49 49 49 49 48 46 46 48 49 49 49 49 49 49 49 49 49 49 49 49 49 49 49 48 48 51 57 61 61 61 61 60 54 52 57 60 61 63 64 67 69 67 66 70 70 63 60 61 76 108 141 172 154
94 96 94 93 88 88 87 88 90 85 81 79 79 81 87 85 87 87 88 88 85 84 79 82 85 84 82 79 76 75 72 75 76 76 73 73 70 75 73 78 81 81 79 79 84 100 120 133 138 138 130 114 79 61 60 57 57 57 58 60 60 60 60 61 61 61 61 61 60 57 54 54 57 60 64 69 76 75 63 64 66 66 67 91 136 175 202 225 252 255 255 255 255 255 255 255 255 255 255 255 255 250 237 211 202 217 226 243 255 255 255 255 255 255 255 255 255 255 255 255 255 255 255 255 255 255 255 255 255 255 255 255 255 255 255 255 255 255 255 255 255 255 255 255 241 202 157 132 120 117 112 91 76 64 61 61 70 78 78 81 81 75 67 61 57 55 54 54 52 52 51 49 49 48 49 49 51 51 49 49 49 49 51 49 49 48 48 49 49 49 49 49 49 49 48 46 48 49 49 49 49 46 45 45 46 48 49 49 48 48 48 49 49 49 49 49 49 49 49 49 48 49 52 57 60 61 61 61 60 57 54 57 60 60 60 61 63 66 64 67 67 72 72 64 63 61 60 78 120 126
91 93 96 93 90 90 88 90 87 87 84 82 84 85 90 91 88 90 90 88 88 88 84 84 87 87 82 79 79 78 76 78 78 81 81 78 81 84 82 85 93 99 106 115 124 130 132 132 130 124 111 85 61 57 55 55 55 57 57 60 60 60 61 61 61 61 61 61 60 54 52 54 60 61 64 67 75 73 63 63 64 69 69 70 97 136 162 195 229 255 255 255 255 255 255 255 255 255 255 255 255 243 222 195 190 219 238 249 255 255 255 255 255 255 255 255 255 255 255 255 255 255 255 255 255 255 255 255 255 255 255 255 255 255 255 255 255 255 255 255 255 255 255 252 223 153 130 124 114 103 87 73 66 66 66 72 75 66 63 64 64 61 57 55 52 51 51 49 49 51 51 49 49 49 49 49 49 49 49 48 49 49 49 49 49 48 48 48 49 49 48 49 49 48 48 46 48 48 49 49 48 46 43 45 46 48 48 48 48 46 46 48 48 48 48 48 48 49 49 48 48 49 52 58 61 61 63 64 61 60 60 60 60 60 60 60 60 60 60 61 63 69 72 69 70 69 64 60 57 67
93 91 94 90 87 87 85 85 82 82 84 85 88 88 91 91 90 88 87 82 82 84 84 84 93 97 97 91 91 96 94 93 93 91 93 97 103 105 115 127 133 138 147 147 147 139 130 118 108 96 82 63 60 55 54 54 58 58 57 60 60 57 60 60 60 60 61 61 55 52 52 58 61 61 63 66 73 70 67 69 67 69 69 66 67 82 117 145 181 216 237 255 255 255 255 255 255 255 255 255 252 232 210 184 184 220 246 255 255 255 255 255 255 255 255 255 255 255 255 255 255 255 255 255 255 255 255 255 255 255 255 255 255 255 255 255 255 255 255 255 255 255 255 232 178 136 121 111 93 79 75 70 67 72 72 69 61 60 60 60 60 57 54 51 51 49 48 49 49 49 51 51 49 49 49 49 49 49 48 48 48 48 48 48 48 48 48 48 48 48 48 48 49 48 46 46 46 48 49 48 48 46 45 45 46 48 48 48 48 46 46 46 48 46 48 48 48 49 49 48 46 48 52 60 61 61 61 66 63 61 63 63 63 60 60 57 57 58 60 60 60 63 72 70 70 72 72 66 61 57
91 91 90 88 87 88 88 84 82 82 84 87 87 88 91 88 88 88 85 84 85 90 91 100 112 118 117 112 109 109 111 114 118 121 120 126 130 133 138 148 148 147 142 144 138 124 108 93 81 70 61 60 58 57 55 55 58 58 57 55 57 58 60 60 60 60 61 61 54 51 52 57 64 66 66 66 72 72 73 72 67 67 72 69 66 66 76 96 121 144 169 210 255 255 255 255 255 255 255 255 237 193 166 163 180 217 238 255 255 255 255 255 255 255 255 255 255 255 255 255 255 255 255 255 255 255 255 255 255 255 255 255 255 255 255 255 255 255 255 255 255 255 220 159 142 126 105 84 76 72 72 70 64 64 64 61 57 57 55 55 55 54 52 51 49 49 48 48 48 49 51 51 49 49 48 48 48 48 46 46 46 48 48 48 48 48 48 48 46 46 46 48 48 48 46 46 48 48 49 49 48 48 46 45 46 46 48 48 48 46 46 46 46 45 46 46 48 49 48 46 46 48 51 60 60 57 60 63 66 63 66 66 66 61 61 60 60 60 60 60 60 60 61 63 66 69 72 72 64 61
85 88 88 88 88 91 91 88 85 87 87 87 87 87 88 85 88 88 91 99 108 112 112 111 117 118 112 106 105 103 108 112 120 121 118 118 124 126 124 127 132 124 112 100 94 85 78 61 61 60 58 57 60 60 58 54 55 57 58 57 57 60 61 61 61 61 60 58 52 49 52 57 63 64 69 70 70 75 81 81 73 67 75 75 67 70 78 76 76 90 112 133 163 198 241 253 246 247 255 255 199 144 139 154 183 216 238 255 255 255 255 255 255 255 255 255 255 255 255 255 255 255 255 255 255 255 255 255 255 255 255 255 255 255 255 255 255 255 255 255 255 232 148 133 123 96 81 70 72 72 70 66 63 60 57 57 55 55 52 52 52 52 51 49 49 49 49 49 49 49 49 49 48 46 46 46 46 46 46 45 46 48 48 48 48 48 48 46 45 46 46 48 48 48 46 46 48 49 49 49 49 49 48 46 46 46 48 48 48 48 48 46 46 45 45 46 49 49 49 48 46 46 49 54 57 57 57 61 67 66 64 64 63 64 63 63 63 61 61 61 61 61 61 61 63 66 69 69 69 67
85 93 93 88 91 94 94 93 87 85 85 88 88 87 87 87 85 91 103 112 112 111 105 99 100 96 88 90 93 90 88 91 99 102 100 99 100 100 94 96 96 93 84 82 78 75 64 60 60 57 57 55 57 60 54 52 54 58 58 58 60 60 61 61 61 60 55 52 51 51 54 60 63 63 64 72 72 75 84 88 79 70 72 75 73 76 84 84 78 79 81 90 111 126 156 181 180 202 220 208 153 126 139 159 186 213 238 255 255 255 255 255 255 255 255 255 255 255 255 255 255 255 255 255 255 255 255 255 255 255 255 255 255 255 255 255 255 255 255 255 255 177 127 114 96 73 67 73 72 64 63 61 60 55 55 57 58 54 52 51 51 51 51 49 49 49 49 49 49 49 48 46 45 43 43 45 45 46 46 45 46 48 48 48 48 48 48 46 45 45 46 48 49 48 48 46 48 49 49 49 49 48 48 46 46 46 48 48 48 48 48 48 46 45 45 46 49 51 49 48 46 46 49 52 57 60 57 61 69 69 64 61 61 64 64 64 64 64 61 61 63 66 67 64 69 66 64 66 69 70
88 94 94 94 94 94 91 87 82 85 87 90 91 87 84 84 88 97 108 106 99 91 88 91 87 78 81 85 84 84 88 87 85 90 91 88 87 87 81 85 87 82 81 82 78 66 61 60 60 57 58 58 55 55 55 54 52 54 58 57 58 58 60 60 60 58 54 52 51 52 57 61 64 64 67 70 73 76 82 88 88 81 73 70 73 79 84 82 81 81 76 76 76 76 94 114 123 135 141 139 121 118 136 162 187 211 234 255 255 255 255 255 255 255 255 255 255 255 255 255 255 255 255 255 255 255 255 255 255 255 255 255 255 255 255 255 255 255 255 225 177 136 102 81 73 66 64 67 64 60 60 57 55 54 52 54 58 52 51 49 49 51 51 51 49 49 49 49 49 48 46 45 43 42 42 42 43 45 45 46 48 49 49 48 49 49 49 48 45 46 46 49 49 49 48 48 48 48 48 48 48 48 48 46 46 48 48 48 48 49 48 48 48 46 43 45 49 49 51 49 48 48 51 54 57 60 60 57 63 70 69 63 63 69 72 70 67 70 72 69 66 64 69 69 70 70 66 64 67 67
93 94 93 93 93 91 87 84 82 88 90 90 91 90 84 85 100 102 96 93 90 85 81 84 81 76 79 82 85 85 90 84 81 82 82 78 81 81 76 79 79 78 76 79 78 61 57 57 58 55 58 54 55 58 60 58 52 54 55 57 55 57 58 60 57 55 54 52 51 54 60 63 64 67 72 72 75 79 84 90 93 91 75 70 73 70 75 79 79 79 76 78 76 73 70 70 76 81 84 91 84 96 121 142 162 204 223 255 255 255 255 255 255 255 255 255 255 255 255 255 255 255 255 255 255 255 255 255 255 255 255 255 255 255 255 255 255 255 205 150 132 112 81 70 70 63 60 60 61 60 61 58 54 52 52 52 51 51 51 51 51 51 51 51 49 49 49 49 48 46 46 45 42 40 42 42 42 43 45 46 49 49 49 49 49 51 49 48 48 48 48 49 49 49 49 48 48 48 48 48 48 48 46 46 46 48 48 48 48 48 48 48 46 45 43 45 48 49 49 48 48 49 52 55 58 60 60 57 61 70 75 67 72 73 73 73 70 73 73 70 64 64 66 67 67 72 70 69 70 66
90 91 90 88 87 81 79 84 87 87 87 87 85 87 85 99 114 103 85 85 87 84 78 76 75 70 75 82 91 90 84 78 75 73 73 73 78 76 73 75 75 76 75 72 63 60 57 58 55 54 52 54 54 58 60 58 54 54 55 54 55 55 58 58 55 54 58 55 54 57 61 63 63 72 75 75 78 81 85 91 93 87 78 79 81 70 70 75 79 79 81 81 78 76 78 73 66 63 63 67 66 76 84 99 123 147 166 207 232 253 255 255 255 255 255 255 255 255 255 255 255 255 255 255 255 255 255 255 255 255 255 255 255 255 255 255 243 187 144 123 99 82 70 69 64 57 60 60 61 64 61 60 54 51 51 51 49 51 51 51 51 51 51 49 48 48 48 48 46 46 45 43 42 40 42 43 43 45 46 48 49 49 49 49 51 51 51 49 48 48 48 48 49 49 49 48 48 48 48 48 48 48 46 45 46 46 48 48 48 48 48 48 46 45 43 45 46 49 49 48 48 51 58 57 57 57 60 60 60 64 73 76 76 70 67 72 70 72 72 69 66 64 69 69 69 72 69 72 70 66
82 85 87 84 78 73 73 82 88 87 85 85 85 85 91 112 114 100 82 81 81 78 75 73 70 67 75 84 91 90 79 70 67 67 70 75 75 70 67 70 75 76 75 63 60 57 55 58 54 52 51 52 55 57 58 55 55 58 54 54 54 58 55 58 52 52 58 58 57 60 61 63 66 76 76 78 82 88 93 93 90 87 88 81 82 88 78 70 70 76 79 82 82 78 76 75 72 67 66 66 64 63 63 63 70 85 102 118 132 144 168 186 201 228 229 238 253 255 255 255 255 255 255 255 255 255 255 255 255 255 255 255 252 252 243 219 166 126 103 84 76 73 66 61 60 60 60 61 66 66 61 58 52 51 49 51 51 52 58 57 52 51 49 48 48 48 46 46 45 45 45 45 42 40 42 43 46 48 48 49 49 49 49 49 51 51 51 49 49 49 49 48 49 49 49 48 48 48 48 48 48 48 46 45 45 46 48 48 46 46 48 49 49 46 43 45 46 48 49 48 48 49 52 58 55 55 57 58 58 61 75 78 75 70 67 72 72 72 69 70 70 69 69 69 72 72 69 67 67 66
82 84 87 84 78 75 75 82 88 87 87 87 87 85 96 111 112 99 84 82 81 75 70 72 67 67 73 82 88 88 76 66 66 67 73 79 76 67 67 69 72 76 75 61 55 52 52 54 54 52 52 54 57 60 57 55 54 58 54 52 52 54 54 52 51 51 54 58 57 60 64 63 72 79 82 81 87 94 94 90 85 90 90 81 87 90 90 81 78 76 78 81 82 76 73 70 73 73 72 69 70 69 64 63 61 61 67 67 76 84 108 117 124 133 138 142 156 163 193 219 232 252 255 255 255 255 255 255 255 255 255 241 237 225 183 142 124 94 79 75 69 69 61 60 60 61 61 61 60 60 58 54 51 49 51 51 51 52 54 52 51 48 48 48 46 46 45 45 45 46 46 45 45 43 45 45 48 49 51 49 49 49 51 49 51 51 51 51 51 49 49 48 49 49 49 48 46 48 48 48 48 48 46 46 46 48 48 48 46 46 48 49 49 48 45 45 46 48 48 48 48 49 51 54 54 54 55 58 60 61 75 78 73 72 69 67 69 72 69 67 66 66 66 69 72 67 67 67 70 70
82 87 90 90 82 78 73 78 84 85 87 85 87 85 96 109 112 103 88 84 79 73 70 72 72 67 70 81 88 82 76 73 75 67 75 81 76 72 67 67 67 72 63 57 52 51 51 52 54 54 54 55 60 60 60 58 54 52 54 54 54 54 52 51 51 51 51 54 57 61 64 64 79 84 85 82 82 91 88 84 82 88 88 81 88 88 88 93 97 96 91 84 78 70 67 67 69 72 72 72 72 70 70 69 70 69 69 69 67 67 70 73 70 76 79 82 88 93 112 124 130 136 145 153 187 214 195 199 228 219 204 181 177 147 126 100 85 70 69 64 61 61 61 61 63 61 60 60 57 55 54 52 52 51 51 51 51 51 51 49 49 48 46 46 46 46 45 45 43 45 46 46 46 46 46 48 49 51 52 51 49 51 57 51 49 51 51 51 51 49 48 48 49 51 49 48 46 46 48 48 49 48 46 46 46 48 49 48 46 48 48 49 49 48 48 46 48 48 48 48 48 48 49 52 55 57 57 58 58 60 61 64 64 66 70 69 70 72 69 69 66 64 66 67 69 69 72 73 79 75
85 88 90 90 85 78 73 76 79 88 90 85 85 85 96 109 111 109 99 91 85 76 70 70 70 67 67 81 84 81 79 79 81 78 82 81 78 76 70 70 72 69 57 54 51 49 49 52 58 58 55 58 61 61 60 55 52 52 54 55 58 58 52 51 51 52 52 55 60 66 66 73 82 85 84 85 85 82 82 81 81 84 84 88 88 84 84 88 94 103 103 91 84 75 69 64 64 64 69 72 67 67 69 72 73 78 72 72 72 72 75 78 70 70 70 67 66 67 67 73 76 73 70 73 94 112 108 102 118 120 117 109 106 88 81 61 61 63 61 61 60 60 63 61 61 60 57 57 55 55 55 58 57 51 49 49 49 49 49 48 48 46 46 46 46 46 45 43 45 46 48 48 49 49 49 49 51 52 52 51 49 51 57 51 49 51 51 51 51 49 48 48 49 51 49 48 45 46 48 48 48 48 46 46 48 49 49 49 48 48 48 49 49 49 49 48 48 46 48 48 48 48 49 52 55 58 58 57 55 57 60 60 61 61 61 64 66 69 69 70 70 63 64 66 67 72 72 73 79 76
79 87 87 85 87 82 76 76 78 84 90 88 88 85 84 94 99 108 109 106 99 88 81 76 75 73 70 78 82 82 87 91 91 90 90 82 82 82 79 81 81 72 57 52 51 51 52 54 55 58 55 57 60 60 57 55 52 54 54 58 58 55 52 51 52 58 60 58 60 66 73 79 81 84 87 87 87 82 79 78 81 82 82 87 84 79 78 84 87 94 94 93 90 81 73 67 69 70 73 72 67 67 69 72 75 78 75 76 79 76 76 82 81 81 78 76 73 72 75 70 73 73 67 64 64 67 67 67 66 67 64 64 66 64 61 60 61 61 60 60 61 61 61 60 57 57 57 58 60 61 61 58 52 49 48 46 46 46 48 46 46 46 46 46 46 45 45 46 46 48 48 49 51 52 52 52 54 52 51 49 49 51 51 51 51 52 52 52 51 49 48 48 49 51 49 48 45 46 46 48 48 48 46 46 48 49 49 49 48 48 48 48 49 48 48 48 46 46 48 48 48 48 51 52 58 60 60 55 54 55 60 60 57 57 57 60 60 61 63 69 67 61 61 66 69 67 70 75 75 73
66 75 84 87 85 84 81 81 81 82 85 85 87 82 79 81 81 88 99 103 105 105 96 88 87 87 87 85 90 91 96 99 103 103 91 82 81 78 78 78 76 63 57 52 51 57 58 55 55 55 54 55 57 60 58 58 58 55 55 55 55 54 52 51 52 60 61 61 63 67 78 79 78 82 87 82 84 82 78 78 84 82 81 78 76 76 79 84 85 87 85 90 87 78 70 76 76 82 88 78 76 75 67 67 73 75 76 78 79 78 76 81 84 84 79 75 75 79 79 76 76 78 73 69 69 70 72 72 70 66 64 64 61 60 61 61 60 60 61 66 61 60 57 55 55 57 60 61 61 61 60 51 49 46 45 43 45 46 46 46 48 48 48 46 45 45 46 48 49 49 49 51 54 58 57 58 60 52 51 49 49 51 51 51 52 58 58 52 51 49 49 48 49 49 49 46 45 46 48 48 48 46 46 48 49 49 51 49 48 48 48 48 49 48 48 46 46 46 48 48 48 49 51 54 55 57 55 54 52 54 57 58 57 55 54 55 55 55 57 60 61 60 61 67 72 72 76 79 75 70
63 63 73 81 84 88 85 84 87 84 82 82 85 84 85 85 81 84 88 88 93 94 91 93 97 102 108 108 112 118 117 115 120 117 106 99 94 90 84 82 76 63 57 52 51 54 58 58 55 54 54 55 58 60 55 55 58 58 54 52 52 52 52 51 52 57 60 61 64 70 79 76 79 84 81 79 84 79 78 87 90 85 82 78 70 73 81 90 90 87 85 87 88 79 75 76 76 79 88 81 91 90 76 75 79 76 75 75 75 75 75 73 76 79 76 73 73 78 79 78 78 78 75 73 70 70 69 72 72 69 69 64 60 60 60 60 61 64 66 63 60 57 54 54 55 61 61 61 60 55 51 48 45 42 42 42 42 45 46 48 49 49 48 46 43 45 46 49 51 49 49 51 58 58 57 60 60 52 49 48 49 51 51 51 57 58 54 52 51 51 49 48 49 49 48 46 46 48 48 46 46 46 46 48 49 49 49 49 48 48 48 48 49 49 48 46 46 46 48 48 49 49 51 54 55 55 55 54 52 52 57 60 60 57 55 55 55 54 54 55 55 58 60 61 66 72 79 79 73 64
63 63 64 73 82 88 87 90 91 88 88 85 88 93 96 96 97 97 91 90 90 88 87 88 91 97 103 106 114 118 118 120 124 127 132 133 136 138 138 127 102 67 60 52 51 54 57 58 55 54 52 55 58 55 54 52 54 55 52 51 51 51 51 51 52 55 61 63 67 76 81 78 82 87 78 82 84 79 79 90 87 84 82 75 70 76 84 91 93 88 85 84 84 79 78 78 76 79 81 84 91 90 81 84 90 84 78 75 75 76 76 73 73 73 73 70 67 72 72 73 75 76 73 69 64 64 66 66 64 64 69 61 57 57 57 61 64 64 60 60 58 54 52 54 58 61 61 58 54 51 48 45 42 42 43 43 43 45 46 48 49 49 48 46 43 45 48 49 51 51 51 51 54 57 58 60 58 51 48 48 51 51 51 51 54 55 54 51 51 51 49 48 48 48 48 46 46 48 48 46 45 45 46 46 48 49 49 48 48 46 48 49 51 49 48 46 46 48 48 49 49 49 52 54 55 57 58 58 54 54 58 61 61 60 57 60 60 58 55 55 58 58 57 60 60 61 70 78 75 69
64 66 66 66 76 87 87 88 91 90 87 88 97 103 103 102 103 103 103 103 100 94 90 90 88 94 100 102 105 109 111 114 117 120 124 130 138 138 136 132 103 64 58 54 52 54 55 55 55 54 54 54 58 57 52 51 52 54 51 51 49 49 51 52 54 57 60 61 69 78 79 81 90 82 76 81 81 78 82 84 87 82 79 75 75 79 84 93 90 88 82 79 81 76 76 78 81 81 81 82 82 90 82 87 90 85 82 81 78 76 81 85 78 76 78 78 72 67 67 73 73 73 70 67 64 64 69 64 61 61 61 61 57 57 61 64 64 61 58 57 55 54 54 58 58 57 57 54 51 48 46 43 43 45 46 46 45 46 48 48 49 48 48 46 46 46 48 49 51 49 51 51 54 57 61 58 54 49 48 49 51 52 51 51 54 58 52 51 51 51 49 48 46 48 46 46 46 48 48 45 43 45 46 46 46 48 48 48 48 48 48 49 52 52 49 48 46 46 48 48 48 49 51 58 58 57 58 58 54 54 58 60 63 61 61 64 64 61 58 58 61 60 60 60 58 60 61 64 66 70
70 69 67 66 73 82 84 81 81 82 81 79 85 91 94 94 94 100 106 111 111 102 100 102 103 102 100 97 100 105 108 111 108 108 112 114 112 112 117 108 79 61 57 54 52 54 54 52 54 55 58 52 51 51 51 52 52 52 51 49 49 49 52 54 57 57 61 63 72 75 73 81 90 78 73 75 73 76 85 82 87 84 79 75 73 75 78 79 79 81 78 76 78 75 75 76 79 79 81 82 90 90 82 84 84 90 81 78 76 76 81 88 79 82 84 84 75 70 73 78 75 75 79 75 73 70 64 66 61 60 57 57 60 61 64 61 61 60 58 57 55 54 55 58 55 54 57 51 49 46 46 45 45 46 48 48 48 48 48 48 48 48 48 48 48 48 49 51 51 49 51 51 55 60 61 60 52 49 48 49 51 52 52 52 54 58 52 51 51 49 48 48 48 48 49 49 49 49 48 46 48 48 48 48 46 48 48 49 48 48 49 51 54 52 51 48 46 46 48 49 48 48 49 52 58 57 57 55 54 55 57 60 66 63 61 63 63 61 60 58 61 60 60 61 57 60 61 63 61 60
72 72 72 72 70 75 76 76 78 81 79 76 78 81 82 81 87 91 93 93 94 94 94 96 103 103 96 99 102 100 106 105 103 103 108 109 109 117 111 94 72 60 57 54 55 54 52 52 52 58 58 52 49 49 51 52 52 52 51 51 51 51 54 55 57 60 61 63 70 73 73 81 85 75 72 73 72 78 82 85 87 79 75 72 72 73 73 73 70 75 70 73 75 75 75 82 87 82 79 82 96 91 91 91 93 90 84 79 81 79 88 88 81 82 82 78 75 75 75 78 75 78 79 76 76 63 60 63 60 57 57 58 61 61 63 60 60 60 60 60 57 55 55 55 52 51 51 49 48 46 45 45 46 48 48 48 48 49 49 49 48 48 49 49 49 51 51 52 51 51 52 54 57 60 61 55 51 49 48 49 51 51 51 52 58 58 52 51 51 51 51 51 51 52 52 57 51 49 49 49 51 57 51 49 48 48 48 48 48 49 52 54 55 54 52 49 46 46 48 48 48 46 48 51 54 55 58 58 55 55 55 60 63 70 67 66 64 64 61 60 61 61 61 63 61 61 63 64 61 57
72 72 72 72 67 70 72 73 78 79 76 73 75 78 76 76 76 78 79 82 85 87 82 84 85 85 88 91 90 88 90 91 88 85 87 87 90 87 82 76 63 57 57 58 58 54 52 52 52 54 52 51 49 49 52 52 52 52 52 52 52 54 55 60 60 60 61 61 66 72 73 78 75 67 70 72 73 82 82 82 79 73 70 69 70 72 75 70 66 67 66 72 73 72 76 87 90 90 82 84 96 79 90 90 93 91 84 81 82 81 91 91 81 84 79 73 73 73 73 78 75 70 67 72 67 60 57 61 58 55 58 58 57 60 60 60 60 61 61 60 58 55 54 52 51 51 49 48 46 45 42 43 46 48 48 48 48 49 49 49 49 49 49 49 49 51 52 52 52 52 55 60 60 57 57 54 52 49 49 49 51 51 51 52 54 54 52 52 54 57 57 60 60 58 60 58 54 52 51 52 54 57 52 51 49 49 48 48 49 52 58 61 58 54 51 49 48 46 48 48 46 46 46 49 51 54 58 58 54 54 54 57 60 72 73 70 66 64 63 63 63 61 64 67 64 61 64 66 60 57
72 72 72 69 67 72 72 72 75 75 75 73 75 76 73 73 75 70 70 78 84 84 79 81 79 79 84 81 78 76 78 78 78 75 73 75 75 73 70 67 61 57 54 58 54 54 52 52 52 54 52 51 49 51 52 54 54 52 52 54 54 55 58 60 60 60 60 61 66 67 70 76 73 70 67 70 76 82 82 82 78 70 69 72 73 72 75 70 69 66 66 69 69 72 75 79 81 90 79 87 87 79 84 81 90 84 81 79 82 76 81 90 81 84 81 73 70 72 75 78 75 70 70 64 60 58 57 58 57 58 60 58 58 57 60 61 63 61 60 58 58 54 52 51 49 49 49 48 45 43 42 43 45 48 48 48 48 48 49 49 49 49 49 49 49 52 52 52 52 54 60 61 61 60 54 52 57 51 49 49 51 49 49 51 57 55 55 57 60 61 61 61 61 60 57 55 54 52 52 54 54 52 52 51 51 51 49 49 51 54 61 61 60 52 51 49 48 46 46 45 45 45 46 48 49 51 51 52 54 54 52 52 57 66 73 70 66 64 66 69 64 61 64 70 66 61 66 66 60 57
73 73 73 72 69 69 67 67 67 72 75 75 75 73 70 70 75 75 75 76 81 76 73 72 72 73 75 73 67 67 72 72 72 72 72 72 73 75 73 69 60 55 52 52 52 52 52 52 52 52 51 51 49 51 52 55 55 54 52 52 52 54 55 58 60 58 57 61 67 66 69 73 75 75 72 67 79 81 79 78 75 70 69 73 73 72 72 70 69 66 66 66 67 67 70 73 76 79 67 78 79 87 84 78 78 76 78 79 78 70 76 84 87 81 76 76 72 67 76 78 78 69 69 60 55 55 58 60 57 57 60 57 57 61 64 61 61 60 57 54 52 51 49 48 48 48 48 48 46 45 43 43 45 48 48 48 48 48 49 49 49 48 49 51 51 52 52 51 52 54 57 60 60 58 54 52 57 52 51 51 51 49 49 51 55 57 60 64 75 75 61 60 61 60 55 54 54 54 54 54 54 52 51 51 52 54 52 52 54 58 58 57 54 51 49 49 49 48 46 43 43 43 45 46 48 49 49 49 51 51 51 51 55 63 75 72 72 72 67 69 66 64 66 70 69 66 69 66 61 57
72 73 72 69 69 69 64 67 69 72 75 75 73 72 72 70 73 76 76 76 79 72 66 66 66 66 67 72 72 67 69 69 70 70 72 73 73 75 75 70 60 55 52 51 52 51 52 51 51 51 51 51 51 51 52 55 58 55 54 52 51 52 54 55 60 57 57 61 66 63 66 67 70 73 70 73 79 76 76 70 69 69 69 72 70 70 69 70 70 66 66 64 64 66 67 72 76 73 67 73 78 87 81 78 78 76 76 78 73 70 75 78 84 76 73 76 73 67 73 76 67 64 61 57 54 55 60 61 60 58 60 60 61 66 64 60 57 58 55 52 51 49 48 48 48 48 49 49 48 48 46 45 46 48 49 48 48 48 49 49 49 49 49 51 52 52 52 51 52 58 58 58 58 58 54 52 52 52 51 51 51 49 51 54 60 63 66 70 70 64 60 60 61 60 57 55 55 55 55 55 55 52 51 51 52 60 60 55 58 57 55 54 52 49 49 49 49 48 46 42 42 42 42 45 46 48 48 48 49 51 51 49 52 61 76 76 75 75 75 73 69 67 67 70 72 69 66 66 61 60
73 72 69 69 64 64 64 69 73 75 75 70 70 72 72 73 73 76 75 75 78 70 66 69 67 66 66 69 70 67 66 70 70 67 72 73 72 75 73 70 61 55 52 51 52 52 52 51 51 51 52 51 51 51 52 54 55 58 54 52 51 51 52 55 55 55 57 61 66 63 70 72 70 73 73 75 76 75 73 70 69 72 67 72 72 75 69 66 64 63 66 64 64 64 67 73 76 67 70 76 78 87 81 79 81 76 76 75 67 72 75 75 79 73 67 76 72 67 72 69 63 61 60 57 55 57 61 61 60 57 60 61 66 61 60 57 55 54 54 52 51 49 48 46 48 49 49 49 49 49 48 46 46 48 49 49 49 49 49 51 51 51 51 52 52 52 51 51 52 58 58 58 58 58 54 54 54 54 54 52 52 52 54 61 67 70 66 64 61 61 60 60 60 60 60 58 60 60 57 60 58 58 52 51 52 55 58 55 58 58 54 52 49 48 49 49 49 46 45 42 40 40 40 43 45 46 46 46 48 49 49 51 52 60 72 78 76 76 82 79 73 72 75 78 82 72 61 61 57 57
73 69 66 64 63 64 66 69 76 72 72 67 67 69 72 73 72 69 67 67 75 73 69 70 70 67 67 69 67 67 66 66 66 66 69 67 67 72 69 64 60 55 51 51 52 52 52 52 51 52 52 52 51 51 51 52 54 54 54 52 52 52 54 58 55 54 55 61 67 64 70 72 72 72 67 72 73 67 69 69 72 70 67 73 75 72 66 64 61 61 64 61 61 61 64 76 79 73 78 78 78 84 81 81 81 76 76 73 67 73 76 76 76 66 70 76 66 63 69 67 61 57 60 57 60 61 60 57 57 60 61 61 57 57 55 55 52 52 54 52 51 48 46 46 48 49 49 49 49 49 48 46 46 48 49 51 49 49 51 51 51 51 52 52 54 52 51 51 51 54 55 55 54 55 55 55 58 55 58 58 54 55 60 67 70 66 63 61 60 60 61 63 61 61 60 60 58 57 57 60 58 58 54 52 52 54 54 54 54 54 54 51 49 46 46 48 48 46 45 42 40 39 40 43 43 45 45 43 46 48 49 51 52 57 66 81 78 79 81 84 79 76 81 85 90 72 60 55 54 58
73 70 66 64 63 66 66 72 76 67 67 66 67 69 69 69 67 67 66 66 72 72 69 67 72 69 67 72 69 69 69 66 66 66 66 67 67 69 67 63 60 54 51 52 52 55 54 54 54 54 55 54 52 51 51 51 52 52 54 54 54 55 55 58 55 54 57 61 67 64 69 69 69 69 64 69 70 67 70 69 67 66 64 70 73 67 61 66 63 61 63 61 61 60 64 79 79 75 78 78 76 84 81 84 79 76 76 75 66 67 75 73 67 66 72 69 61 61 64 61 57 57 57 57 61 61 58 55 57 61 61 60 55 54 55 55 52 52 52 52 51 48 46 46 48 49 49 48 48 48 48 46 46 49 51 51 51 51 51 51 52 52 52 52 54 52 51 51 52 54 52 51 51 52 54 58 58 55 54 58 55 60 66 67 63 61 61 61 60 61 63 63 61 60 60 57 57 55 55 57 58 57 55 54 54 54 54 52 52 51 51 49 46 43 45 46 46 46 45 42 40 39 40 42 42 43 43 43 45 46 49 51 51 54 61 81 81 78 82 90 90 81 85 91 91 70 57 52 52 58
75 75 72 66 64 64 66 67 72 67 69 66 66 70 72 66 69 69 66 66 67 67 66 67 69 70 67 73 72 69 69 67 70 69 67 72 69 72 72 64 60 55 54 54 55 55 58 58 55 55 55 54 52 51 51 51 52 52 54 54 55 60 57 57 58 57 57 61 67 64 69 66 69 66 64 66 67 67 70 69 69 63 61 66 69 66 61 66 63 61 61 60 60 60 63 75 73 72 75 70 76 82 81 84 79 73 75 72 67 66 72 67 66 72 72 64 61 61 60 58 58 60 60 58 58 58 57 55 57 57 58 54 52 54 58 60 52 51 51 49 49 48 46 48 48 49 48 48 46 46 46 46 46 49 51 51 52 51 51 51 51 52 52 52 52 51 51 51 52 52 51 49 49 51 52 55 55 54 54 55 58 61 64 61 60 61 61 63 64 61 60 60 57 58 57 57 55 55 55 55 57 57 58 58 57 55 55 54 52 51 48 46 45 42 42 45 46 46 46 43 42 39 40 42 42 43 45 43 45 46 49 49 49 51 57 76 78 75 78 84 84 81 85 91 90 63 57 52 54 57
73 73 73 67 67 69 69 66 69 72 73 69 66 69 70 66 69 69 67 66 69 67 66 69 69 67 67 72 73 70 67 67 72 67 72 72 72 70 67 61 57 57 58 58 57 58 58 58 54 54 54 52 52 51 52 52 52 54 55 55 57 60 55 55 58 58 60 61 63 64 64 61 61 61 61 66 66 69 70 64 66 63 61 64 69 66 61 61 60 60 60 57 57 57 61 69 67 69 70 64 72 75 75 78 73 67 72 72 67 70 70 67 69 70 70 63 61 61 57 57 58 58 60 58 57 58 57 60 60 54 52 52 51 52 60 60 52 49 49 49 48 48 48 48 48 49 48 46 46 46 46 46 46 49 51 51 51 49 51 51 52 52 52 52 52 51 49 51 52 52 51 49 48 49 52 54 55 54 55 60 60 60 60 57 57 61 66 67 64 60 58 58 57 57 57 58 60 57 57 57 58 57 58 57 57 57 58 58 52 49 46 43 43 42 40 43 46 48 48 45 43 42 42 43 43 45 45 45 45 46 48 49 48 48 54 63 72 72 70 75 78 78 84 88 79 63 57 55 57 60
72 70 69 69 69 69 66 66 73 75 75 70 66 66 67 67 67 69 69 69 69 69 70 70 69 67 67 73 79 73 70 69 72 69 69 69 64 61 60 60 57 58 58 55 55 58 58 54 52 52 52 52 52 52 51 52 52 54 58 58 58 55 54 55 58 60 61 61 61 63 63 60 60 60 64 70 67 69 69 63 63 61 61 67 69 66 64 61 60 60 55 54 54 57 61 66 63 64 64 64 69 69 72 72 66 66 70 64 66 70 69 63 64 64 63 61 60 57 57 57 57 57 60 57 57 58 57 58 54 52 52 52 52 52 54 52 51 48 48 48 48 48 48 48 48 48 48 46 45 45 45 45 46 48 49 49 48 48 49 51 52 52 52 51 49 48 48 49 51 52 51 49 49 49 51 54 55 57 57 60 60 60 60 60 61 64 67 63 60 58 57 58 60 57 58 58 57 60 60 60 61 60 60 60 57 57 58 52 49 46 43 42 42 42 40 42 46 48 48 46 45 43 43 45 45 46 46 45 45 46 48 48 48 48 51 61 64 69 66 67 69 72 76 76 76 66 60 58 60 60
67 72 69 69 69 67 66 70 81 79 78 75 67 70 70 67 67 73 70 67 67 69 67 69 67 67 72 76 79 76 72 72 69 72 69 64 60 57 57 57 60 60 57 55 54 55 54 51 49 51 51 52 52 51 51 51 51 54 58 57 57 55 54 55 60 58 60 61 61 63 63 61 61 61 66 70 69 69 69 61 61 61 63 67 63 61 61 60 57 58 52 51 52 57 64 67 63 61 61 61 64 63 66 66 61 63 67 61 61 70 66 61 64 63 60 60 57 55 55 58 60 60 60 57 58 55 55 54 54 55 58 57 54 51 51 51 49 48 46 46 46 46 46 46 48 46 46 45 45 45 43 43 43 46 46 46 46 46 48 49 51 51 51 51 48 48 48 49 51 51 49 49 49 51 52 55 60 60 60 58 58 60 61 63 66 64 61 60 58 57 57 60 61 57 57 60 61 64 64 61 61 61 61 60 58 58 52 49 46 43 42 42 42 42 40 42 45 46 48 48 46 45 45 45 46 46 46 45 43 43 46 48 48 49 51 58 61 61 61 63 61 63 67 70 72 64 60 61 61 61
67 72 72 69 69 69 67 76 90 90 85 82 81 81 78 78 78 79 78 70 72 70 67 70 67 67 75 76 78 76 70 70 70 69 69 61 57 54 55 60 60 60 55 54 52 52 52 51 51 52 52 52 52 51 51 49 51 52 54 57 57 58 55 55 55 57 60 61 61 60 61 63 61 61 63 66 69 69 64 61 61 66 64 63 61 60 60 58 57 54 51 51 52 57 63 67 64 61 60 57 60 60 61 66 61 63 66 60 63 69 64 61 64 61 57 55 54 54 55 57 60 60 60 57 55 54 54 55 55 60 60 60 58 51 49 49 48 46 46 48 48 46 46 45 46 46 46 45 43 43 43 43 42 45 45 45 43 46 48 49 51 51 51 49 46 46 48 49 49 49 48 48 51 52 55 58 61 61 60 58 60 60 64 66 64 61 60 60 60 58 57 61 61 61 61 61 63 64 63 61 60 61 61 57 57 52 49 46 42 39 40 42 43 42 40 40 43 45 46 46 46 46 46 46 46 46 45 43 42 43 46 48 48 49 51 55 60 61 61 61 63 63 64 69 69 64 60 61 60 60
67 69 70 70 64 64 75 90 102 103 96 91 96 102 93 90 93 94 88 81 84 81 78 79 81 79 78 79 79 79 78 76 75 70 66 60 55 52 54 55 57 58 58 52 52 51 51 52 54 58 58 54 52 51 51 51 51 52 54 58 58 58 55 54 54 55 57 60 60 58 57 60 61 61 63 64 66 64 64 61 61 66 66 64 61 61 60 57 54 52 52 51 54 60 61 63 61 60 60 57 60 60 60 61 60 61 61 60 63 64 63 60 61 60 55 54 54 54 54 55 57 57 57 58 55 54 55 60 60 60 60 58 54 51 49 48 46 46 46 48 48 46 45 45 46 48 46 45 43 43 43 43 43 43 45 45 45 45 48 49 51 51 49 48 46 46 48 48 48 48 48 48 51 58 57 60 61 61 57 60 61 61 64 66 61 64 63 61 60 60 60 61 61 61 61 61 61 63 60 60 57 60 60 58 52 49 46 43 40 39 40 42 42 42 40 40 42 42 45 46 46 48 48 48 46 45 42 40 40 45 46 48 48 49 49 52 57 60 61 63 67 66 67 70 76 66 61 63 61 60
67 69 66 66 67 67 84 103 106 102 94 94 100 102 97 90 94 94 90 88 90 90 85 94 102 96 93 99 102 93 90 93 87 81 72 60 57 52 54 54 54 52 52 51 51 51 52 54 58 60 60 55 54 52 54 54 54 54 54 57 57 55 54 54 54 55 55 58 60 55 55 57 63 64 63 63 63 64 63 61 61 61 63 63 61 57 58 55 54 54 54 54 55 60 61 61 60 57 58 60 60 57 60 60 60 61 61 57 61 63 61 60 60 58 54 52 54 54 52 52 54 54 57 58 57 57 60 61 60 57 55 52 51 51 49 48 46 46 46 46 46 46 45 46 48 48 48 46 45 45 46 45 45 45 46 45 45 46 48 51 51 51 48 46 45 45 46 46 46 46 46 48 51 58 55 55 60 58 58 60 61 61 63 66 63 63 63 63 61 61 63 61 61 57 57 57 60 60 60 60 57 58 60 52 49 48 46 45 42 39 40 42 42 42 40 39 39 39 43 43 46 48 48 49 46 45 42 40 42 46 48 48 48 48 49 51 55 61 63 64 69 69 70 73 81 69 61 63 63 60
67 70 66 67 72 81 102 111 109 111 108 102 103 100 93 90 94 91 90 85 85 88 91 96 102 100 99 108 108 106 97 97 96 88 76 61 60 55 54 54 52 51 51 51 52 52 52 58 60 58 57 55 58 58 55 58 58 55 55 58 58 58 54 54 58 55 54 55 58 60 54 54 60 61 64 63 61 61 61 60 57 61 61 61 60 58 57 55 55 57 58 57 60 60 60 61 60 57 58 60 60 60 61 61 60 60 60 57 61 61 61 60 60 55 52 52 54 54 52 52 52 54 55 57 57 61 61 61 57 54 51 51 51 51 51 48 46 46 46 46 46 46 46 46 48 48 48 46 45 46 46 46 45 46 46 46 46 46 49 51 51 51 48 45 43 43 45 45 46 46 46 49 51 54 55 54 55 55 57 61 61 60 61 64 61 61 61 66 66 66 61 60 57 55 54 54 55 58 60 60 54 51 51 49 46 45 46 46 45 42 40 42 42 42 40 40 39 37 40 43 46 48 48 48 46 45 43 43 45 46 48 48 46 46 48 48 52 61 67 66 67 72 75 79 81 69 60 61 61 60
67 72 72 70 78 94 109 111 112 114 114 105 102 103 103 102 99 96 93 88 85 93 94 97 97 97 100 105 108 102 93 97 93 88 78 61 60 57 58 58 52 51 51 51 52 52 54 55 58 60 55 55 58 58 58 57 58 57 58 58 57 55 54 54 55 58 54 55 58 55 54 54 57 57 61 60 61 60 60 58 57 61 64 63 60 58 60 58 60 60 58 58 60 60 57 60 60 60 60 58 58 58 60 60 60 60 60 60 61 60 58 57 55 54 51 52 54 58 52 54 52 54 57 60 61 61 60 60 54 52 51 51 51 51 51 49 48 46 46 46 45 45 46 46 48 48 46 46 46 48 48 46 45 45 46 45 46 48 49 51 51 51 48 45 43 42 43 45 46 46 46 49 52 60 54 52 52 54 57 61 61 57 60 61 61 61 61 64 64 61 60 57 54 54 54 54 54 52 54 51 49 48 46 45 45 45 46 46 45 42 40 40 42 42 42 42 40 37 39 43 46 48 48 48 48 46 46 45 46 46 46 46 46 46 46 46 51 60 66 67 67 73 75 79 79 69 61 57 57 60
67 72 70 70 84 102 108 112 112 114 114 114 111 115 115 108 106 109 105 100 100 100 99 97 97 100 108 114 109 102 94 94 94 90 75 61 60 57 58 54 52 52 51 52 52 52 54 55 57 58 55 54 57 57 57 57 55 55 57 57 57 55 55 55 55 58 54 54 58 55 55 58 58 60 60 60 60 60 58 58 60 66 66 61 60 58 60 58 60 57 57 60 60 57 57 57 58 60 60 57 57 57 58 58 57 57 58 57 60 57 57 55 54 52 52 52 54 58 55 55 55 57 60 63 61 61 57 54 51 51 51 51 51 51 51 49 49 48 46 46 46 46 46 48 48 48 46 45 46 48 48 48 46 45 46 45 46 48 49 51 51 49 48 45 43 42 42 45 46 48 48 51 60 58 54 52 52 55 57 60 60 57 57 60 61 60 60 61 61 60 58 55 54 54 58 58 51 49 49 48 46 45 43 42 43 46 48 46 46 42 39 40 40 42 43 43 42 39 39 43 48 49 49 49 49 48 46 46 46 46 46 46 46 46 46 46 49 55 67 72 72 73 75 75 76 73 67 61 60 61
73 72 70 78 96 106 112 111 112 115 117 118 121 121 118 109 115 117 108 108 109 111 106 103 102 103 115 118 115 108 102 100 93 84 73 61 60 54 52 52 52 54 52 51 51 51 54 58 55 55 54 54 57 60 60 55 54 54 55 58 58 55 55 54 54 54 52 52 54 55 60 60 61 61 61 60 61 61 57 57 57 64 66 61 57 58 58 57 57 57 57 61 61 57 55 58 58 60 58 57 58 58 55 58 55 55 55 57 60 57 55 52 54 54 54 54 54 54 55 58 58 60 61 63 60 57 55 52 51 52 52 52 51 51 51 49 49 49 48 46 46 48 48 48 48 48 46 46 46 46 48 46 46 45 45 45 46 46 48 49 49 49 48 45 43 42 43 46 46 48 49 51 52 54 54 54 55 58 58 58 60 60 60 60 60 60 60 61 61 58 60 55 54 54 52 51 48 46 45 42 42 40 40 40 43 46 48 46 45 42 39 39 39 42 43 43 42 37 37 42 46 49 49 49 49 48 48 46 45 43 43 45 46 46 46 46 48 54 69 78 76 75 75 75 78 79 76 75 64 60
72 73 73 91 111 115 118 117 115 120 121 120 118 118 115 109 115 117 111 111 115 115 112 109 108 106 118 117 118 118 109 106 96 84 76 61 55 51 49 51 52 54 52 52 51 52 52 58 55 54 54 54 55 60 60 55 52 52 54 57 57 55 55 54 54 54 52 52 54 55 55 57 60 61 61 60 61 61 60 57 60 61 61 60 57 57 58 58 55 58 60 61 61 57 58 58 58 55 54 54 57 54 54 58 54 54 55 58 58 55 55 54 55 55 58 54 54 54 55 57 60 61 61 60 57 55 54 52 52 54 58 52 51 51 51 51 49 49 48 48 48 49 49 49 49 48 48 46 46 46 46 46 45 43 45 45 46 46 46 48 48 48 46 45 43 43 45 46 46 48 49 51 52 52 54 58 58 57 57 57 60 61 61 63 60 60 60 61 61 60 58 55 54 51 49 46 45 42 40 37 39 39 39 40 43 46 46 46 45 42 39 37 37 40 40 40 40 37 37 39 45 48 48 48 48 48 46 46 43 42 43 45 46 46 46 46 48 52 63 78 78 75 75 78 82 82 88 88 75 61
70 70 81 105 118 121 121 120 118 121 121 117 109 111 111 112 115 115 109 114 117 115 112 114 112 111 115 114 115 117 105 100 96 91 79 61 54 51 51 51 52 52 52 52 52 52 54 54 55 55 54 52 52 55 58 55 52 51 52 58 58 58 54 54 55 54 52 51 52 54 54 54 55 60 61 60 61 61 57 57 60 61 60 60 58 58 58 55 55 60 61 61 60 58 57 57 55 55 52 52 51 52 52 52 54 55 58 58 57 55 55 55 57 58 58 54 52 52 55 60 61 60 57 55 54 54 54 55 54 55 58 52 51 51 52 51 51 49 48 48 49 51 51 49 49 48 48 49 49 48 46 46 45 45 45 45 46 46 46 46 46 48 46 45 43 45 46 46 46 48 49 51 51 52 55 58 58 57 57 57 57 61 66 66 60 57 57 60 61 60 57 58 51 48 45 42 40 39 40 39 39 39 39 40 43 45 45 45 43 42 39 37 37 39 40 39 39 36 36 37 42 46 48 48 46 46 46 45 43 40 42 45 46 46 46 46 48 52 60 72 78 78 75 81 88 85 88 88 79 61
75 78 94 109 118 121 120 120 120 120 118 114 109 114 115 115 115 112 109 117 117 115 106 108 114 115 112 112 115 108 102 102 105 94 69 60 54 51 51 52 52 51 51 52 54 54 54 54 58 58 54 52 51 54 58 58 52 51 51 52 52 54 54 55 58 58 52 51 52 52 54 54 55 57 61 60 61 60 57 58 60 61 61 61 60 58 55 54 54 57 60 61 61 60 58 57 55 58 54 51 51 51 51 52 54 55 58 58 54 54 55 60 60 60 57 55 54 54 58 61 58 55 54 52 52 52 54 58 58 55 57 51 51 51 52 51 49 49 49 49 51 51 51 49 49 48 49 51 51 49 48 46 46 46 46 46 46 46 46 46 46 48 46 45 45 45 46 46 48 49 51 51 51 52 55 57 57 57 58 60 61 61 61 61 60 55 55 57 61 60 58 51 48 45 40 39 39 39 40 40 40 40 39 42 43 43 43 43 43 42 39 39 39 40 40 40 40 39 37 36 39 45 46 46 46 46 46 45 43 42 43 45 45 45 45 46 48 51 60 67 76 76 78 82 88 82 85 88 84 70
81 87 103 108 114 118 120 120 121 121 121 118 117 117 117 115 115 112 108 112 115 115 108 111 121 124 124 120 112 106 105 108 105 87 61 57 52 52 51 52 52 51 51 51 52 54 52 52 52 55 57 52 51 52 54 54 52 51 51 51 52 54 54 55 55 55 52 51 51 52 52 52 54 58 61 61 61 60 58 57 61 61 61 61 60 58 54 52 52 57 60 61 61 60 60 57 58 58 58 54 52 51 52 52 54 55 55 54 52 51 54 58 58 58 58 55 55 55 55 55 55 54 52 52 52 54 55 58 55 54 51 51 51 51 51 49 49 49 49 49 51 51 49 49 48 48 49 51 51 51 49 48 46 46 48 48 46 46 46 46 46 46 46 46 46 46 46 48 49 51 51 51 51 52 54 58 58 58 57 60 61 60 57 58 58 55 55 55 58 54 51 48 46 42 39 39 39 40 42 42 40 40 40 40 42 42 42 43 43 42 40 40 40 42 42 40 40 40 39 37 36 43 46 48 46 46 46 46 43 42 43 45 43 43 45 46 48 51 57 66 73 76 81 87 84 79 85 88 88 79
84 96 106 108 112 114 114 115 117 121 121 118 117 115 112 114 115 111 106 109 111 115 111 115 123 124 124 118 108 99 99 108 105 78 60 54 52 52 52 52 51 51 51 51 52 54 54 54 54 55 52 52 51 51 52 52 52 51 52 51 52 54 58 57 57 58 54 51 51 51 51 51 54 60 61 60 60 60 60 57 60 61 60 58 60 54 52 52 54 57 58 60 60 58 60 57 57 58 58 58 52 51 52 52 55 55 55 52 51 52 54 55 58 58 58 57 55 55 55 55 54 54 54 52 52 54 58 57 54 51 49 49 51 51 51 49 49 48 49 51 51 49 49 48 48 49 49 49 51 51 49 48 46 48 48 48 46 46 46 46 46 46 46 45 45 45 46 49 51 57 52 51 52 52 54 58 60 60 58 58 60 60 57 55 55 58 57 55 52 49 48 46 45 42 40 39 40 40 40 42 42 40 40 40 42 42 43 43 43 43 40 42 42 43 43 42 42 40 40 37 34 42 48 49 48 46 46 45 45 43 43 43 42 43 45 46 49 51 57 64 76 78 82 88 84 79 87 94 93 78
96 105 109 109 111 112 111 115 114 114 115 111 109 109 108 115 115 111 105 106 109 112 112 115 117 114 115 111 108 103 105 108 94 63 57 52 52 52 54 52 51 51 49 51 52 55 57 58 58 54 52 51 51 51 51 51 51 51 52 52 55 55 58 57 58 58 58 52 51 51 51 51 54 57 58 58 57 60 57 58 60 60 57 55 52 51 51 52 55 58 58 60 57 57 55 58 55 55 55 54 52 51 51 52 55 58 54 52 52 54 58 57 58 58 58 58 55 55 58 58 54 54 52 54 55 58 57 58 52 51 49 49 51 51 51 51 49 49 49 49 49 49 49 48 48 49 49 49 49 49 49 48 46 48 48 48 46 45 46 46 46 46 46 45 43 45 46 49 51 57 52 52 52 52 52 54 55 58 57 58 57 60 60 55 57 60 60 60 49 48 46 46 46 45 42 42 42 42 40 40 42 40 39 40 42 43 45 43 43 42 40 42 45 45 45 42 40 39 39 36 34 42 48 51 49 48 46 45 45 45 43 42 42 42 45 46 48 49 54 61 81 81 82 90 88 82 87 94 94 78
105 105 109 109 111 109 108 114 111 106 106 106 105 106 109 114 114 108 103 108 114 115 111 112 114 106 106 103 100 99 99 93 72 60 55 52 52 52 54 54 52 51 51 52 58 60 60 60 60 55 52 51 49 51 51 51 51 51 52 58 58 57 57 60 58 57 55 54 54 54 52 52 54 58 58 57 58 58 57 58 58 57 60 54 51 51 51 52 55 58 60 60 57 55 55 54 54 52 54 54 54 52 52 54 58 58 55 52 54 58 60 57 57 58 57 55 55 55 58 55 54 52 52 54 58 57 55 54 51 49 49 51 51 51 51 51 51 51 49 49 49 49 48 48 48 49 49 49 49 48 48 46 46 48 48 48 46 45 45 45 46 46 45 43 42 43 46 49 51 52 54 55 55 55 52 52 54 55 55 55 55 58 58 60 60 58 58 51 48 46 46 46 46 45 45 43 42 42 40 40 42 40 39 40 43 45 45 43 42 40 40 43 46 48 46 43 40 40 40 37 34 40 48 51 51 49 46 45 45 43 43 43 42 40 45 46 48 48 51 60 70 75 79 88 90 88 88 90 90 78
102 103 109 108 106 103 103 111 109 106 105 105 106 108 106 106 105 100 96 100 112 114 108 109 112 100 91 93 91 87 81 75 61 57 55 58 55 54 54 52 52 51 52 58 60 61 61 61 61 55 51 49 49 49 51 51 52 51 54 58 58 55 57 58 60 57 57 55 58 58 55 54 55 58 58 57 60 60 58 57 55 55 54 52 51 51 52 55 57 60 60 60 57 57 55 54 52 52 52 58 55 54 54 54 58 58 55 54 52 58 60 60 55 55 55 55 55 55 58 52 51 51 52 58 58 55 54 52 51 49 49 51 51 49 51 51 51 51 51 51 49 48 48 48 48 49 48 48 46 46 46 46 46 48 48 48 46 45 43 43 43 45 45 45 45 45 46 48 49 51 58 61 60 58 54 52 52 52 57 57 52 52 52 54 54 52 51 48 46 46 46 46 46 45 45 43 43 42 40 40 40 39 37 39 42 45 45 42 39 39 39 43 46 48 46 45 42 42 42 40 36 39 46 49 49 49 46 45 45 43 42 42 40 40 42 45 46 46 49 54 64 72 76 79 81 79 79 81 82 76
96 97 96 94 91 91 90 91 94 96 94 91 93 91 88 88 90 91 84 82 91 96 93 93 96 87 81 79 81 76 66 61 57 55 54 55 58 58 52 52 51 52 54 61 61 61 61 63 63 57 52 51 51 49 49 51 52 52 52 54 54 55 57 58 58 60 58 57 58 58 58 55 54 55 58 55 55 55 55 55 58 55 54 52 51 51 52 55 57 58 57 57 57 58 57 55 54 54 55 57 58 55 55 55 58 57 58 52 52 54 55 58 55 55 55 55 58 55 52 51 51 51 54 55 55 54 54 52 51 49 49 49 49 49 49 49 51 51 51 51 49 48 48 48 48 48 46 45 43 45 45 46 46 48 49 48 46 46 43 42 43 43 46 46 46 45 45 46 49 54 61 61 60 58 54 52 51 51 51 51 51 49 49 49 49 49 48 46 45 46 46 45 43 42 43 43 42 40 39 39 39 37 37 37 42 43 43 40 39 37 37 42 45 46 46 43 42 43 45 43 37 37 43 48 49 48 46 43 42 42 40 40 40 40 42 45 46 46 48 52 60 63 66 69 70 66 63 63 61 61
85 82 79 78 78 79 78 76 78 79 79 78 78 76 75 75 78 76 73 73 76 76 70 73 76 75 73 72 69 63 60 58 55 54 54 55 58 58 54 52 52 52 54 60 60 60 61 61 61 55 52 51 51 49 51 51 52 52 52 52 54 55 58 57 58 58 55 55 55 55 58 54 52 54 54 54 52 52 54 58 58 55 52 51 51 51 54 55 57 57 57 55 55 57 58 58 55 55 57 58 60 58 55 55 58 54 52 52 51 52 52 54 55 55 57 58 55 54 52 51 51 52 58 55 54 52 52 52 51 49 48 48 48 48 48 49 49 51 51 49 49 48 48 48 48 48 46 43 40 42 45 46 46 48 48 48 46 45 43 42 43 43 46 48 48 46 45 46 49 58 61 60 55 52 52 51 51 49 48 48 48 46 46 46 46 46 46 45 45 45 45 43 42 42 43 43 42 39 37 37 37 37 36 36 39 40 42 39 37 36 36 39 42 42 43 42 42 43 45 42 37 34 40 46 48 46 43 40 39 40 40 42 42 42 42 43 46 46 48 49 52 57 61 61 61 61 60 60 57 61
78 75 73 72 70 72 70 70 70 72 70 70 72 70 67 67 72 70 67 70 72 67 64 64 67 64 69 66 61 60 57 54 54 54 54 54 55 55 54 57 54 52 54 55 55 55 58 57 57 54 52 52 51 51 51 52 54 52 52 52 54 58 58 57 58 57 57 55 54 54 54 54 52 52 52 52 51 52 54 54 54 54 52 52 52 52 54 55 57 58 57 55 54 55 58 55 55 55 57 58 60 55 52 51 51 51 49 51 51 51 52 54 55 55 58 58 52 52 52 52 54 55 58 54 52 51 51 51 49 48 48 46 46 46 49 49 51 51 51 49 49 48 48 48 48 46 45 43 42 43 45 46 48 48 48 48 46 45 45 45 43 43 46 48 48 46 46 48 51 58 58 54 51 51 49 49 49 48 46 46 46 43 45 43 45 45 45 43 43 45 43 42 42 40 43 43 42 40 37 37 36 36 34 34 37 37 40 37 36 34 36 36 37 37 40 40 40 42 42 40 34 34 40 46 46 45 40 37 39 40 42 42 42 40 42 43 45 46 46 48 51 55 60 60 58 57 57 57 57 60
76 75 72 69 67 69 70 73 73 72 69 70 73 73 67 69 73 72 72 67 72 70 66 66 64 64 66 61 57 54 52 52 52 54 54 54 54 54 55 58 55 52 52 51 52 52 54 55 55 54 52 52 52 52 54 55 55 54 54 54 54 55 58 57 57 57 58 57 55 54 54 54 54 54 52 51 51 52 54 54 52 52 52 52 54 55 55 55 58 57 57 55 54 54 54 54 55 58 58 58 55 51 49 49 49 49 49 49 49 49 51 52 55 55 54 52 51 52 54 60 55 55 54 52 51 51 51 51 49 48 48 46 48 48 49 51 51 51 49 49 48 48 48 48 48 46 45 43 45 46 46 48 48 48 48 46 45 45 46 45 43 43 45 46 46 46 48 49 51 52 52 51 49 49 49 49 48 46 45 45 46 45 43 42 42 43 43 43 43 45 43 42 40 42 43 42 42 40 39 39 37 36 36 34 36 37 39 37 36 36 34 36 36 36 39 39 39 39 39 39 34 34 40 45 46 45 39 36 39 40 42 42 40 40 40 42 43 45 46 48 49 54 60 60 58 55 55 60 60 57
73 73 69 67 67 67 73 73 70 70 72 67 73 73 70 69 72 73 69 67 72 70 64 64 64 63 63 60 54 52 54 54 54 54 54 55 55 55 58 58 55 52 51 51 51 51 52 58 58 54 52 52 54 58 57 57 57 55 55 54 54 54 55 60 58 60 60 60 58 55 54 55 58 58 52 51 51 51 52 54 54 54 54 54 55 58 57 55 55 58 57 55 54 54 54 54 54 54 54 52 52 49 48 48 49 49 49 49 48 48 49 51 54 54 52 51 51 54 58 60 55 54 54 52 51 51 51 49 48 48 48 48 48 49 49 51 49 49 49 48 48 46 46 46 46 45 43 45 45 46 46 46 48 48 48 46 45 46 45 45 42 42 45 46 46 48 49 52 54 52 51 49 49 48 48 48 46 45 43 45 45 45 42 40 39 40 42 45 46 46 43 40 39 40 42 42 40 40 40 40 37 37 36 34 36 37 37 36 36 36 34 34 36 37 39 39 37 37 39 37 34 34 37 43 46 45 40 37 39 40 40 39 39 39 39 40 43 46 46 48 49 52 58 60 55 55 57 60 60 60
70 69 69 69 67 69 73 70 70 73 72 67 73 73 72 72 70 72 70 69 72 69 61 61 63 61 60 55 52 52 58 58 55 54 54 55 55 55 55 58 55 52 51 51 51 52 54 55 58 54 52 52 55 58 58 58 57 54 55 58 52 52 52 60 58 58 57 58 60 55 54 55 58 58 55 52 52 52 52 54 54 55 55 55 57 58 58 55 54 54 55 54 54 54 54 54 52 51 51 51 51 48 48 49 49 49 49 49 48 48 49 51 52 52 51 52 52 55 60 57 55 55 55 54 52 51 51 49 48 48 48 48 49 49 49 49 49 49 48 48 46 46 46 43 43 43 43 45 46 46 46 46 48 48 48 46 45 45 45 45 42 43 45 46 46 48 51 58 58 54 51 51 49 49 48 46 46 43 42 45 45 45 42 39 37 39 40 43 46 46 45 39 39 40 40 40 39 39 37 37 37 37 36 36 36 36 37 36 34 34 33 34 36 37 37 37 36 36 37 37 36 33 36 42 45 43 40 37 37 39 39 37 37 37 39 40 45 46 48 49 51 52 55 58 58 57 60 60 60 60
70 69 67 67 69 69 72 72 72 73 73 69 69 72 73 70 72 72 72 72 72 66 61 61 63 61 57 52 51 52 55 57 58 55 54 54 54 54 54 54 54 52 52 51 51 52 55 55 54 52 51 52 58 57 58 58 58 54 54 58 52 51 52 54 54 54 55 58 58 55 55 55 55 57 58 58 55 54 54 54 55 58 60 57 55 55 55 54 52 52 54 54 54 52 52 52 51 49 49 49 49 48 48 49 49 51 51 49 48 48 49 51 51 51 52 54 58 58 58 54 54 58 58 55 54 52 51 49 48 46 46 48 49 49 49 49 48 48 48 46 46 46 45 42 40 40 42 45 46 46 46 45 46 46 46 46 45 45 43 43 43 45 46 46 48 49 49 54 58 54 54 51 49 48 48 46 45 40 40 43 45 43 40 36 36 37 39 42 45 46 43 39 37 39 39 39 37 37 36 36 36 36 36 36 36 36 36 36 34 33 31 34 36 37 37 36 36 36 37 37 36 33 34 40 42 42 39 36 37 39 39 39 39 39 40 43 46 48 49 49 51 52 55 60 60 60 61 60 58 60
75 72 69 67 72 70 72 72 67 72 72 69 67 67 72 70 72 72 67 67 72 69 61 61 61 60 54 51 51 52 55 57 58 58 55 55 55 55 54 52 52 52 52 52 54 55 60 58 54 52 51 52 54 55 55 58 55 52 52 52 52 51 51 52 52 52 54 58 57 57 55 55 55 58 58 58 54 58 58 52 54 58 60 55 54 54 52 52 52 52 54 52 51 51 51 51 51 49 49 49 48 48 48 48 49 49 49 49 48 48 48 49 51 51 52 58 55 54 54 52 52 54 55 55 52 51 49 48 48 46 48 48 49 49 49 49 49 48 48 46 46 46 45 43 42 42 42 45 45 46 46 45 45 46 46 46 46 45 43 43 45 45 46 46 46 48 49 52 54 54 54 51 49 48 46 46 43 40 39 39 40 40 37 34 34 37 39 42 43 45 42 39 37 37 37 37 36 36 36 36 36 36 36 34 34 34 36 36 34 33 31 34 36 36 36 34 36 36 37 37 36 33 34 39 42 42 37 36 37 39 40 42 42 42 43 46 46 48 49 51 51 54 58 61 60 60 60 60 57 60
73 75 73 72 75 73 72 69 67 69 72 67 67 67 69 72 72 67 67 67 72 70 61 61 60 57 52 51 51 52 58 57 58 58 57 55 55 58 55 54 52 51 52 54 57 60 58 55 54 52 52 52 52 52 54 55 54 52 52 52 51 51 52 54 54 52 52 55 58 57 55 55 58 54 54 52 52 54 52 52 52 58 58 55 54 52 52 52 52 52 54 52 51 49 49 51 51 49 49 48 48 48 46 48 49 49 49 48 48 48 48 49 49 51 51 54 54 51 51 51 52 55 58 54 51 49 49 48 46 48 49 49 49 49 49 49 48 48 48 48 46 46 46 45 43 43 43 45 45 46 45 43 42 45 45 46 45 43 43 43 43 45 45 46 46 48 49 52 54 54 52 51 48 46 45 45 42 39 36 36 39 39 36 34 33 37 40 42 43 43 40 39 37 37 37 36 36 36 36 36 36 34 34 33 33 34 37 37 36 34 31 33 36 37 39 39 37 36 37 37 34 33 34 39 42 43 40 39 39 40 42 43 43 45 46 46 48 48 48 51 52 57 60 61 60 60 60 60 57 58
72 75 75 75 75 72 67 72 72 72 72 69 70 66 67 69 69 67 69 69 69 66 61 60 57 55 52 51 51 52 58 58 57 58 58 57 57 58 57 55 54 52 54 58 60 60 58 55 54 54 54 52 51 52 52 54 54 54 52 52 52 52 54 55 54 52 52 55 57 58 55 54 54 54 51 51 51 52 52 52 52 54 55 58 54 52 52 52 52 52 52 51 49 48 49 51 52 51 49 49 48 48 46 48 49 49 48 48 48 46 48 49 49 51 51 51 51 49 49 49 52 58 58 52 49 48 48 46 46 48 49 51 51 49 49 49 48 48 48 46 46 46 46 46 46 45 43 45 45 45 43 42 42 43 43 43 42 40 42 42 43 43 45 45 46 48 51 54 55 54 51 49 46 43 42 42 39 37 34 33 34 36 36 34 34 37 40 43 42 42 40 39 37 37 37 37 36 36 36 37 37 36 33 31 33 34 36 37 37 34 31 33 36 39 40 40 39 39 37 37 36 33 33 42 46 46 45 40 39 39 40 42 42 43 45 46 46 46 48 51 58 58 60 61 60 60 60 60 57 58
67 75 75 73 72 67 67 72 72 72 70 72 70 67 66 64 66 69 69 72 70 64 60 57 58 58 54 51 51 52 55 58 57 58 58 55 55 57 58 58 58 55 55 58 61 61 60 55 58 58 54 51 51 51 51 52 52 52 54 54 54 55 55 58 54 54 54 58 58 58 52 52 52 54 52 51 51 52 52 52 52 54 54 58 54 52 52 51 51 52 52 51 48 46 48 51 51 51 49 49 48 48 48 48 49 49 48 48 48 48 48 49 49 49 49 49 49 49 49 49 51 52 57 51 48 46 46 46 46 48 49 51 49 49 49 49 48 48 48 46 46 46 46 48 46 46 43 45 43 43 42 40 40 42 42 40 39 39 40 40 42 42 45 45 46 49 51 58 55 52 49 48 43 40 39 39 37 37 34 31 33 36 37 37 37 39 40 42 42 42 40 39 39 37 37 37 37 37 37 40 40 39 34 33 36 37 37 37 34 34 31 33 36 40 43 43 40 39 37 37 36 33 33 42 46 48 45 39 37 37 37 39 39 40 42 45 46 46 48 51 52 57 60 61 61 57 60 60 57 60
66 69 67 69 72 69 69 72 73 73 72 67 69 69 64 64 66 70 70 70 63 60 55 55 55 58 55 52 52 54 55 55 55 58 57 57 57 57 58 55 57 58 58 57 60 60 55 55 55 55 52 51 49 51 51 51 52 54 55 58 58 55 55 58 55 55 55 57 58 55 52 52 52 54 52 52 52 52 52 54 54 54 54 54 54 52 51 49 49 51 51 49 48 48 48 49 51 49 49 49 49 48 48 48 49 49 48 48 49 49 49 49 49 49 49 49 49 51 51 51 49 51 51 49 46 46 45 46 46 48 49 49 49 49 49 49 48 48 48 46 46 46 46 46 46 46 43 43 42 40 40 40 40 40 40 40 39 39 39 39 39 40 43 45 48 49 52 54 57 51 49 46 40 36 34 34 34 34 33 31 33 36 39 39 40 39 39 40 40 40 40 39 39 39 39 39 39 39 40 42 43 40 37 36 39 39 39 36 33 33 33 33 37 42 43 43 40 37 37 36 34 31 33 40 46 46 45 39 36 36 36 37 37 37 39 42 43 45 48 51 52 57 60 61 61 60 61 61 61 60
66 66 66 69 70 70 67 67 72 73 72 67 69 67 64 64 66 69 66 61 60 57 54 54 55 58 55 55 54 55 55 55 54 55 58 60 58 57 57 55 55 60 60 58 60 58 55 55 54 58 52 51 51 51 51 51 52 54 55 55 55 55 55 57 58 58 55 57 58 55 52 54 54 54 54 52 52 52 52 54 54 52 52 52 54 54 52 49 49 49 51 49 48 46 48 48 48 48 49 49 49 49 48 48 48 48 48 48 51 51 51 51 51 51 49 49 51 57 57 51 49 49 49 48 46 46 45 46 46 46 48 48 48 48 48 48 48 48 48 48 46 46 46 46 46 46 45 43 42 42 40 40 40 40 40 40 39 39 39 39 39 39 42 45 48 51 51 52 51 49 48 43 39 36 34 34 34 33 34 33 36 37 40 40 40 40 39 39 39 40 39 37 37 37 39 39 40 42 43 45 45 43 42 40 42 42 39 36 33 33 34 37 42 43 43 42 39 37 37 37 34 31 33 37 42 43 42 37 36 34 36 36 37 37 39 40 42 45 48 49 51 54 58 61 61 61 64 63 64 63
67 67 67 69 67 66 66 66 67 72 72 67 69 72 70 70 63 60 57 57 55 54 52 55 57 58 58 57 55 57 58 55 54 54 55 58 60 61 58 55 55 58 58 58 60 58 58 54 55 58 54 52 52 52 51 51 52 52 54 54 54 55 55 57 57 55 55 58 58 55 58 55 58 54 52 51 52 52 52 52 52 51 51 52 58 58 52 51 49 49 49 49 48 48 46 46 48 46 48 49 49 49 48 48 48 49 49 51 52 58 54 52 51 51 51 51 52 57 52 49 48 48 48 48 46 46 46 46 46 46 48 48 48 48 49 49 49 48 46 46 48 48 48 48 46 46 46 45 43 42 42 40 39 39 39 40 40 40 40 40 40 40 42 45 49 51 51 51 49 49 48 43 39 36 34 34 33 33 34 36 37 37 39 40 40 39 39 40 40 40 39 37 37 37 37 40 42 43 43 45 45 45 45 45 45 43 40 37 34 34 34 39 43 46 46 43 37 37 39 39 36 31 33 36 39 42 40 37 36 34 36 36 37 39 40 42 43 43 46 48 49 51 54 60 61 61 64 66 66 66
70 72 72 70 64 64 66 69 66 67 73 73 72 72 69 64 60 55 54 54 52 52 54 58 58 57 57 57 60 60 55 54 52 54 57 57 60 61 58 57 55 55 55 54 55 55 55 55 55 55 55 55 54 52 52 51 51 52 52 52 54 55 55 58 58 55 55 58 57 55 58 58 55 52 52 51 51 52 52 52 52 51 51 51 54 54 54 51 49 49 49 49 48 48 46 46 46 46 48 48 48 48 48 48 48 49 49 51 54 58 55 54 52 52 54 57 52 51 49 48 46 46 46 48 48 46 46 46 46 46 48 48 48 49 49 51 49 48 46 46 48 48 48 48 48 48 46 45 43 43 43 42 39 37 39 40 42 42 42 42 40 40 42 46 49 51 51 49 49 48 46 43 40 37 36 34 34 34 34 36 37 37 39 40 40 40 42 42 42 42 39 36 37 37 37 40 42 43 43 45 46 46 46 46 46 45 43 40 37 34 36 39 45 46 46 43 39 37 40 39 36 31 33 36 37 40 39 37 36 36 36 37 37 39 42 43 45 43 45 46 46 48 51 54 60 60 61 64 66 63
75 75 72 72 69 72 73 73 75 75 75 75 73 69 61 60 54 51 51 51 51 52 54 58 55 55 55 57 60 58 54 52 54 54 58 58 55 57 58 58 58 58 55 54 55 55 58 57 58 55 55 55 54 52 51 51 51 51 51 52 58 55 55 55 55 55 55 58 57 55 55 55 55 54 52 51 52 52 52 52 51 51 51 52 52 54 52 52 52 52 51 51 49 48 46 46 46 45 46 48 48 48 46 46 48 49 51 52 55 58 55 54 54 54 54 57 51 49 48 46 46 45 46 46 48 46 46 46 46 48 48 49 49 49 49 51 49 46 46 46 48 48 48 48 46 46 46 45 45 45 43 42 39 39 39 40 42 42 42 40 40 40 43 46 49 49 49 49 48 48 45 43 39 37 36 36 36 34 34 36 36 37 40 42 42 43 43 45 43 40 39 37 37 39 39 39 40 42 43 46 48 48 48 46 46 46 43 42 37 36 34 37 42 45 45 42 39 37 40 40 37 34 34 36 37 39 39 37 36 36 37 39 39 40 43 45 46 45 45 45 45 46 49 52 60 60 61 63 66 61
75 73 67 70 73 78 79 76 81 81 75 73 70 63 60 55 51 49 49 51 51 52 57 54 54 54 55 55 55 54 52 52 52 52 54 52 52 54 58 57 57 58 57 60 60 58 58 58 57 57 55 55 55 54 52 51 51 51 51 54 58 58 55 54 54 55 58 60 60 55 55 55 55 55 54 54 55 58 55 55 58 52 52 52 54 55 54 55 55 58 58 52 49 48 48 46 46 46 46 48 48 48 46 46 49 51 52 52 54 54 55 54 54 54 52 51 49 48 48 46 45 45 46 46 48 48 46 46 46 48 49 49 49 49 49 49 48 46 46 46 48 48 46 46 46 46 45 45 46 46 45 42 39 39 39 39 40 40 40 39 37 40 45 48 49 49 48 48 46 45 42 39 37 36 34 34 36 36 34 33 34 37 39 42 43 45 46 45 43 42 39 37 39 39 39 37 37 40 43 46 48 48 46 46 46 46 45 42 37 34 31 33 36 39 40 39 36 36 39 39 39 34 34 36 37 40 39 37 34 36 37 39 37 39 42 43 45 45 43 45 45 46 48 51 60 60 57 61 63 61
73 72 67 70 73 76 79 78 81 81 76 69 63 61 57 52 51 49 49 51 52 54 54 52 54 55 60 58 57 55 54 52 52 52 51 51 51 52 52 54 55 60 57 58 58 57 57 58 57 58 57 57 57 57 55 54 52 52 52 54 57 57 55 54 54 55 55 57 58 55 55 55 58 58 54 58 58 57 58 57 58 55 52 54 55 58 58 57 58 58 57 55 52 49 48 48 48 48 48 49 49 48 48 48 51 51 52 51 52 54 52 54 54 54 51 48 46 46 46 46 45 45 46 48 48 48 48 48 48 48 48 49 49 49 49 49 48 46 46 46 46 46 46 45 45 43 45 45 46 46 45 42 39 39 39 39 39 39 39 39 39 42 46 48 49 48 48 46 43 40 37 37 36 34 33 33 34 33 33 31 31 34 37 42 45 46 46 45 43 42 40 39 39 39 37 36 36 37 42 45 48 46 46 46 46 46 45 42 37 34 31 31 33 34 34 34 33 34 37 37 37 36 34 36 39 42 40 37 34 34 36 39 37 39 40 42 45 45 43 43 45 46 48 51 58 58 57 61 61 61
75 75 76 73 73 75 79 78 76 79 79 64 60 55 54 52 51 49 49 51 58 54 54 54 55 57 58 60 60 60 55 54 51 51 51 52 52 52 52 52 54 60 58 58 60 58 57 58 60 61 60 60 60 61 61 58 54 52 52 54 55 58 55 54 54 54 55 57 57 55 54 54 54 54 54 55 58 60 60 57 55 54 52 52 54 58 58 58 58 57 57 58 57 49 49 49 49 49 49 49 49 49 49 49 51 51 52 52 52 52 52 52 52 51 49 48 46 46 46 46 46 45 46 48 48 48 48 48 48 48 48 49 49 49 49 49 49 48 46 46 45 45 43 42 42 43 45 45 46 45 43 40 39 39 40 39 39 39 37 37 42 46 48 49 49 48 46 45 42 37 37 37 36 34 33 31 33 31 31 30 31 33 36 39 43 46 46 45 43 42 40 39 37 37 36 34 33 36 39 42 45 43 43 43 46 46 45 42 37 34 33 33 34 34 33 33 33 33 36 37 37 36 34 37 40 42 40 37 34 33 34 37 37 39 39 40 43 43 42 45 46 46 48 49 54 57 60 61 61 57
73 76 76 75 73 75 78 75 75 75 69 61 57 54 52 52 52 51 51 52 54 58 54 55 61 60 57 60 60 60 60 52 51 51 51 54 54 52 52 51 51 52 54 58 60 60 57 60 61 61 60 57 58 57 60 58 55 54 54 54 55 58 57 55 54 54 54 60 60 55 54 54 54 52 52 54 57 58 60 57 55 54 52 51 54 55 55 55 55 55 58 55 52 49 49 49 51 49 49 49 49 49 49 51 51 51 51 51 52 54 52 52 51 49 48 48 46 46 46 46 46 45 46 48 48 48 48 49 49 48 48 48 48 48 48 49 48 48 46 45 43 42 40 39 40 43 45 46 46 45 43 40 39 40 40 42 42 40 39 39 45 48 49 49 49 48 46 43 40 37 37 37 37 36 34 33 31 31 30 30 30 31 33 37 42 45 45 43 42 42 40 39 37 36 34 33 33 34 36 37 39 39 39 40 43 45 45 43 39 36 33 34 36 36 36 34 34 33 36 36 36 34 34 37 40 42 40 37 34 33 34 37 37 39 39 39 42 43 43 45 46 48 48 49 57 57 60 61 61 57
70 73 73 73 73 73 76 73 72 66 61 57 54 52 52 52 52 51 51 52 54 55 55 60 61 60 60 60 60 57 54 51 51 52 54 55 54 54 52 51 51 51 51 52 54 54 55 57 58 57 55 54 54 54 55 55 55 54 52 52 55 60 58 55 52 52 54 54 54 55 54 55 55 58 54 54 57 57 58 55 54 54 52 52 52 54 54 52 52 52 54 54 51 49 49 49 51 49 51 51 51 51 49 51 51 49 51 51 52 51 51 49 49 48 48 48 48 48 48 48 46 46 46 48 48 48 48 49 49 48 48 48 46 46 46 48 48 46 45 42 40 40 39 39 40 45 46 46 46 45 42 39 39 40 42 43 43 42 40 40 46 49 51 49 48 46 46 43 42 40 40 39 39 37 36 34 33 31 31 30 31 31 33 37 40 43 43 42 40 42 40 37 36 36 34 34 33 34 36 36 34 34 34 36 39 40 42 42 39 36 34 36 37 39 37 36 36 34 37 37 37 34 36 37 40 40 39 37 36 34 34 37 37 37 37 39 40 43 43 46 46 48 48 51 54 58 60 63 63 60
70 79 73 72 72 70 72 72 66 61 57 54 52 52 52 52 51 51 51 52 54 54 54 60 60 58 57 60 58 55 52 51 52 54 58 57 55 54 52 51 51 51 51 51 51 52 54 55 58 55 52 51 51 51 52 54 58 54 54 55 58 60 58 54 52 52 52 52 54 54 54 55 55 58 55 55 58 58 58 55 54 54 54 52 54 54 54 52 51 51 51 52 52 49 49 49 51 49 51 52 52 52 51 51 51 51 51 51 51 51 51 49 48 48 48 48 48 48 49 48 48 46 46 48 48 48 48 48 49 49 48 48 46 46 46 46 46 45 43 42 40 40 39 40 43 46 48 46 46 45 42 39 39 40 42 43 43 43 40 42 46 49 49 49 46 45 43 42 42 42 42 40 39 39 36 34 33 31 31 31 31 34 36 37 40 42 43 42 42 42 39 37 36 36 36 36 36 37 37 36 33 33 31 33 36 37 39 39 37 36 36 37 39 39 37 36 34 34 36 36 36 34 36 37 39 39 37 37 36 34 34 36 37 37 37 37 40 42 43 46 46 48 48 49 52 57 61 66 69 61
75 79 72 67 70 73 75 70 61 57 55 52 51 51 52 51 51 49 51 52 52 52 54 55 57 55 54 55 55 58 52 52 55 60 61 61 55 54 52 52 51 51 51 49 49 51 52 54 58 54 51 51 51 51 52 54 58 55 58 55 57 58 57 54 54 54 54 54 52 52 52 54 55 55 57 58 58 57 55 55 55 55 54 54 55 55 54 51 49 49 51 54 60 51 51 49 49 49 51 58 55 54 52 52 52 52 51 49 49 49 49 49 49 48 48 48 48 48 49 49 48 48 48 48 48 48 48 48 48 48 48 48 48 48 48 46 46 43 45 43 42 42 40 42 45 48 48 48 46 45 42 40 39 40 40 42 42 42 40 42 46 48 49 48 45 42 40 39 40 42 40 40 40 39 37 36 34 33 31 31 34 36 37 39 40 42 43 43 43 42 39 37 36 37 36 36 36 37 37 36 34 33 31 33 34 37 37 36 34 36 36 37 39 39 37 36 34 34 36 34 34 33 34 36 37 37 37 36 36 36 34 36 36 37 39 39 40 42 43 46 46 48 48 49 51 55 60 66 70 61
75 75 67 67 70 75 78 64 60 57 57 51 49 51 52 52 52 51 51 52 52 52 54 55 55 55 54 55 58 58 54 52 58 60 61 61 55 52 52 51 51 52 52 51 51 51 51 52 52 52 51 51 51 51 52 54 54 54 58 58 55 58 58 55 55 58 58 55 54 52 52 52 54 58 55 58 55 55 55 55 55 55 55 55 55 60 54 51 49 51 52 55 60 52 51 51 49 49 51 58 55 55 58 54 54 52 51 49 48 49 49 51 49 49 48 48 48 48 49 49 48 48 48 49 48 48 48 48 46 46 48 48 48 48 48 46 46 45 45 45 43 43 43 46 46 48 48 48 46 45 43 40 39 39 39 40 40 40 40 43 46 48 48 46 42 39 37 37 37 39 39 39 39 37 36 36 34 33 31 33 34 36 37 39 40 42 42 43 43 43 40 39 37 39 37 36 37 37 39 37 34 33 31 33 34 36 36 34 34 34 36 37 39 37 36 34 33 33 33 33 31 31 33 34 36 36 36 34 34 36 36 36 36 37 39 40 42 42 43 46 46 48 48 49 51 55 61 69 70 61
75 75 75 70 73 78 76 61 60 57 54 51 49 51 52 54 58 58 54 54 54 54 54 55 55 55 58 58 57 55 54 52 55 57 60 57 55 54 52 51 52 52 54 54 54 52 51 51 52 52 51 51 51 52 54 54 54 54 54 54 54 55 58 55 57 60 60 57 54 52 51 51 52 58 54 54 54 54 54 55 55 55 55 55 57 60 54 51 51 51 52 55 55 52 51 51 49 49 52 55 57 57 58 57 52 51 49 48 48 49 49 51 49 49 49 48 49 49 49 49 48 48 49 49 49 48 48 46 46 46 46 48 48 48 48 46 45 45 45 45 45 46 46 46 48 48 48 48 46 45 43 40 39 39 39 39 40 42 43 45 46 46 46 43 39 37 36 36 36 37 39 37 36 36 34 34 34 33 33 33 36 36 37 37 39 40 42 42 42 42 40 40 39 39 37 36 37 37 39 37 36 34 33 33 34 36 36 34 34 34 36 37 37 37 34 33 33 33 33 31 31 31 31 33 33 33 33 31 33 34 36 37 37 39 42 43 45 45 45 46 48 48 48 49 51 55 61 66 70 63
75 78 78 75 76 78 66 57 57 55 54 52 51 51 52 55 57 58 58 57 58 58 55 55 55 58 58 58 57 55 54 52 55 57 58 55 55 60 54 52 52 52 58 60 60 54 54 54 55 54 54 54 54 54 54 55 55 58 54 52 52 52 54 54 57 58 60 57 57 52 51 51 51 52 54 54 54 55 55 57 55 55 55 55 55 58 52 51 51 52 54 55 54 51 51 51 51 51 54 58 60 60 54 51 51 49 48 46 46 48 49 51 49 49 49 49 49 49 49 49 49 49 49 51 51 49 49 48 46 46 46 46 48 48 48 46 45 42 43 45 46 46 46 46 46 48 48 46 45 43 42 42 40 40 40 42 42 43 45 46 48 46 45 42 39 37 36 36 37 39 39 39 36 34 34 34 34 31 33 33 34 34 36 36 37 39 39 40 40 42 40 40 39 39 37 37 37 39 39 39 37 36 34 33 33 34 34 34 34 33 34 36 36 36 34 33 33 31 31 31 31 31 31 31 31 31 31 31 33 34 36 39 39 42 43 45 46 46 46 46 48 48 49 49 52 57 61 64 66 61
75 75 76 76 78 78 63 58 55 55 54 52 51 52 54 58 58 58 58 57 58 58 55 54 55 57 58 58 57 55 55 55 54 58 58 55 55 60 58 52 52 54 57 57 58 55 54 60 60 58 54 54 55 55 55 55 58 55 54 51 52 52 52 54 55 58 58 57 54 52 49 49 51 51 51 52 52 55 58 58 57 55 55 54 55 58 52 51 51 52 54 54 52 51 51 51 51 52 55 58 60 55 51 49 48 46 46 45 46 48 49 49 49 49 51 49 49 49 49 49 49 49 51 51 51 49 49 48 46 46 46 46 46 46 46 45 43 42 42 43 46 46 46 46 46 48 48 46 45 43 42 42 40 40 42 42 43 43 46 48 48 48 43 42 37 37 36 36 37 40 40 39 36 33 33 33 33 33 33 33 34 34 34 34 37 39 39 39 39 40 40 40 40 39 37 37 37 39 39 39 39 37 34 33 33 33 34 34 34 33 34 36 36 36 34 33 33 31 31 31 31 31 31 31 31 31 31 31 34 36 37 40 42 43 45 46 46 46 46 48 48 48 49 51 52 57 60 61 63 61
76 78 78 79 79 73 61 57 57 60 60 55 52 52 58 57 58 57 58 58 58 57 55 55 57 57 57 57 55 55 54 52 54 55 55 55 55 57 57 54 52 52 54 55 55 55 55 57 58 58 57 55 57 57 57 55 55 54 52 52 52 52 52 54 55 57 57 57 58 58 52 51 52 54 54 55 55 57 57 57 55 54 54 52 52 52 51 49 49 51 51 51 51 49 49 49 51 52 55 55 55 52 49 49 48 46 46 45 46 48 49 49 49 49 49 48 49 49 49 51 57 57 54 54 55 52 51 48 48 46 46 46 46 46 46 46 45 43 43 45 46 46 46 46 46 46 46 46 45 42 42 42 42 43 45 46 45 46 46 48 48 46 42 39 37 37 37 39 40 42 42 40 37 37 36 34 33 33 33 33 34 33 34 34 37 37 39 37 39 40 42 42 42 40 40 39 39 39 39 39 37 37 34 33 33 33 34 33 33 33 33 34 34 34 33 33 33 31 31 31 31 31 30 30 30 30 33 33 36 39 39 43 45 46 46 46 46 46 48 48 48 49 49 51 54 55 58 61 63 64
81 81 79 79 78 67 61 57 55 57 57 54 51 51 52 54 54 55 57 58 57 54 54 54 54 55 55 55 55 54 52 51 51 52 54 55 57 55 55 58 60 60 60 60 60 60 60 60 60 58 57 55 55 55 55 55 55 54 54 54 54 54 54 58 58 55 55 57 58 58 55 54 55 55 54 54 52 54 54 54 52 51 51 51 51 49 48 48 48 48 49 49 51 49 51 52 52 52 52 52 52 51 51 49 49 48 46 46 46 46 48 49 49 49 49 48 49 48 49 52 54 57 55 54 54 51 49 48 46 46 45 46 46 46 46 46 46 46 46 46 46 46 46 46 46 45 46 45 43 42 40 40 42 45 46 48 48 48 48 49 48 45 40 37 37 37 37 37 40 42 43 43 42 40 39 36 33 33 34 34 36 36 36 36 37 39 39 37 39 39 39 40 42 42 40 37 36 36 36 36 36 36 34 34 33 34 34 33 34 34 33 34 34 34 33 33 33 33 33 31 31 30 30 30 30 30 33 34 36 42 43 46 48 48 48 48 46 46 48 48 49 49 51 52 52 52 57 64 67 67
81 81 78 76 72 64 61 58 54 52 54 52 51 51 49 51 51 52 55 55 55 54 52 51 52 54 58 61 61 57 52 49 51 57 60 60 60 61 61 61 61 61 61 61 60 60 60 60 60 57 58 54 52 54 55 55 54 52 52 54 54 54 55 58 57 58 58 55 55 55 54 54 55 55 52 52 51 51 51 52 51 51 49 49 49 49 49 49 49 49 49 49 51 51 52 58 58 54 52 51 51 52 51 49 48 48 48 46 46 46 46 49 51 51 49 48 49 48 49 51 52 54 54 52 51 49 49 48 46 46 45 46 46 46 46 46 48 48 48 48 48 48 46 46 45 45 45 45 43 42 40 39 39 43 46 48 48 49 49 49 48 45 39 37 37 36 34 34 37 40 42 42 42 40 39 36 34 34 34 36 37 37 37 37 39 39 40 39 39 37 37 36 37 37 37 36 34 34 36 36 36 34 34 34 34 36 36 36 36 36 36 36 34 34 36 37 37 37 36 33 31 30 30 30 30 30 31 34 36 43 46 48 48 48 48 48 48 48 48 48 49 49 49 51 51 52 57 61 67 67
76 76 75 73 69 64 63 60 55 52 52 52 52 51 49 51 52 58 58 58 57 54 52 52 54 60 61 61 58 55 54 60 61 64 64 61 61 61 61 57 57 57 58 58 57 57 58 57 57 60 60 55 57 57 55 54 52 51 52 52 54 54 58 58 57 60 60 57 54 52 51 52 54 54 52 52 51 52 54 52 52 51 49 49 49 51 52 54 51 51 49 49 49 49 51 52 55 54 52 51 51 52 51 49 49 48 48 48 48 48 49 51 52 52 51 49 49 48 49 49 51 51 51 51 51 49 49 48 48 48 46 46 46 46 48 48 48 48 48 48 48 46 45 43 43 43 43 42 42 42 40 39 39 42 45 48 48 49 49 49 46 42 39 37 37 36 34 34 37 40 42 42 40 40 40 40 39 37 37 39 40 40 39 39 39 40 40 40 40 39 37 34 34 34 34 36 37 37 39 39 37 36 34 34 36 36 36 36 36 36 36 36 36 36 37 39 39 37 34 33 33 30 30 30 30 30 31 33 34 40 45 48 48 48 49 49 49 49 48 48 48 48 48 49 51 52 57 60 64 66
76 79 79 70 67 69 66 61 58 55 54 54 52 51 51 52 54 58 58 57 57 54 52 52 55 61 60 57 60 58 60 61 66 69 69 63 60 60 57 57 57 60 60 60 61 61 61 60 58 58 57 57 60 60 60 55 54 52 52 51 51 51 54 57 57 57 57 55 52 51 51 52 54 52 51 51 52 54 55 54 54 51 51 51 51 52 52 52 52 51 49 49 49 49 49 51 54 58 58 54 52 52 52 51 51 49 49 49 49 51 51 52 51 51 49 48 48 46 48 48 48 49 49 49 49 49 48 48 48 48 46 46 45 46 48 48 48 48 46 46 46 45 43 42 42 40 40 39 40 42 42 40 39 40 45 46 48 48 48 46 43 40 39 39 39 37 37 37 39 40 42 42 42 40 42 43 45 43 43 43 45 45 42 40 40 40 42 42 42 42 42 40 39 39 39 37 39 39 39 37 37 37 36 34 33 36 36 34 34 33 34 36 36 36 36 36 36 34 34 34 33 31 30 30 30 31 31 33 33 37 40 43 45 46 48 49 51 49 48 46 46 46 48 49 51 52 55 60 61 63
76 79 79 73 67 67 67 63 58 55 52 52 52 52 52 52 54 57 58 58 55 54 52 54 58 61 61 61 60 61 63 75 75 64 61 60 57 58 61 61 61 66 67 67 70 70 70 66 61 60 58 57 57 57 57 57 55 54 52 49 49 49 52 54 55 55 54 52 51 51 52 54 52 52 51 51 52 54 54 54 54 52 54 60 60 57 57 52 51 51 51 51 52 52 52 54 58 58 58 57 55 54 52 52 52 51 49 49 49 51 51 51 49 49 48 46 46 45 45 46 46 48 49 49 49 48 48 48 46 45 45 45 46 46 48 48 48 48 48 46 46 46 45 42 40 40 40 39 39 40 42 42 40 39 42 45 46 46 46 45 42 40 40 40 40 39 39 39 40 40 42 40 39 39 42 45 46 46 46 46 46 46 43 40 40 42 43 43 45 46 46 46 45 45 45 43 42 40 39 37 37 37 37 36 34 34 36 34 33 33 33 33 34 36 36 36 36 34 34 34 34 31 30 31 31 33 34 39 39 40 42 42 42 43 46 46 48 46 43 42 43 45 46 49 51 58 58 58 60 60
76 78 78 75 64 64 69 63 60 54 51 52 52 54 54 54 54 55 58 58 58 54 54 60 61 61 61 60 60 63 70 72 63 61 61 61 66 66 72 72 70 70 70 64 61 61 61 64 66 63 61 61 61 61 60 60 60 54 52 49 49 49 49 52 54 54 52 52 52 51 51 51 51 51 51 52 54 55 55 55 55 55 60 61 61 57 57 54 52 51 51 51 52 54 55 55 57 55 55 54 54 52 51 51 52 51 49 48 48 49 48 48 48 48 48 46 45 45 45 46 48 49 49 49 48 48 46 46 45 43 43 45 46 46 48 48 49 49 48 48 48 46 46 42 40 40 40 40 40 39 40 40 39 39 39 42 45 46 45 43 40 42 42 42 40 37 37 37 39 40 40 39 37 37 40 43 46 48 48 48 46 46 43 40 42 43 46 46 46 46 46 46 46 48 48 48 46 45 42 40 39 39 39 37 37 37 37 37 34 33 31 31 31 33 34 36 36 37 36 34 33 31 33 33 36 36 37 42 45 45 45 42 42 42 45 45 45 42 40 39 39 40 42 46 51 58 58 57 57 61
76 76 75 70 63 63 66 63 57 55 52 52 54 55 57 58 58 57 57 58 58 58 57 61 63 61 60 60 72 72 63 61 61 69 76 76 75 69 69 67 66 61 61 60 58 57 58 57 60 60 61 66 72 72 67 67 63 60 54 51 51 49 49 51 54 55 54 52 52 51 51 49 49 51 52 54 54 54 55 55 58 60 60 61 61 60 60 60 60 60 54 51 51 51 52 52 52 52 52 52 52 52 51 51 51 51 51 49 48 48 48 48 48 48 48 46 46 46 46 48 49 51 49 49 48 46 46 45 42 43 43 45 45 45 46 48 49 49 49 49 49 48 46 43 42 42 42 42 40 40 39 39 39 39 40 42 43 45 45 43 42 42 42 40 37 36 36 37 40 40 40 40 39 39 40 45 46 46 48 48 46 46 46 46 48 48 49 49 48 46 46 46 46 46 48 46 46 45 42 40 39 39 39 39 40 40 42 39 36 34 34 34 34 34 34 34 36 36 36 34 31 31 33 36 37 37 39 40 45 45 45 45 43 43 43 43 43 42 39 37 39 39 40 45 49 54 55 55 52 58
76 76 72 64 61 61 64 63 60 58 55 55 54 55 55 55 55 52 55 58 58 58 60 61 61 57 57 66 72 66 61 69 79 79 73 75 75 67 66 64 60 60 57 54 52 51 54 58 58 60 61 69 76 76 73 73 72 61 60 60 54 52 52 52 54 54 52 52 52 52 52 51 51 52 54 54 52 52 54 58 57 61 61 61 61 61 61 61 61 60 58 58 58 58 57 51 51 51 52 52 54 52 51 51 52 58 58 51 49 48 49 49 48 48 46 46 46 46 46 48 48 48 48 48 46 46 46 43 42 42 45 45 45 45 46 46 48 48 49 49 49 48 48 46 45 43 42 42 40 40 39 39 39 40 43 43 45 45 43 43 43 43 43 40 37 37 37 37 40 42 42 40 39 40 42 43 45 45 46 46 46 48 48 49 51 51 51 49 48 46 46 45 45 45 45 43 42 40 40 40 40 40 39 39 40 42 40 39 37 36 36 37 37 36 34 34 33 33 34 33 33 31 31 33 34 36 40 40 43 45 46 46 46 45 45 43 42 40 39 39 39 39 42 45 48 51 52 52 51 55
76 76 69 61 61 61 63 61 58 58 57 55 55 54 54 52 51 51 52 55 57 57 61 63 61 60 63 67 69 67 72 79 76 73 73 73 70 66 61 57 57 52 51 51 52 60 61 61 63 63 66 72 76 73 66 66 64 61 60 60 58 54 54 54 54 52 52 54 54 55 54 54 54 55 58 58 52 52 58 58 57 60 61 66 66 63 63 61 61 60 60 60 58 57 54 51 49 51 51 51 51 52 52 52 54 58 58 51 48 48 48 48 48 46 46 46 46 46 48 48 48 46 46 46 46 46 46 45 43 45 46 46 46 46 46 46 46 48 48 49 49 49 49 48 46 45 42 39 39 40 40 40 40 40 43 45 45 43 43 43 43 43 42 40 40 39 37 37 39 40 42 40 39 39 40 40 42 42 45 46 46 48 48 49 49 49 49 48 46 45 45 45 43 42 40 37 37 39 40 43 43 42 40 40 42 43 45 42 40 37 36 37 37 36 34 33 31 31 33 33 33 31 31 31 33 36 37 40 40 45 46 48 48 46 45 42 42 40 39 39 39 40 42 45 48 51 52 54 52 57
69 69 61 60 60 61 61 57 58 55 55 54 54 54 54 52 51 51 52 54 57 60 63 63 60 61 72 75 75 69 67 67 67 72 78 78 64 61 57 57 54 54 54 61 61 66 69 70 70 64 64 63 61 60 60 60 60 57 57 57 58 55 54 55 58 58 55 55 58 58 55 54 55 57 57 58 54 54 58 58 57 57 60 63 66 64 63 63 61 60 60 60 58 55 51 51 51 51 51 51 51 52 52 54 54 54 52 49 46 46 46 46 46 45 45 45 46 48 48 48 46 46 45 46 46 48 48 46 46 46 46 48 48 48 48 46 46 46 48 49 51 49 49 48 46 45 42 40 39 42 43 42 40 40 42 45 43 43 43 43 43 42 42 40 40 39 39 39 39 40 42 42 42 40 40 40 42 43 45 46 48 46 48 48 48 48 48 46 45 45 43 43 42 42 40 39 39 40 42 45 43 42 40 40 42 45 46 46 43 39 37 36 36 36 34 33 34 34 34 34 34 34 34 36 36 39 39 39 37 40 43 46 46 45 43 43 43 42 42 42 42 43 45 46 48 49 52 54 54 57
66 64 60 58 58 60 60 57 54 52 51 51 52 54 58 58 54 52 54 58 60 61 61 57 57 63 72 75 73 64 61 61 66 76 78 73 61 57 57 55 58 61 63 67 70 70 69 67 63 61 60 60 60 57 57 57 60 60 57 55 55 54 54 55 57 57 57 57 58 58 55 55 54 55 55 58 58 55 57 55 52 51 55 57 61 63 63 61 60 60 61 60 57 54 51 51 52 54 58 58 54 55 55 54 52 51 49 48 46 46 45 43 43 45 43 45 43 46 46 48 46 45 45 46 48 48 49 48 48 48 48 48 48 48 48 48 48 48 48 49 49 49 49 48 48 46 45 43 43 45 43 42 42 42 43 43 43 43 42 42 40 40 40 40 39 37 39 40 42 43 45 45 43 42 42 43 45 46 46 46 46 46 46 46 46 48 48 48 46 43 42 42 42 40 42 42 43 43 43 43 43 42 40 39 42 45 46 46 45 40 39 37 36 36 36 36 36 36 36 36 36 36 36 36 39 40 42 40 39 40 42 45 45 43 42 43 43 43 43 43 45 45 45 46 46 48 51 52 54 57
66 64 60 58 61 61 60 58 54 51 51 51 51 54 58 57 54 54 58 57 60 61 61 57 61 69 70 73 69 61 61 61 66 75 73 64 60 57 55 60 61 67 76 78 78 64 60 60 60 63 63 61 61 63 63 61 61 61 57 58 58 58 58 55 54 55 55 55 57 58 57 55 54 52 54 58 58 57 55 52 52 51 52 55 57 60 60 57 57 57 57 58 55 52 52 54 54 55 57 58 57 57 55 54 51 49 48 46 46 45 43 42 43 43 43 43 43 43 45 45 45 43 45 46 48 49 49 49 48 48 48 48 49 49 49 48 48 49 49 48 48 48 49 49 49 48 46 46 45 45 43 42 40 42 43 43 42 40 40 39 39 39 40 40 39 39 39 40 42 45 45 46 45 43 42 45 46 48 46 46 45 45 45 45 46 46 48 48 46 45 42 42 42 43 45 45 45 45 45 43 42 40 39 40 43 45 45 45 43 42 39 39 37 37 36 36 37 37 39 36 34 33 34 34 37 39 42 42 43 43 43 45 43 43 42 42 42 42 43 43 45 46 45 45 45 46 49 51 54 57
66 61 60 60 61 60 58 58 58 58 52 52 52 54 58 55 54 54 58 58 60 61 61 61 67 69 70 73 69 61 61 64 70 73 66 60 58 55 61 69 73 84 87 85 72 61 61 66 81 81 70 66 70 70 69 63 61 60 61 63 63 63 63 61 60 60 55 55 55 55 55 54 54 52 54 58 57 55 54 52 52 55 58 58 55 55 57 57 55 55 55 52 52 51 51 52 52 52 54 54 54 54 52 51 49 48 45 43 43 43 42 42 43 43 43 43 45 45 45 43 45 46 48 48 48 49 49 49 49 49 48 48 48 49 49 49 49 49 49 48 48 48 48 49 49 48 46 46 46 45 42 40 40 42 42 42 40 39 39 39 40 40 40 40 40 40 40 42 43 45 45 45 45 43 43 45 46 46 45 43 43 43 43 45 46 48 48 48 46 45 42 43 43 45 46 46 46 46 46 45 43 42 42 45 46 46 46 45 43 40 40 40 40 39 37 36 37 37 37 36 34 31 33 34 37 37 40 42 43 43 42 43 43 43 42 42 42 43 46 46 46 46 45 45 43 46 48 51 52 57
64 60 60 60 60 58 57 58 58 58 58 58 55 58 55 55 54 54 55 57 61 61 61 63 69 67 69 72 70 66 64 70 73 69 61 60 60 64 78 82 90 90 85 78 70 66 69 72 76 70 70 75 75 75 61 61 63 75 75 75 70 72 75 75 63 60 58 58 55 54 52 51 51 52 52 54 54 52 52 52 54 54 55 55 54 54 54 54 52 51 51 51 51 49 49 51 51 51 51 49 49 49 48 48 46 45 43 42 43 42 42 42 42 42 43 43 45 46 46 46 48 48 49 49 49 49 49 49 49 49 49 49 49 49 49 49 49 49 48 48 48 48 49 49 49 48 46 46 46 46 43 43 42 43 42 40 39 39 39 40 40 40 40 40 40 40 40 42 42 43 43 45 43 42 42 43 43 43 43 43 43 43 45 46 48 48 48 48 46 45 43 42 42 43 46 45 45 45 45 45 45 45 46 46 48 48 48 46 45 43 42 42 39 37 37 37 36 36 36 34 33 31 33 34 36 37 39 39 39 39 40 40 43 45 45 45 45 45 46 48 46 46 46 46 45 46 48 51 52 57
61 57 57 57 60 58 55 57 57 57 60 60 57 54 52 52 52 52 52 55 61 61 61 67 69 67 72 72 72 69 70 73 72 66 63 66 76 76 84 111 111 85 67 63 61 61 61 61 64 75 82 82 76 67 67 78 79 79 67 67 76 79 79 70 61 57 57 60 60 58 52 51 51 60 61 63 72 75 75 75 66 61 61 60 52 51 49 49 49 48 48 49 49 48 48 49 49 49 49 48 48 46 45 43 43 42 42 42 42 42 42 42 42 42 43 43 45 46 46 48 48 49 49 49 51 49 51 51 51 49 49 49 49 51 51 51 49 49 48 48 48 49 49 49 49 48 48 46 46 46 46 46 45 45 43 42 39 39 39 40 40 42 42 42 42 42 40 42 42 45 43 43 42 40 40 39 40 40 42 43 43 45 46 48 48 48 48 48 48 46 43 40 40 40 45 45 45 45 45 45 46 46 46 46 46 46 48 48 46 45 42 40 39 37 37 39 39 37 34 34 34 34 34 34 37 39 39 37 37 37 40 42 45 46 46 46 45 43 45 46 46 46 46 48 48 48 48 51 54 58
58 57 57 57 58 58 58 58 58 58 58 60 54 51 51 51 51 51 52 60 61 60 60 67 66 66 70 70 69 70 73 73 72 69 76 81 81 88 117 117 103 67 60 60 57 58 60 66 73 82 82 78 76 81 82 82 82 64 64 78 84 84 66 60 57 57 60 61 61 60 60 75 100 111 112 127 136 136 130 124 117 102 94 84 72 61 60 51 48 48 48 48 48 48 48 48 48 48 48 48 46 45 45 43 42 42 42 43 42 42 43 42 42 42 43 45 46 46 46 48 49 49 51 51 51 51 52 51 51 49 49 49 49 51 51 51 49 49 48 48 48 48 48 48 48 48 46 46 46 46 46 46 46 46 46 45 43 42 42 43 43 45 45 45 43 43 43 45 46 46 46 45 43 42 40 39 40 40 43 45 46 46 48 49 49 48 48 49 48 46 43 40 42 42 45 45 45 45 45 46 46 46 45 42 42 43 45 45 45 43 42 40 39 39 37 40 40 39 37 36 36 37 39 40 42 42 43 42 39 39 40 42 42 43 45 45 45 42 42 43 43 45 46 48 48 48 49 52 54 55
55 54 54 54 57 58 58 60 60 57 58 55 55 58 57 52 51 51 55 61 61 60 61 67 64 64 69 69 69 70 79 79 79 82 82 81 96 121 121 97 76 61 58 55 58 61 66 75 82 82 78 76 81 81 82 82 63 63 81 90 90 67 60 57 58 61 66 66 61 66 94 130 144 147 147 154 162 162 153 144 138 127 121 117 102 93 84 67 61 51 49 48 48 48 46 48 48 48 48 46 46 46 45 43 42 42 42 43 45 45 43 40 42 43 43 45 45 46 46 46 48 49 49 51 51 51 52 51 51 49 49 49 49 51 51 51 49 48 48 48 48 48 46 46 46 46 46 46 46 46 48 48 48 48 48 46 46 45 46 46 46 46 46 46 45 45 45 46 46 46 46 46 45 43 42 42 43 43 45 46 48 48 48 48 48 48 48 48 48 46 45 43 45 45 45 45 45 43 43 45 45 43 42 39 40 42 45 45 42 42 40 40 39 37 37 40 43 43 42 37 37 39 40 43 45 45 45 43 42 40 40 40 39 40 42 45 45 43 43 43 43 43 45 46 48 49 51 51 54 52
51 51 51 52 54 57 58 58 60 57 54 54 54 57 58 58 54 54 58 61 61 61 66 64 63 63 70 72 69 76 82 82 82 84 85 99 121 120 93 67 61 60 57 60 61 66 75 81 79 78 87 87 78 78 82 67 63 78 97 97 70 60 57 60 64 70 70 64 91 126 138 150 163 166 168 168 171 171 169 166 159 147 139 132 121 117 111 100 84 72 61 60 49 48 46 48 48 48 48 48 46 46 45 43 43 40 40 42 43 43 42 42 43 43 45 43 43 45 46 46 48 48 49 51 51 51 51 49 49 48 48 49 51 51 51 49 48 48 48 48 48 48 46 45 46 46 46 48 46 46 48 48 49 49 48 48 46 46 46 46 48 48 48 46 43 43 45 46 45 43 45 45 45 45 46 46 46 46 45 45 46 46 46 46 46 48 48 48 48 48 46 45 45 46 46 46 45 43 42 42 43 40 39 37 40 42 45 45 43 43 42 40 39 36 39 42 45 46 45 42 40 39 40 43 45 45 45 42 42 42 43 42 40 40 43 45 46 46 46 45 46 46 46 46 46 48 51 51 52 51
51 51 58 58 60 60 58 60 60 55 52 52 54 55 57 57 57 57 60 61 61 64 63 61 61 63 64 67 72 78 82 79 78 78 84 94 99 81 67 61 60 58 58 61 64 73 81 81 78 79 81 78 78 81 75 63 70 100 100 78 60 57 61 67 79 79 64 100 136 150 157 162 166 169 169 171 172 174 172 168 165 159 153 141 132 126 120 117 108 93 84 81 72 61 51 49 49 49 48 48 46 45 45 43 43 43 42 43 42 43 43 43 45 45 45 45 46 46 46 48 48 48 49 51 51 51 49 48 48 48 49 49 51 51 49 49 49 48 48 46 48 46 46 45 45 46 46 46 46 46 46 48 48 48 48 46 46 46 46 46 48 46 46 45 42 40 42 45 45 46 46 46 46 48 49 49 48 46 43 43 43 43 45 46 48 48 48 46 48 46 46 45 46 46 46 46 46 45 43 42 42 40 39 39 39 40 42 43 45 45 43 40 39 37 40 45 45 45 43 42 39 37 39 42 43 43 43 43 45 46 46 45 43 43 45 45 46 45 45 46 46 48 46 45 45 46 48 51 52 52
51 54 58 60 61 61 61 60 57 57 54 54 54 55 55 55 55 57 58 57 60 64 61 61 61 64 66 69 76 81 81 70 70 79 79 67 67 67 63 60 60 60 66 69 76 91 91 78 73 70 64 64 82 82 63 66 94 94 78 61 57 60 75 82 82 67 90 138 154 157 165 168 171 172 172 174 175 175 172 168 165 162 156 147 136 130 126 123 118 111 100 100 96 84 75 63 61 51 49 48 46 43 45 45 45 45 42 43 43 46 45 45 45 45 45 45 46 46 46 46 48 48 49 49 49 49 49 48 48 48 49 49 49 51 51 51 49 48 46 46 48 46 46 43 45 46 46 46 46 46 46 46 46 46 48 46 46 46 46 46 48 46 46 45 43 43 43 46 46 48 48 48 49 49 49 51 48 46 45 43 43 45 46 46 48 48 48 48 48 48 46 46 46 46 46 46 46 46 46 45 46 43 42 39 40 42 43 45 45 45 42 40 39 40 43 46 45 45 43 40 39 37 39 40 42 42 43 45 46 46 46 45 43 43 43 43 43 43 42 46 48 49 49 48 45 45 48 49 52 52
51 52 55 58 61 61 60 58 58 58 60 60 55 55 54 55 55 55 55 57 60 61 60 57 57 61 66 75 78 81 75 70 73 79 70 67 67 64 61 58 58 66 76 82 97 97 78 63 61 61 61 85 85 64 63 84 94 76 60 57 57 63 91 91 73 84 130 148 156 156 162 168 171 171 174 175 175 175 174 169 168 165 156 148 141 138 136 132 127 120 114 112 112 105 93 85 81 69 66 61 49 45 45 46 46 45 43 43 45 46 48 48 48 48 46 46 46 46 46 46 48 48 48 48 48 48 48 48 48 48 48 48 49 49 51 51 49 49 46 46 48 48 46 45 45 46 46 46 46 46 46 46 48 48 48 48 48 46 46 48 48 46 46 46 45 46 45 48 48 49 49 48 48 46 48 49 48 48 45 45 45 46 48 48 48 48 49 49 49 49 49 49 49 48 48 46 48 48 48 48 48 45 43 40 42 43 45 46 45 43 42 42 42 43 45 45 45 43 43 42 40 39 39 40 40 40 43 43 46 46 45 45 43 43 43 43 43 43 43 46 48 52 51 49 46 45 48 49 52 52
52 52 54 57 60 61 61 60 58 60 60 60 55 54 55 55 55 54 55 57 60 60 57 57 57 57 63 72 75 78 70 70 85 85 61 61 67 61 60 57 60 66 79 102 102 79 61 61 60 60 84 85 70 63 63 78 78 61 60 57 60 73 91 85 73 114 147 151 162 163 165 168 169 171 172 174 174 175 174 172 171 168 165 162 151 147 142 141 138 130 124 124 124 118 111 103 94 88 88 82 67 61 57 49 48 46 45 45 45 46 48 49 49 49 48 48 48 48 48 48 48 48 48 48 48 48 48 48 46 46 46 46 46 48 49 49 49 48 48 48 48 48 46 46 46 45 45 45 45 46 46 46 48 48 49 49 48 46 46 48 48 48 46 46 45 46 46 46 48 48 48 48 46 46 46 48 48 48 46 46 48 48 48 48 49 51 57 57 51 51 51 51 49 48 46 46 48 48 48 48 46 45 43 42 42 43 45 45 43 43 43 43 43 43 43 43 43 42 42 42 39 40 40 42 40 39 42 42 42 40 42 45 43 43 43 45 45 43 43 46 48 49 51 49 48 46 46 49 52 52
51 52 54 57 60 61 61 60 57 60 60 57 55 54 54 55 55 55 55 57 60 60 58 54 54 60 66 72 75 73 70 78 85 75 61 61 67 61 60 61 64 82 102 102 78 61 60 55 58 79 85 84 61 61 64 63 66 60 60 60 61 81 81 73 82 130 147 151 162 166 166 168 169 171 172 174 172 172 171 171 171 169 168 166 163 151 147 141 139 135 132 132 132 126 121 118 109 108 109 109 105 97 90 84 78 61 60 48 46 46 46 48 48 48 48 48 48 48 48 48 48 48 48 48 48 46 46 46 46 45 43 43 45 46 48 48 48 48 46 46 46 45 46 46 46 45 45 43 43 45 46 46 48 48 48 48 46 46 48 48 48 46 46 46 45 45 45 46 48 48 48 48 46 46 45 46 48 49 49 49 49 49 49 48 48 51 54 58 52 49 49 49 49 48 46 46 48 48 48 46 46 45 45 42 42 42 43 45 43 43 42 43 43 43 43 43 43 42 42 39 39 43 45 46 45 40 42 40 40 40 43 45 43 43 45 45 45 43 43 46 46 48 48 49 48 46 46 48 51 52
51 52 54 57 57 57 57 58 58 57 58 55 52 52 54 55 55 54 52 55 57 60 57 54 55 60 66 69 73 73 70 88 88 61 61 61 66 61 60 64 78 102 102 82 63 57 54 54 61 88 88 60 60 64 61 61 61 57 57 60 70 81 75 73 108 139 145 148 157 165 165 165 166 168 171 171 171 171 168 166 166 166 166 165 160 151 145 139 138 138 138 138 136 130 124 121 115 115 118 118 124 124 120 120 114 105 88 63 57 48 46 46 46 46 46 46 46 46 46 46 46 48 48 48 48 46 46 45 45 43 43 45 46 48 48 48 46 46 46 46 45 45 45 46 46 46 45 45 43 45 46 46 46 46 45 45 43 46 46 48 48 48 48 46 45 43 43 46 48 48 48 48 46 46 46 48 49 49 49 49 51 49 48 48 48 51 52 55 58 57 51 49 49 48 48 48 48 48 48 48 46 45 43 40 42 42 43 43 43 43 43 43 43 42 42 42 42 42 42 40 43 46 49 48 46 43 43 43 42 43 45 45 43 43 46 46 48 46 45 45 46 46 48 48 48 46 45 48 49 51
52 52 57 57 57 55 55 55 54 55 58 54 52 52 54 55 54 52 51 51 54 55 54 54 55 60 63 64 66 67 78 88 73 61 60 61 66 60 60 75 79 79 73 64 61 58 55 60 84 88 61 60 64 64 61 61 61 57 57 60 76 81 73 73 114 138 145 148 153 157 159 159 159 165 166 168 169 168 166 166 165 165 166 166 165 153 148 142 142 144 144 142 139 135 127 120 120 121 121 123 130 130 129 127 124 121 111 93 79 66 51 46 45 45 45 45 45 45 45 46 46 46 48 48 48 46 46 46 45 43 42 45 48 49 49 48 46 46 46 46 46 45 45 45 46 46 46 46 46 45 46 45 45 42 40 42 43 46 48 48 48 48 48 46 43 43 45 46 48 48 49 49 48 49 49 49 49 49 48 49 49 49 49 49 49 51 51 54 58 55 52 51 49 49 49 49 49 49 49 48 48 46 45 45 45 46 46 45 43 43 43 43 43 40 40 40 40 42 42 42 45 46 48 48 46 45 45 45 45 43 46 45 45 45 46 49 49 48 46 45 45 46 46 48 46 46 46 48 49 51
54 57 55 55 55 54 54 52 51 54 58 54 52 52 52 54 52 52 51 51 51 52 52 52 55 61 63 64 69 72 75 75 61 58 57 66 64 60 64 79 67 64 64 61 60 57 60 70 85 66 60 60 64 63 61 61 61 60 57 61 79 78 73 79 118 135 141 145 148 148 145 145 154 165 166 168 166 166 166 165 165 165 165 165 165 160 153 148 151 153 153 147 141 138 130 124 123 124 126 127 129 132 132 130 129 124 120 112 96 82 64 57 48 46 43 40 40 42 43 43 43 45 46 48 48 46 46 45 43 43 43 43 46 48 49 48 48 48 48 48 46 46 45 45 46 46 46 46 46 46 45 43 42 42 43 45 46 48 48 48 48 48 48 46 45 45 46 46 48 49 51 49 49 49 51 51 49 48 46 46 48 49 49 51 51 51 51 51 52 52 51 51 51 52 51 49 49 49 49 48 48 48 46 46 48 48 46 46 45 46 46 45 43 42 39 40 42 43 43 43 43 45 46 46 46 46 45 43 43 43 45 45 45 46 48 51 51 49 48 46 43 43 45 46 46 46 46 48 49 51
55 57 54 52 52 58 58 52 52 52 52 54 52 51 52 54 54 52 52 52 52 52 52 52 57 61 63 64 70 73 75 61 60 57 60 66 63 61 76 76 61 61 63 60 57 57 63 79 72 60 60 61 64 60 60 61 61 60 57 61 79 78 73 87 120 132 138 139 144 142 142 147 157 165 168 166 165 165 165 165 165 165 165 165 165 162 156 151 151 153 153 151 144 139 133 127 126 126 126 126 126 127 129 129 129 127 123 115 100 85 79 67 60 48 42 39 39 39 40 40 40 43 45 48 48 48 46 45 43 43 45 45 46 48 48 48 48 48 48 46 46 45 45 45 45 46 46 46 46 45 42 40 43 45 46 48 48 48 49 48 48 48 49 48 46 46 46 46 48 49 51 49 49 49 49 49 48 46 46 46 49 51 51 52 51 51 49 49 51 49 49 51 52 52 52 51 49 49 48 48 46 46 46 48 48 48 48 46 46 46 46 46 45 42 40 42 45 46 45 43 40 43 45 48 48 46 46 45 43 42 43 45 46 48 49 49 49 48 46 45 43 42 42 45 45 45 46 49 51 52
52 54 52 52 54 58 57 54 52 51 51 51 51 52 52 54 54 54 54 54 54 54 52 52 57 60 61 61 69 69 64 57 55 57 61 66 64 69 76 66 61 61 63 61 57 57 63 69 63 57 57 61 61 60 60 61 61 60 57 63 79 67 67 93 121 136 135 135 138 141 141 145 153 157 159 154 154 154 153 153 154 165 165 165 165 160 160 153 151 151 151 151 145 141 135 132 129 127 126 123 123 123 124 127 129 127 123 115 106 94 84 78 64 51 46 43 40 40 40 40 40 42 45 46 46 46 46 45 45 45 45 45 46 46 48 48 48 48 46 45 43 43 43 45 46 46 46 46 45 43 42 43 46 48 48 48 48 48 49 49 51 51 51 51 48 48 46 46 46 48 48 48 48 48 48 49 48 46 48 48 51 52 52 52 51 51 49 49 49 49 49 49 51 52 52 52 49 49 46 46 46 46 48 48 48 48 49 49 49 49 48 48 46 43 42 42 45 46 46 43 40 45 46 49 49 48 46 46 45 42 43 46 46 48 49 49 49 49 46 43 43 43 43 45 43 43 45 48 51 52
51 51 51 52 54 57 58 58 58 54 52 52 52 52 52 54 54 54 54 55 54 52 52 51 54 55 60 60 64 66 60 60 60 57 61 64 64 75 76 61 61 61 63 60 57 57 61 61 61 57 57 61 61 60 58 61 61 60 57 66 78 61 61 93 120 132 132 132 132 133 135 136 139 144 144 142 142 144 142 142 144 154 159 159 160 160 160 156 153 151 151 151 148 144 139 136 135 130 130 127 126 126 126 127 129 126 120 114 108 97 88 84 75 61 60 60 48 45 43 42 42 42 42 45 45 45 45 45 45 45 46 46 46 46 46 48 46 46 45 43 43 45 43 46 46 48 48 46 46 45 45 45 46 46 48 48 48 48 49 49 51 52 51 51 49 48 45 45 46 46 46 46 46 46 48 49 49 48 49 49 49 49 49 51 51 51 51 51 51 49 49 49 51 52 54 52 51 49 48 46 46 46 46 46 46 48 49 49 49 49 49 48 46 45 42 42 43 45 46 42 39 40 46 48 48 48 46 45 43 43 45 46 48 49 49 49 51 49 48 45 43 45 45 45 43 43 43 46 49 51
49 51 52 54 55 57 60 60 58 57 57 55 58 58 55 58 58 58 58 55 54 52 51 49 51 52 55 60 64 61 60 60 60 60 61 64 64 70 63 60 60 61 61 60 57 58 61 61 60 57 61 61 61 55 55 60 61 57 57 63 76 61 63 96 120 129 127 127 127 129 129 127 127 132 135 138 138 136 135 135 136 139 148 150 156 156 160 160 159 153 153 153 150 145 141 139 136 135 133 130 129 129 127 127 126 123 120 111 105 96 91 90 79 67 66 66 63 63 61 49 46 43 43 45 43 43 43 43 45 45 46 46 46 46 46 46 46 46 46 46 46 46 45 45 45 46 46 46 46 46 45 43 45 46 48 48 48 48 49 49 49 49 49 49 48 46 45 46 46 46 48 46 46 46 48 49 51 51 51 49 49 49 48 48 49 49 51 51 51 51 49 49 49 51 52 52 51 49 49 46 46 46 46 46 46 46 46 46 48 48 49 48 46 45 43 43 43 45 43 40 39 37 40 43 45 45 43 43 42 43 45 48 49 49 49 48 48 48 46 45 45 45 45 45 45 43 43 48 49 51
49 51 51 54 55 58 58 58 57 57 57 57 57 55 55 57 57 57 57 55 55 54 52 51 51 51 54 57 61 57 58 57 57 60 61 63 64 67 60 57 57 61 61 60 58 60 61 61 61 60 69 69 61 54 54 57 61 60 57 63 69 61 63 96 118 123 123 123 126 127 127 127 127 129 130 132 132 129 129 129 129 132 138 142 145 151 156 156 154 150 150 148 145 141 139 139 135 133 130 130 130 127 126 126 123 121 117 114 111 102 99 97 91 82 78 73 69 81 84 84 61 49 46 46 45 43 42 42 43 43 43 45 45 46 46 46 46 46 46 46 46 45 45 45 45 45 46 46 46 46 45 45 45 46 48 48 48 48 48 49 49 49 49 49 48 48 48 48 48 48 48 48 48 48 49 51 52 52 51 49 49 48 46 46 46 48 49 49 49 49 49 51 51 52 52 52 52 51 49 48 48 46 46 46 46 46 46 46 46 46 48 46 46 45 45 46 46 45 43 43 42 40 39 39 40 40 40 42 43 43 46 46 48 48 48 48 48 46 46 46 46 46 46 46 46 45 45 48 51 52
49 49 49 51 52 54 54 52 52 54 55 57 58 58 55 54 54 54 55 55 54 52 51 51 51 52 54 57 58 57 54 54 55 57 61 64 64 64 60 57 57 61 61 58 60 61 61 61 61 61 70 70 63 57 57 60 61 61 57 61 66 61 66 94 112 114 117 121 124 123 123 123 124 127 129 129 127 126 126 124 124 126 133 138 138 145 151 148 145 142 142 142 142 141 141 141 135 132 129 129 130 129 127 126 123 123 121 118 118 118 118 118 114 99 97 94 84 82 87 96 96 79 63 61 49 46 43 42 40 40 40 42 42 45 46 46 45 45 45 45 45 45 45 45 45 46 48 46 46 46 46 46 46 46 46 48 48 48 49 49 51 51 49 49 49 49 51 49 49 49 49 48 48 48 49 51 51 49 48 48 48 46 46 45 46 48 49 49 49 49 49 49 51 51 51 51 49 48 48 46 45 43 43 46 46 49 49 49 48 46 46 46 46 45 45 45 46 45 45 45 43 42 39 39 37 37 40 40 45 45 45 45 45 46 46 46 46 45 46 46 48 46 45 46 46 46 45 48 49 51
49 49 51 51 51 51 51 49 51 52 55 57 60 60 55 52 52 51 52 54 52 52 52 57 58 55 54 55 54 52 52 58 58 57 61 67 69 63 60 57 57 60 60 58 60 61 61 61 61 61 64 64 61 57 57 60 61 61 57 61 66 61 64 93 111 111 111 120 123 124 121 118 118 121 127 127 123 123 123 121 121 121 129 135 139 141 145 142 141 139 139 139 141 141 142 142 139 135 132 130 129 129 129 129 127 126 126 123 123 124 124 124 123 115 121 121 117 108 93 88 97 97 94 84 64 60 49 45 42 40 39 39 37 42 46 46 45 42 42 43 45 45 45 43 45 46 46 46 46 46 46 46 45 46 46 46 48 48 49 49 49 49 49 48 48 49 51 51 49 49 49 48 46 46 48 48 48 46 46 46 46 46 46 46 48 48 49 48 48 48 48 48 48 49 49 48 48 48 46 45 42 40 42 45 46 49 51 52 51 48 48 46 46 46 46 45 45 45 46 45 43 40 39 39 37 37 39 42 46 46 45 43 40 40 43 43 43 42 43 45 45 45 45 45 45 45 42 45 48 51
49 51 51 52 54 60 60 58 58 54 54 57 58 60 60 60 58 52 52 54 58 58 58 57 57 55 54 52 52 52 54 58 57 57 60 63 66 61 57 58 58 60 60 58 61 61 60 60 63 64 63 61 60 57 57 60 61 61 57 61 64 60 60 82 99 103 105 111 120 120 112 108 108 114 117 114 114 120 123 120 120 123 127 127 132 132 138 136 135 138 138 138 139 139 141 141 139 136 135 133 129 130 130 129 129 130 130 127 123 126 127 126 124 126 133 133 133 132 120 99 90 94 109 109 96 79 61 49 46 42 40 39 39 40 43 45 43 42 42 43 45 45 43 43 43 45 46 46 46 48 46 46 45 45 46 46 48 48 49 49 49 48 46 46 46 48 48 48 49 49 49 48 46 46 46 46 46 46 45 46 46 48 48 48 48 49 49 49 49 48 48 48 48 49 48 48 48 48 46 43 43 40 40 40 43 46 48 49 49 49 48 46 46 46 45 45 45 45 45 42 39 37 37 37 37 37 37 40 45 45 46 45 42 40 43 43 42 40 40 42 43 43 43 45 46 45 42 45 48 51
52 52 52 52 55 57 60 57 55 54 54 54 55 58 60 60 57 55 52 52 55 58 57 57 57 55 54 52 52 54 55 55 57 58 57 60 61 60 57 55 57 60 61 60 61 61 57 57 61 64 60 57 57 57 57 57 61 61 57 57 61 60 60 75 85 93 97 100 105 105 99 99 102 105 97 97 102 112 121 117 117 123 126 126 127 127 130 132 133 135 133 133 136 138 138 138 139 136 135 130 129 130 130 129 129 129 130 127 123 123 127 129 130 136 142 142 139 138 130 120 109 96 96 97 108 108 85 67 61 57 48 46 45 45 46 45 45 42 43 43 45 43 43 43 43 45 45 46 46 46 45 45 45 46 46 46 48 48 49 49 48 48 46 45 43 45 45 45 46 46 48 48 48 49 49 51 49 48 46 46 46 46 46 46 46 48 49 51 51 49 49 49 49 49 48 48 46 46 45 43 42 40 39 39 40 43 45 46 46 46 46 46 46 46 45 46 46 45 43 37 34 34 36 37 36 36 36 37 40 43 45 45 42 42 43 43 43 42 40 40 42 43 43 45 45 43 42 43 46 49
51 51 51 52 54 55 57 55 52 52 52 54 54 55 57 57 55 54 60 60 58 57 57 55 55 54 54 52 54 58 58 55 55 57 57 58 60 60 54 52 55 58 60 60 61 61 57 57 57 60 58 57 55 57 55 57 60 60 57 58 61 60 61 69 76 81 85 93 94 94 90 90 90 90 84 84 94 102 106 108 108 115 120 120 127 129 127 127 127 130 132 133 132 132 132 133 136 135 132 129 130 132 132 129 126 126 129 129 127 127 129 130 135 139 141 141 139 135 130 129 127 124 111 94 93 91 88 84 75 66 66 61 57 57 49 48 46 43 45 45 45 45 43 45 43 46 45 45 45 43 43 43 46 46 48 48 48 48 49 49 48 46 46 45 45 46 48 48 49 49 49 49 49 51 52 54 54 51 49 49 49 48 48 45 46 46 48 48 49 49 49 49 49 49 48 48 45 45 43 42 42 40 40 42 42 45 46 46 46 46 46 46 46 46 46 48 49 48 46 40 37 36 37 37 36 34 36 36 37 40 42 43 42 42 43 43 43 42 39 40 42 43 45 45 45 43 40 42 46 48
49 49 51 52 54 55 54 52 52 54 58 58 58 58 55 55 54 55 60 60 60 58 55 54 54 54 54 58 58 57 57 55 54 52 54 55 57 58 54 52 54 57 60 61 61 60 58 55 55 55 54 54 54 55 55 57 60 60 60 61 60 57 57 63 66 73 79 81 84 81 78 76 76 76 78 81 87 88 94 99 100 105 114 114 123 127 124 123 124 130 130 132 129 129 127 127 133 132 129 130 133 133 133 129 127 127 130 130 130 130 129 129 133 136 135 133 133 135 138 141 142 142 139 126 102 82 78 76 75 72 70 64 60 58 52 49 46 43 45 45 45 45 45 45 45 45 45 45 43 43 43 45 46 48 48 48 48 48 48 48 48 49 57 60 61 63 69 72 76 78 78 76 63 60 60 55 54 52 51 51 52 51 51 49 48 48 46 46 48 48 49 49 49 49 49 48 46 45 43 43 43 42 42 45 46 48 48 46 46 46 46 46 46 46 48 49 49 49 46 46 43 39 37 37 36 36 36 37 37 39 40 40 40 40 42 42 42 39 39 40 45 46 46 46 46 45 42 43 46 49
49 49 51 52 54 54 52 52 52 54 57 57 58 57 55 54 54 58 58 58 58 58 52 52 54 60 60 60 57 55 55 54 52 52 51 52 55 54 54 52 55 57 60 61 61 60 55 54 52 52 52 52 58 58 52 52 55 57 60 61 58 57 57 60 63 73 76 76 76 75 67 66 66 72 75 78 81 85 93 94 96 99 108 112 120 123 120 120 123 129 129 129 127 127 129 130 132 130 135 135 133 135 135 135 135 132 135 135 135 135 130 129 129 132 132 130 132 133 139 147 153 153 151 142 130 111 82 66 61 61 69 63 57 57 52 48 45 43 43 45 45 45 45 43 45 46 45 43 42 43 43 45 46 48 48 48 46 48 48 51 60 61 69 69 69 75 75 75 78 79 82 82 78 72 72 64 63 61 52 52 52 52 52 57 58 52 51 49 49 49 48 48 48 48 48 48 46 46 46 46 46 45 43 46 48 49 49 49 46 46 45 45 43 43 46 46 48 48 48 46 45 39 37 37 36 37 39 37 37 37 37 37 39 40 42 40 39 37 37 40 45 46 46 46 45 43 40 42 46 49
49 51 51 52 55 58 58 54 52 52 54 54 55 55 55 58 58 58 58 58 58 58 52 52 55 60 60 58 57 55 58 58 58 58 58 52 52 52 52 52 54 57 57 57 60 57 54 52 52 51 52 54 60 60 58 57 54 55 57 61 60 54 52 57 61 66 72 73 75 75 72 67 69 69 70 70 73 79 87 87 90 96 105 105 114 120 120 120 120 121 123 123 123 124 127 130 133 130 132 133 129 129 132 133 133 133 135 135 135 135 130 127 124 121 121 121 127 129 138 145 150 151 151 150 147 133 121 94 66 60 60 60 57 52 49 46 45 42 42 45 45 46 46 46 46 49 60 60 60 61 61 57 49 51 49 49 48 48 51 54 61 63 75 75 73 75 67 67 73 73 70 64 61 61 64 69 76 76 69 63 61 58 54 55 55 57 60 60 58 51 49 46 46 46 46 46 45 45 45 46 48 48 48 48 48 49 51 49 48 45 45 42 42 40 40 45 45 46 46 45 42 37 37 37 36 36 37 37 37 39 39 39 39 40 40 42 40 39 39 40 42 45 45 46 46 45 42 40 45 48
49 49 51 52 55 58 58 55 52 52 51 51 51 52 54 60 60 57 57 58 58 58 52 51 52 57 57 57 55 55 57 57 58 57 57 54 52 52 52 54 54 54 55 55 54 52 51 52 51 49 51 55 60 60 58 55 52 52 55 60 58 54 52 54 57 60 66 73 75 73 70 69 67 69 69 69 70 78 84 87 90 99 103 105 106 112 117 120 120 120 120 123 123 123 123 126 127 127 126 126 126 124 124 124 127 130 133 133 133 133 127 121 118 112 112 112 118 124 135 141 150 153 154 154 151 147 139 127 97 61 60 58 58 51 49 46 46 45 45 45 46 48 49 60 69 76 76 79 82 90 90 84 84 78 66 61 60 60 52 54 57 57 60 61 72 73 72 73 73 72 66 63 61 60 60 61 60 63 69 75 76 76 63 60 57 57 57 58 57 52 49 46 45 43 42 43 43 42 43 45 46 48 48 48 48 49 49 48 48 46 45 43 42 42 40 42 43 45 46 45 43 39 39 39 37 36 37 37 37 40 42 43 42 42 42 43 43 43 42 42 42 43 45 46 49 48 45 40 45 48
49 49 51 51 54 55 58 55 54 52 51 51 51 51 54 55 57 55 57 57 57 54 51 49 49 52 52 55 54 55 57 58 57 57 55 54 54 54 58 58 58 54 51 51 51 51 51 52 57 57 52 54 60 60 58 54 51 52 54 58 58 54 52 52 55 60 60 66 67 63 63 61 61 61 61 66 73 78 87 87 90 97 103 106 108 111 114 114 115 115 118 124 124 124 123 121 121 124 123 121 121 123 120 118 118 126 126 126 126 127 123 114 111 102 97 97 102 112 129 139 144 150 153 157 157 153 150 139 124 91 69 61 61 61 61 61 61 61 61 61 51 52 58 63 82 90 90 81 79 78 78 79 85 93 93 85 67 61 61 55 57 57 61 61 61 61 67 76 79 79 70 63 60 58 58 57 57 60 60 61 64 73 72 69 66 61 61 61 60 52 49 48 46 43 40 39 40 42 43 43 46 46 48 48 49 49 49 49 48 46 46 45 43 43 42 42 42 43 46 45 45 43 42 40 39 39 40 40 39 42 42 45 45 45 43 43 45 45 45 45 45 46 46 48 49 48 45 39 43 46
49 51 51 51 52 52 54 52 52 52 51 51 51 52 52 52 54 54 54 55 55 52 49 48 48 49 52 54 54 55 55 58 58 55 54 54 54 58 58 58 57 54 51 51 52 58 58 58 60 60 54 54 57 57 58 54 51 51 54 58 57 55 52 52 54 55 58 57 61 60 60 60 60 60 60 61 73 78 84 87 90 97 105 105 106 106 108 106 108 112 117 120 121 121 123 123 123 123 124 120 118 118 115 114 114 118 117 117 121 121 117 108 105 90 82 82 84 91 109 127 136 142 150 153 156 156 150 142 133 118 93 66 63 67 72 72 69 75 84 84 84 79 61 60 63 88 97 97 82 76 76 73 73 76 84 90 87 85 81 66 61 60 60 61 61 61 64 64 67 81 81 76 61 60 60 60 58 55 57 57 57 60 61 61 66 69 67 67 61 60 54 49 49 46 43 40 39 39 40 42 45 46 46 48 51 57 57 51 48 48 48 48 46 46 45 43 45 43 45 45 45 45 45 43 42 43 45 45 43 45 45 46 46 46 45 45 43 45 45 45 45 45 46 48 48 46 42 37 42 46
49 49 49 51 51 51 51 52 52 52 52 51 52 52 52 52 54 54 54 54 54 52 51 48 48 49 51 52 54 54 55 55 55 55 54 52 55 58 57 57 55 54 54 58 58 58 58 60 60 60 55 54 55 58 55 52 51 52 54 58 55 54 52 52 52 52 54 55 57 57 57 57 55 55 55 57 64 75 84 88 93 94 100 103 103 106 109 109 106 106 115 117 118 118 124 124 123 123 123 118 111 109 109 115 118 118 115 115 120 120 115 103 97 81 76 75 73 73 85 111 121 132 139 147 151 151 150 145 138 130 112 81 69 63 66 76 76 73 73 78 88 88 84 64 66 76 90 97 94 84 79 82 82 64 64 70 84 96 96 85 76 69 61 60 60 61 63 64 64 66 81 81 81 69 61 60 60 60 60 58 57 57 58 60 57 61 61 61 61 60 55 52 51 48 45 40 39 39 39 39 42 43 45 46 49 52 52 51 48 48 48 49 48 46 45 45 46 45 43 43 45 46 46 46 46 45 46 46 46 46 46 46 46 46 46 46 45 45 43 43 43 43 43 46 46 45 43 39 43 46
49 49 49 49 51 51 52 54 60 60 54 51 51 51 52 54 55 55 54 52 52 51 49 49 49 49 51 51 52 52 54 54 55 54 52 52 54 58 57 55 54 54 57 58 60 60 58 60 60 58 58 54 55 58 52 51 51 52 55 55 55 54 52 51 52 52 52 52 54 55 55 58 58 55 58 61 66 75 87 90 93 93 93 100 103 106 106 109 108 114 117 111 111 115 120 123 121 121 121 114 106 106 106 109 118 120 117 121 121 118 108 99 87 79 73 67 61 61 70 81 93 109 121 132 139 144 142 139 133 129 124 111 91 75 64 72 75 67 64 64 67 78 79 78 93 93 84 84 93 94 82 79 82 81 72 61 61 78 85 84 82 82 79 67 64 61 61 61 64 66 66 66 76 78 75 66 61 61 60 61 61 60 58 55 55 57 57 57 57 55 55 54 52 49 46 43 40 40 39 39 39 40 42 43 46 48 49 49 49 49 49 48 48 46 45 45 46 45 43 42 43 43 46 46 46 46 45 46 46 46 46 46 46 46 48 48 48 45 42 40 42 43 45 45 45 43 42 40 46 48
49 49 49 49 51 51 51 55 57 58 54 51 51 51 52 55 55 55 55 52 51 49 49 49 49 51 51 52 52 52 52 54 54 54 52 52 54 58 57 55 54 55 57 58 58 60 58 60 58 58 58 58 55 54 52 49 51 52 58 58 55 55 54 58 58 58 55 54 55 57 57 57 60 61 78 82 82 78 81 88 91 93 93 97 102 105 105 108 111 112 115 111 115 117 118 123 121 121 121 115 108 108 108 106 114 120 118 123 123 118 111 103 94 87 76 66 61 61 63 63 70 82 96 112 127 133 133 132 129 127 124 121 105 88 73 69 67 67 66 72 72 67 63 63 76 91 93 93 96 96 94 76 73 73 81 75 60 60 67 73 78 76 73 72 72 69 61 61 61 64 66 66 66 66 76 75 64 61 60 60 61 63 61 60 54 52 52 52 52 58 58 55 52 51 48 45 45 43 42 39 39 40 42 43 46 48 49 51 51 49 49 48 48 46 46 45 46 45 45 42 39 39 42 45 45 45 45 45 46 46 46 46 46 46 48 48 48 46 45 42 43 45 45 45 43 40 40 40 45 48
51 49 49 49 51 49 49 51 52 54 52 52 51 52 54 55 55 55 55 54 51 49 49 49 49 51 51 52 52 52 52 52 54 54 52 51 52 55 57 58 58 57 55 57 58 58 58 60 57 57 58 58 57 55 52 51 51 54 58 58 55 55 55 58 58 57 55 54 54 55 60 66 81 85 88 88 87 79 78 79 82 91 94 96 99 100 100 103 108 109 111 111 112 114 114 117 117 115 115 114 114 114 112 106 109 115 115 120 123 123 120 120 112 100 90 76 66 61 60 60 60 61 76 85 103 118 120 121 126 126 121 117 106 97 84 73 69 69 75 75 75 72 66 61 61 61 67 82 88 90 90 81 70 70 73 79 66 63 64 67 73 70 70 69 66 66 64 64 64 64 64 64 69 69 72 73 72 63 61 60 60 61 61 61 60 58 52 52 54 58 58 57 57 51 48 46 45 43 42 39 39 40 42 43 46 48 49 49 51 51 49 49 49 48 48 46 46 46 45 42 39 39 40 42 43 43 45 45 46 48 48 48 48 48 48 48 48 46 45 43 45 45 45 45 42 40 40 39 42 46
49 49 49 51 51 51 49 49 49 51 52 52 52 54 54 54 54 54 54 55 52 51 49 49 49 51 51 51 52 51 52 52 54 54 54 54 58 58 58 58 58 57 55 57 57 57 57 60 58 57 58 58 58 55 54 51 51 52 55 57 58 58 55 55 55 57 55 58 61 75 81 91 97 97 94 94 88 82 76 76 78 88 96 96 93 93 96 99 100 102 108 108 108 108 106 106 105 105 111 111 112 114 109 108 108 109 114 117 120 124 124 124 123 114 112 100 81 63 60 58 57 60 61 64 81 94 99 105 112 118 120 114 106 100 90 82 75 70 73 75 75 75 69 66 63 61 61 61 64 67 78 76 73 72 67 66 69 69 64 64 72 72 66 61 57 57 57 61 69 76 76 66 66 76 76 75 73 70 64 61 60 60 60 60 61 60 58 60 60 60 57 57 57 52 49 46 46 45 43 42 39 37 39 43 45 48 48 49 49 49 49 49 49 49 48 48 48 46 46 43 39 40 40 42 42 42 43 45 46 48 48 49 49 49 49 48 48 46 45 43 43 43 42 43 43 43 43 42 43 48
51 49 51 51 52 52 51 49 49 49 51 51 52 52 52 52 52 52 54 55 54 52 51 49 49 49 51 51 52 52 54 55 58 58 57 57 57 60 60 58 57 57 58 58 57 57 57 58 57 55 55 57 58 58 55 54 52 52 54 55 58 57 55 54 55 61 76 90 97 102 102 100 111 111 106 103 93 84 78 75 75 84 94 93 88 88 93 96 93 94 100 103 105 103 102 102 102 102 102 102 106 108 108 105 105 100 100 108 112 118 120 123 124 124 124 124 103 85 64 57 55 55 58 57 61 73 82 94 100 103 111 105 99 91 87 87 81 70 67 67 76 76 73 67 67 66 61 60 60 60 64 72 73 73 70 61 61 64 67 63 63 70 69 60 57 55 57 57 61 70 76 73 69 72 78 79 79 79 70 66 61 58 57 58 57 61 61 61 61 57 57 55 55 52 51 49 48 48 46 43 39 39 40 45 46 48 49 49 49 49 49 49 48 49 48 48 48 46 46 45 42 40 40 40 40 39 42 43 46 48 49 49 51 51 49 48 46 45 45 43 42 42 40 43 45 46 45 45 46 48
52 51 52 52 54 54 52 51 49 49 49 49 51 52 52 52 52 52 54 54 54 51 51 51 51 51 51 52 52 52 54 55 58 57 55 54 57 58 58 58 58 57 58 58 58 58 57 58 57 55 54 55 57 58 55 55 55 54 54 55 55 57 60 69 84 94 108 112 112 105 105 106 115 120 120 111 100 94 79 75 75 79 82 84 85 87 88 90 85 85 94 96 97 99 103 103 99 96 96 102 103 106 106 99 96 88 85 85 94 100 109 120 126 130 132 132 127 120 94 63 58 55 54 55 58 60 61 79 85 85 91 90 88 88 87 85 81 76 69 67 67 76 76 75 66 64 66 60 55 57 60 61 67 72 72 64 63 61 66 69 67 69 70 67 60 58 61 61 60 60 63 67 72 73 78 79 81 81 75 69 66 61 58 57 57 60 60 61 60 57 54 54 52 51 51 49 49 49 48 45 42 40 42 46 48 49 49 49 49 49 49 49 49 49 48 48 48 48 46 45 43 43 43 45 43 40 42 43 45 48 48 49 51 49 49 48 48 46 46 43 43 45 45 46 46 46 46 46 46 49
55 54 54 54 52 52 52 52 52 51 49 49 49 51 52 54 52 52 54 55 54 52 51 51 52 54 55 55 58 58 58 55 55 55 52 52 54 58 58 58 57 57 57 58 58 58 57 57 58 58 55 54 54 57 58 55 55 55 55 58 61 69 91 117 117 112 108 105 105 105 108 121 127 130 130 127 112 108 93 76 73 73 76 81 85 87 88 90 85 85 87 90 91 96 100 99 91 91 96 103 106 103 97 94 90 81 73 73 78 82 94 112 120 127 135 136 136 130 117 91 69 60 54 52 52 55 60 61 66 76 81 82 85 88 85 85 82 82 81 78 67 70 81 81 69 64 66 66 61 55 57 60 64 69 67 66 66 63 63 66 69 69 69 70 66 61 60 61 61 60 57 57 63 66 70 76 78 76 70 67 69 66 61 58 58 57 58 57 55 55 54 54 51 51 49 49 49 49 48 46 43 40 42 45 48 49 51 49 49 49 49 49 49 49 48 48 48 48 48 46 46 46 46 46 46 43 42 40 43 46 48 49 49 49 48 49 49 48 46 43 45 46 46 48 48 46 45 45 46 49
55 54 54 58 58 54 52 58 58 52 51 49 49 49 52 54 58 58 58 58 58 54 51 51 54 55 58 58 58 58 58 58 57 55 54 54 58 58 57 57 55 55 55 57 58 57 55 57 57 58 58 58 58 55 55 55 54 55 61 78 93 97 112 120 120 112 108 103 103 106 115 130 138 138 138 136 121 109 100 84 75 73 73 79 84 85 85 85 85 85 85 85 88 90 91 94 91 91 97 106 106 105 100 94 87 78 70 70 70 76 85 105 115 123 130 136 136 132 126 118 100 72 60 54 52 52 54 55 61 61 73 78 79 85 84 82 85 88 88 82 78 78 75 76 73 66 64 64 66 60 55 57 61 66 69 69 67 67 63 63 66 69 69 72 70 67 61 60 61 61 61 57 57 60 61 67 73 73 73 72 70 67 61 58 57 55 54 52 52 52 54 54 54 58 57 51 51 49 48 46 45 42 40 42 46 49 51 51 51 51 51 51 51 49 49 49 49 48 48 49 48 48 46 46 46 45 43 42 43 46 48 49 48 48 48 46 46 45 43 43 45 46 48 48 48 46 43 40 45 49
54 54 55 58 55 52 52 54 54 52 51 49 49 49 52 54 58 58 58 58 55 52 51 51 52 55 58 58 58 57 57 58 57 55 55 55 58 57 55 55 54 54 54 58 58 55 54 54 55 57 58 60 60 60 55 57 57 66 93 108 109 111 117 117 109 103 103 97 97 103 121 133 141 141 139 130 120 111 102 90 76 67 67 75 81 78 78 78 81 85 85 85 87 87 88 88 88 93 102 108 109 111 111 109 100 88 72 63 63 64 78 93 108 118 124 132 136 135 130 126 120 102 76 61 54 52 52 52 55 60 61 67 70 76 78 78 79 87 85 82 82 79 70 70 72 73 69 64 64 66 61 57 60 61 69 69 67 69 67 63 63 66 69 69 72 70 67 60 60 63 63 61 58 57 60 61 61 69 70 70 72 69 63 61 60 55 52 51 51 52 54 54 55 57 58 58 52 49 49 48 45 42 40 42 46 49 51 51 51 51 51 51 51 51 51 49 49 49 49 49 49 48 46 46 46 45 45 45 45 46 48 48 46 46 46 46 45 43 43 43 45 46 48 48 48 46 42 39 43 48
54 54 54 54 52 51 51 51 52 52 52 52 51 51 51 54 57 57 57 57 55 52 51 49 51 54 57 57 57 57 55 57 60 60 58 57 55 55 54 52 52 52 55 57 55 54 52 52 55 58 57 57 60 58 58 60 67 94 111 112 115 115 112 100 93 91 85 84 84 100 126 135 139 139 135 126 117 109 100 90 79 72 67 67 75 75 76 76 79 82 85 85 85 85 88 88 88 91 102 109 115 118 118 118 117 108 88 69 60 60 66 81 90 97 112 120 126 130 130 129 127 121 105 84 61 55 54 58 58 57 57 60 61 66 75 75 75 81 87 85 85 81 70 66 66 73 72 66 64 64 61 60 57 57 63 66 67 69 69 69 66 63 66 70 69 73 73 64 61 60 63 63 60 55 55 55 60 60 61 69 72 70 69 64 60 57 52 52 51 51 52 54 55 57 58 55 52 51 49 48 45 42 42 43 48 49 51 51 51 52 51 51 51 51 51 51 49 49 49 49 49 48 48 46 46 46 46 46 46 46 46 46 45 45 43 43 45 43 45 45 46 46 46 48 48 46 43 40 42 48
54 54 52 51 51 51 51 51 51 54 52 51 51 49 51 52 54 55 57 57 55 52 51 51 51 52 54 55 54 54 54 58 58 58 57 55 54 52 54 54 54 54 54 55 55 54 52 52 55 58 57 57 58 58 57 66 88 108 112 112 114 105 97 90 84 81 76 76 79 103 130 135 135 135 133 127 120 114 105 99 93 81 72 63 63 70 73 75 75 78 79 82 81 81 84 88 88 90 97 111 117 120 121 121 121 118 109 93 64 60 60 64 73 82 94 103 117 126 129 129 127 126 120 105 81 61 57 55 58 57 60 57 57 61 69 72 72 76 81 84 85 82 75 70 66 66 69 70 63 61 61 60 57 58 60 64 70 72 72 72 70 63 63 70 70 70 69 69 64 60 60 61 66 66 60 54 54 57 61 66 72 72 72 67 61 57 54 52 51 52 52 54 54 55 55 55 54 52 51 48 46 45 45 43 46 49 51 51 52 52 52 52 51 51 49 49 49 49 49 49 49 48 48 46 46 46 48 46 46 46 45 43 43 43 43 43 43 43 45 45 46 45 46 48 48 46 43 42 40 46
52 52 52 51 51 52 52 52 52 51 51 49 51 51 51 52 52 54 55 57 57 55 52 51 51 52 52 54 54 54 58 60 60 58 57 54 52 52 52 52 54 54 54 55 60 60 55 54 58 58 57 55 55 57 61 91 103 106 105 99 85 82 82 84 79 70 67 67 90 121 133 135 135 132 130 127 127 127 120 106 100 94 81 66 61 61 66 70 70 73 78 82 79 79 79 85 90 91 93 102 109 114 121 121 121 123 121 120 97 72 61 60 61 70 82 93 103 117 126 127 127 127 126 120 105 84 61 57 55 57 60 60 57 60 61 64 70 75 79 82 85 84 82 79 69 66 67 70 64 61 61 61 58 55 58 61 69 73 73 72 69 66 66 66 72 72 69 66 67 64 61 61 66 66 66 61 58 57 60 63 66 72 69 66 61 57 54 51 51 54 58 58 58 58 55 55 55 54 52 49 48 46 45 45 46 49 52 57 58 54 54 54 51 51 49 49 49 49 48 49 49 48 46 46 46 46 48 46 46 46 45 43 45 45 46 45 45 42 45 46 46 46 46 46 46 46 45 43 45 48
51 52 52 54 55 54 54 52 51 51 51 51 51 52 55 60 60 55 55 55 55 54 52 51 51 52 55 58 58 58 57 60 60 57 55 54 54 52 54 52 52 52 54 55 58 57 55 55 58 57 55 54 54 57 67 91 94 90 85 82 70 70 75 78 79 72 67 79 118 133 135 135 133 129 127 127 133 133 127 112 106 103 91 76 63 61 61 69 72 70 76 82 78 78 81 88 90 91 91 91 97 105 114 120 121 124 130 130 130 114 85 61 60 61 73 84 90 102 115 120 123 127 127 123 117 102 79 61 54 55 58 60 60 60 60 60 61 72 76 79 82 84 81 81 75 66 69 69 66 61 61 61 60 55 55 60 66 69 70 67 66 69 69 67 66 76 76 67 69 69 63 61 64 70 70 67 61 58 58 57 61 66 66 63 61 57 54 52 54 58 58 58 58 58 57 57 55 55 52 49 49 48 46 46 46 49 51 54 52 52 52 54 52 51 49 49 49 49 49 49 49 48 48 46 48 48 48 48 48 48 48 46 46 46 46 46 46 45 46 48 48 48 48 46 46 46 46 46 46 48
51 51 52 54 54 54 52 52 52 52 52 54 55 58 58 58 58 60 57 55 55 54 52 51 52 54 57 58 58 58 57 60 58 57 58 58 55 55 55 55 54 54 54 55 55 55 55 55 58 57 55 55 55 57 70 84 84 81 78 75 67 67 73 79 79 78 90 114 130 130 130 126 126 126 127 133 142 142 138 126 115 105 96 88 72 63 61 61 61 67 75 81 79 78 81 87 84 84 87 90 91 96 100 112 118 121 129 135 133 132 117 82 63 60 61 67 79 91 102 108 117 123 126 123 120 111 91 76 61 55 55 58 61 61 61 57 57 61 66 73 78 79 79 81 81 64 64 69 66 61 61 61 60 55 52 57 64 66 64 61 61 66 69 69 66 70 76 75 69 69 69 61 61 66 72 70 69 61 57 57 60 61 63 63 61 57 52 52 54 57 60 60 57 57 57 58 58 55 52 51 49 48 46 46 48 49 49 51 52 52 52 52 52 52 52 52 51 51 49 49 49 48 48 49 49 48 48 46 48 48 49 48 48 48 48 48 46 46 46 48 48 49 48 48 46 46 46 46 46 48
51 51 51 52 52 51 51 52 52 54 55 55 58 58 58 57 57 60 57 55 54 52 52 52 52 54 55 58 58 57 57 57 57 57 58 57 54 55 54 54 54 54 55 54 54 52 54 58 58 57 55 55 57 60 72 84 81 75 73 67 67 67 72 76 78 102 126 130 130 127 123 118 118 123 129 142 147 147 147 132 118 105 99 94 82 73 67 61 61 64 70 76 78 79 82 79 73 73 78 79 82 85 90 103 105 112 121 129 135 135 133 120 97 69 60 60 64 78 82 97 106 111 114 112 112 105 97 94 76 60 55 55 57 57 57 60 60 60 60 61 67 70 73 76 78 67 64 66 66 60 57 57 57 54 54 57 61 61 63 61 61 64 67 69 69 69 72 75 72 72 70 64 61 61 64 72 70 64 61 60 58 57 60 61 61 60 52 52 52 55 58 57 57 55 54 54 54 54 51 49 49 48 46 46 48 49 49 51 52 52 52 52 52 54 57 58 58 52 51 49 49 49 49 49 49 48 48 46 46 48 48 48 48 48 48 48 46 46 46 46 48 48 48 48 46 46 46 46 46 48
54 60 60 52 51 52 51 51 52 52 54 55 57 60 60 57 57 58 57 54 52 52 52 52 54 54 55 58 58 58 57 55 57 58 58 54 52 52 52 52 52 55 55 55 54 54 55 58 58 55 55 55 55 60 67 82 79 70 67 72 70 69 70 73 94 124 130 129 126 121 118 112 112 123 132 147 147 147 139 130 121 114 106 99 88 78 72 64 61 61 66 73 75 76 79 76 67 67 70 70 73 78 81 85 94 99 111 121 130 136 136 136 124 93 63 60 61 63 70 82 91 96 100 99 99 99 97 97 94 75 61 54 54 55 57 60 60 58 57 58 60 61 64 67 72 69 64 66 64 60 57 54 54 57 54 57 61 63 63 61 61 61 63 66 70 72 72 72 72 72 72 69 61 60 60 66 72 72 69 61 57 57 57 57 60 60 58 52 51 51 54 55 54 52 51 51 51 51 49 49 48 46 46 46 49 51 51 52 52 54 54 54 54 55 57 58 58 54 51 51 51 49 51 49 51 49 49 48 46 46 48 48 48 48 46 46 48 46 46 46 46 48 46 46 46 48 48 48 48 49
55 57 58 54 51 51 51 49 51 57 58 55 57 60 60 58 58 58 57 55 54 52 52 54 55 57 58 58 58 58 57 55 57 58 58 54 52 51 51 52 58 58 57 55 54 54 54 55 57 57 55 55 55 57 70 82 75 67 67 75 75 72 73 91 121 124 123 121 112 103 99 99 109 124 136 147 147 141 130 121 117 117 112 103 91 82 75 69 63 61 61 66 72 75 76 78 75 72 69 69 64 64 67 73 79 88 99 108 121 129 135 136 132 117 94 64 58 57 61 70 73 81 82 85 85 85 90 100 100 93 79 61 57 58 60 60 57 55 54 58 57 60 60 61 63 61 61 61 61 57 52 51 52 58 58 57 63 63 61 60 60 61 61 63 67 69 70 70 72 73 73 70 64 61 60 60 67 72 72 64 60 55 55 58 57 60 60 54 52 52 52 52 52 52 51 51 49 49 49 49 48 48 48 48 49 51 52 52 54 55 54 55 55 57 57 58 55 52 51 51 52 52 52 54 54 52 51 49 48 46 48 48 49 48 48 46 48 48 48 48 48 48 48 48 49 49 49 49 48 49
54 55 54 52 49 49 51 51 52 55 57 57 57 58 58 58 58 57 57 55 54 52 52 54 55 57 58 58 57 55 57 57 57 57 57 55 52 52 51 52 55 58 57 58 58 58 54 54 54 54 55 54 57 60 75 82 75 67 70 76 76 73 91 124 124 118 112 108 99 94 91 93 109 129 141 142 138 132 127 117 115 115 112 105 90 87 81 76 70 64 61 61 67 70 75 78 78 75 67 66 64 63 63 63 67 79 87 93 105 117 127 135 133 126 112 85 63 60 60 61 61 70 70 76 78 81 88 97 100 99 94 79 61 57 58 60 55 55 55 58 55 55 57 58 60 60 60 60 60 55 52 54 60 60 57 57 61 63 61 60 60 61 61 61 61 61 64 69 73 73 73 72 66 66 60 60 63 69 72 69 61 61 58 57 57 58 60 55 54 54 58 58 58 58 54 54 52 51 51 49 48 48 48 48 49 49 51 52 52 52 54 55 54 55 57 58 55 54 52 52 52 52 54 54 54 52 51 49 49 48 48 48 49 49 49 49 49 48 49 48 49 49 49 49 49 49 49 48 48 49
51 52 52 51 51 49 51 52 54 54 54 55 57 58 58 58 58 57 57 58 58 55 54 52 54 55 58 58 58 55 57 57 57 58 58 57 55 52 52 52 55 57 57 57 58 58 58 55 54 54 54 54 57 60 75 82 76 67 67 72 73 79 111 124 123 115 103 93 85 84 84 90 117 132 136 136 132 126 123 117 115 115 112 106 97 91 84 79 75 72 66 64 63 63 70 78 75 70 66 64 66 66 61 61 61 67 79 84 94 105 120 127 133 132 123 111 82 63 60 60 60 63 69 70 70 78 87 100 99 97 99 91 69 60 57 57 57 55 55 55 55 58 58 55 57 58 57 60 57 57 55 57 60 60 57 60 61 63 61 60 58 58 61 60 60 60 61 64 69 70 70 67 66 64 61 60 61 63 63 66 66 66 61 57 55 55 57 54 52 54 55 57 57 58 57 55 54 52 49 49 49 48 49 49 49 49 51 52 52 52 52 51 52 52 54 55 55 54 52 51 51 51 51 51 51 52 52 51 51 49 49 48 49 49 49 49 49 49 49 49 51 51 49 49 49 49 49 48 48 49
51 51 51 51 51 51 51 51 51 51 51 51 54 55 57 58 57 55 55 57 57 55 52 52 52 55 58 58 58 58 58 58 57 58 58 58 57 55 54 54 54 55 55 57 58 58 57 57 58 58 55 54 57 61 75 75 73 67 66 66 75 100 117 120 115 108 96 82 79 79 81 96 121 129 129 130 129 126 123 120 117 117 114 105 96 94 87 81 75 72 70 66 61 61 63 72 70 67 64 64 66 66 61 60 60 61 70 78 82 97 112 121 129 130 129 126 105 82 72 60 58 60 63 64 69 73 84 97 97 97 97 96 81 69 61 57 55 54 55 55 60 60 57 58 54 54 54 54 54 55 57 57 57 57 57 57 64 64 60 58 55 57 57 57 57 57 60 61 64 66 66 66 66 64 63 61 60 61 61 63 69 69 61 60 55 54 54 54 54 54 54 55 55 55 57 58 58 52 51 49 49 49 49 49 49 51 52 52 52 54 51 51 52 52 52 54 54 52 52 52 51 51 49 49 51 51 51 51 51 51 49 48 48 48 49 49 49 49 49 49 49 51 51 49 49 49 48 46 46 49
52 52 52 51 51 51 51 49 49 49 49 51 51 54 58 55 55 54 55 55 54 52 51 51 52 54 57 57 58 57 57 57 57 57 58 58 57 57 55 55 58 58 55 57 57 58 58 57 58 57 55 55 57 64 75 72 67 66 66 70 90 109 115 108 103 100 91 79 75 75 84 109 124 123 124 126 129 127 126 124 121 114 108 97 91 87 87 84 75 72 69 66 61 60 60 63 67 69 69 72 72 70 66 64 63 61 61 67 78 85 99 115 118 121 123 120 108 94 79 61 57 57 60 61 64 67 78 82 85 85 88 93 88 84 76 60 54 52 55 57 58 58 57 55 52 51 51 51 51 52 55 58 58 55 55 57 61 61 57 52 51 52 52 52 52 55 58 58 60 61 61 63 64 64 64 61 60 60 60 61 64 64 61 60 57 54 52 54 54 55 55 54 52 52 55 57 58 54 52 51 49 49 49 49 51 51 52 54 52 52 52 52 54 52 52 51 52 52 52 52 51 49 48 48 49 51 51 51 51 51 49 48 48 48 49 49 51 49 49 49 49 49 49 51 51 49 49 48 48 49
54 54 52 51 51 51 51 51 51 51 51 51 51 54 58 55 54 54 54 54 52 51 49 51 51 52 54 57 57 57 55 55 55 57 58 58 58 60 60 58 57 57 55 55 57 57 58 58 57 58 57 57 60 64 78 78 69 66 67 87 103 105 100 94 85 84 82 73 67 67 91 117 121 120 120 123 127 129 130 130 124 112 105 96 91 87 87 84 76 72 67 66 64 61 60 60 61 69 73 73 73 72 69 69 69 66 63 61 63 73 81 99 105 112 114 108 102 94 78 64 60 55 55 60 60 61 67 73 78 78 78 82 84 90 90 75 61 58 54 55 55 55 54 54 52 51 51 57 58 55 58 58 57 57 60 60 61 60 55 51 51 51 52 52 54 54 55 55 57 58 57 57 61 63 64 61 61 57 57 60 61 61 60 60 57 54 51 52 54 55 55 55 54 54 54 55 58 55 52 49 49 49 51 51 51 51 52 54 54 52 52 52 54 52 51 49 51 51 52 51 49 46 48 48 49 49 51 51 51 49 49 49 48 49 49 49 51 49 49 49 49 49 49 49 51 49 48 46 46 49
52 52 51 51 51 51 51 51 51 51 51 51 51 52 54 54 52 52 52 54 52 51 49 49 51 52 54 55 55 55 54 54 55 58 58 58 58 60 58 57 57 55 55 54 55 57 58 57 58 58 57 58 60 63 73 73 69 67 82 102 105 103 94 87 78 70 70 66 66 78 111 120 118 114 114 118 127 136 136 132 124 112 106 96 84 84 84 84 78 70 67 66 64 61 61 61 60 63 67 72 72 72 72 69 69 69 67 61 61 61 75 84 91 97 99 99 94 85 76 70 61 60 58 57 58 60 61 69 72 72 73 75 79 88 90 85 76 61 57 57 52 54 54 54 52 52 52 55 60 60 60 58 57 55 58 60 60 57 54 51 51 51 51 52 54 54 54 52 52 54 54 55 58 61 61 60 58 57 55 57 58 57 58 57 54 52 51 52 52 55 55 55 55 55 54 52 54 54 57 57 51 49 51 51 51 51 52 54 52 52 52 52 51 51 49 49 49 49 49 49 48 46 48 48 49 49 51 51 49 49 49 49 49 49 49 49 49 51 51 52 51 51 51 51 52 51 49 48 48 49
51 51 51 51 51 51 51 49 49 51 51 51 49 51 52 52 52 51 52 52 52 51 49 51 51 52 55 55 55 55 55 55 57 58 58 58 58 58 57 57 55 55 55 55 55 55 57 57 58 57 57 60 60 63 72 73 69 67 87 100 97 91 84 79 70 66 64 64 70 93 117 115 109 109 112 121 129 136 135 124 117 103 97 85 81 79 78 78 75 67 67 67 66 61 61 61 60 60 61 70 69 69 72 67 67 72 72 63 61 61 64 70 81 81 82 85 82 78 73 72 66 61 61 58 57 57 60 61 63 69 72 72 78 88 88 88 82 67 60 58 55 54 54 55 54 52 51 54 60 60 60 58 57 55 55 57 60 55 52 51 51 51 51 51 52 52 52 52 52 51 51 52 55 58 57 57 54 52 52 52 52 52 54 54 52 52 51 52 54 55 55 55 54 52 52 51 51 52 57 54 51 49 49 49 51 51 52 52 51 51 52 52 51 51 49 49 48 48 48 48 48 48 49 49 49 49 49 49 48 48 49 49 49 49 51 49 49 49 51 52 52 51 51 52 54 52 51 49 49 51
52 52 51 51 51 51 49 49 49 51 51 51 51 51 52 54 54 52 52 52 51 51 51 51 52 55 58 58 57 58 58 60 60 58 58 58 58 58 57 55 55 55 55 54 54 54 54 55 58 57 57 57 60 63 72 73 67 67 78 87 82 78 70 70 67 66 66 64 78 97 105 99 99 100 117 126 130 130 126 114 103 97 91 84 78 76 75 70 67 69 69 69 69 61 61 61 61 60 60 61 66 69 73 73 72 72 72 66 63 63 63 63 64 66 75 78 76 73 72 72 69 66 61 57 55 55 57 58 60 61 66 67 73 81 87 85 82 76 63 60 55 54 55 55 54 52 51 52 57 58 57 57 55 54 52 54 55 55 52 52 51 51 51 49 49 51 51 54 52 52 51 51 54 55 55 54 52 52 51 51 51 49 49 51 52 52 52 52 54 55 58 58 54 51 51 51 51 52 52 52 49 48 48 49 49 51 52 51 51 51 52 52 52 49 48 48 48 49 49 48 48 49 51 51 51 51 49 49 48 46 48 48 49 49 51 51 49 49 49 51 51 51 51 52 52 52 51 49 49 51
54 54 52 51 51 49 49 49 49 51 51 51 51 51 52 55 54 54 52 52 52 52 52 52 54 55 57 57 60 60 60 60 60 60 60 60 58 58 57 58 58 58 55 54 52 52 52 54 55 58 57 57 60 61 66 66 66 72 76 79 73 69 69 69 69 69 70 72 87 96 93 84 84 91 117 126 127 123 112 99 90 88 85 81 75 75 72 69 67 67 69 67 64 61 61 61 60 57 57 60 60 64 67 73 73 72 72 70 66 63 61 61 61 61 64 72 72 69 69 69 66 66 64 61 58 52 52 54 55 57 61 64 72 76 81 81 78 73 69 60 55 54 55 55 54 54 58 58 57 57 58 54 54 54 58 58 55 55 55 54 52 52 51 51 51 51 52 52 52 51 51 51 51 54 54 52 52 51 51 51 51 49 49 51 52 52 52 52 52 54 57 58 54 52 51 51 52 51 51 49 49 48 48 49 49 52 52 52 51 52 52 52 51 49 48 48 48 49 49 48 48 48 49 51 51 51 49 49 49 48 48 48 49 49 51 51 49 49 48 49 51 51 51 51 51 49 48 46 48 49
52 54 54 54 51 51 51 51 51 51 52 52 52 54 55 55 54 52 52 52 55 55 54 54 54 54 55 57 60 60 57 57 57 58 60 57 57 57 57 57 57 58 57 58 58 52 51 51 54 55 55 55 57 60 67 69 67 72 75 75 72 70 72 72 72 69 70 78 93 96 94 85 84 94 120 124 118 109 97 90 84 79 78 76 75 73 70 72 69 67 69 64 61 60 60 60 55 52 52 55 57 60 61 66 72 67 67 69 69 64 63 61 61 61 61 61 61 66 69 66 64 64 66 66 63 60 55 54 57 57 60 60 64 70 75 75 75 73 66 61 57 54 55 55 55 55 58 58 57 55 55 54 54 55 57 58 55 57 58 58 58 57 58 58 54 52 52 51 51 51 51 51 51 51 52 52 51 51 51 51 52 52 57 58 54 52 52 52 54 54 55 55 55 54 54 54 52 51 51 49 49 48 46 48 51 52 55 54 52 52 52 51 49 49 48 49 49 49 49 49 49 49 49 51 49 49 49 48 48 48 48 49 48 49 51 51 51 49 49 49 49 49 49 49 49 48 46 45 48 51
58 58 55 54 54 52 52 52 52 54 55 55 55 55 57 57 55 54 54 55 55 55 54 54 54 58 58 58 60 57 57 57 58 57 58 57 55 54 54 55 57 60 60 60 60 55 54 52 54 55 58 58 58 57 63 69 69 69 69 70 70 69 70 72 72 69 69 82 93 96 90 84 91 112 124 118 111 100 85 81 78 76 73 72 70 67 66 66 66 63 63 63 61 57 57 60 55 54 58 58 57 57 60 60 61 61 63 64 61 61 61 61 61 60 60 58 57 61 63 61 61 61 64 64 66 60 57 55 57 57 57 57 61 61 66 66 66 72 69 61 60 57 58 58 57 58 60 60 55 54 54 54 54 55 57 57 58 57 57 57 57 57 57 57 55 54 52 52 52 52 51 51 51 51 51 52 52 51 51 52 55 55 58 58 58 54 52 54 55 55 55 55 55 54 54 52 52 51 51 51 49 48 48 48 49 52 54 55 52 52 51 51 49 49 49 51 51 49 49 51 51 49 49 49 49 48 48 48 48 46 48 48 48 49 51 51 51 51 49 49 49 49 49 49 49 48 48 46 48 52
58 55 52 52 52 52 51 51 52 54 55 55 55 55 55 55 57 60 60 57 55 55 54 55 55 57 57 58 60 58 55 55 58 57 58 55 54 52 52 52 55 58 60 60 60 58 58 55 55 58 58 58 58 58 57 64 69 67 66 66 67 67 69 72 72 70 76 90 88 85 84 90 109 121 120 103 97 93 84 78 76 75 72 72 66 63 61 60 60 60 60 57 57 57 57 57 55 54 54 54 52 54 58 57 60 57 57 60 60 60 60 60 58 57 55 55 58 60 60 58 60 57 61 61 63 61 58 55 55 54 55 58 60 61 63 61 61 64 64 61 57 57 57 57 57 58 57 58 54 51 52 54 54 55 57 58 60 60 55 55 55 54 55 55 54 52 52 54 58 58 58 54 52 52 52 54 54 52 52 52 54 58 58 58 57 54 54 55 57 60 60 55 54 52 52 52 52 52 52 51 51 49 49 49 49 52 55 58 58 52 52 51 51 49 49 51 51 49 49 49 49 49 48 48 48 48 49 48 46 45 46 48 48 49 49 51 49 49 49 51 51 51 51 51 51 51 51 49 49 51
52 52 49 49 49 51 51 51 51 51 52 52 54 54 54 55 55 57 60 57 57 55 55 55 55 57 57 58 60 58 55 55 55 57 55 55 54 52 52 54 55 57 57 57 58 58 57 57 58 57 57 58 57 55 58 60 64 66 64 64 69 69 69 72 70 73 81 90 88 84 85 111 120 118 106 94 88 82 76 70 70 66 61 61 60 60 60 57 57 57 55 57 55 54 54 55 54 54 52 52 52 58 58 55 55 57 57 57 57 55 54 52 54 54 54 58 58 57 55 54 55 57 60 60 60 61 60 60 54 52 58 58 58 60 60 57 57 60 57 57 57 55 55 55 55 55 55 54 52 51 51 52 54 58 58 57 60 58 57 55 54 52 52 54 55 54 54 58 58 58 57 55 52 51 52 52 52 52 52 52 54 58 58 58 60 60 55 55 58 60 60 58 54 52 52 52 55 54 52 51 52 51 49 49 51 54 58 57 57 55 54 54 51 49 48 49 49 49 49 48 48 48 48 46 46 48 48 48 46 43 45 46 48 48 48 49 49 49 51 52 52 51 49 51 51 51 51 49 49 51
51 49 49 49 51 51 52 52 52 51 51 51 51 52 52 52 54 57 60 60 60 57 55 55 55 55 57 57 57 57 55 55 57 58 58 54 52 52 52 52 54 54 57 58 58 57 55 57 58 58 58 57 55 54 55 57 60 63 64 64 69 69 72 72 70 76 88 88 84 85 112 120 120 102 90 85 79 75 66 63 63 61 57 57 57 57 57 54 52 52 52 52 52 52 54 60 60 58 58 54 55 58 58 58 58 58 54 54 54 54 52 51 51 52 55 58 57 55 54 54 54 55 57 57 57 57 57 58 55 54 58 58 57 57 57 57 57 57 57 55 54 52 52 54 54 54 54 52 52 51 52 52 55 58 58 57 58 58 57 55 55 58 58 58 57 55 58 58 58 58 57 55 52 51 51 51 52 54 54 54 55 57 57 60 60 60 55 55 57 57 58 57 55 54 52 54 54 52 51 51 51 51 49 49 52 54 58 58 55 54 52 52 51 49 48 49 49 49 49 48 48 48 46 46 46 46 48 46 45 45 45 46 46 48 49 49 51 51 51 52 52 51 49 49 51 51 49 48 48 49
51 49 49 49 51 52 54 54 54 54 52 51 51 51 52 54 54 57 58 60 60 58 54 52 52 54 55 57 57 55 55 55 58 57 58 54 52 52 51 51 52 54 57 58 58 57 55 55 57 58 58 57 55 58 58 57 58 57 61 64 69 69 72 73 73 78 87 82 82 100 121 123 108 88 79 78 73 70 64 60 60 60 57 57 57 54 52 54 58 58 54 52 51 51 54 57 57 57 58 57 57 57 58 58 58 58 57 55 58 58 58 58 52 52 54 54 54 52 54 54 55 55 55 57 55 55 55 54 54 54 55 55 55 55 55 54 52 52 52 52 52 52 52 52 54 55 55 58 58 54 52 54 55 57 57 57 57 58 58 55 55 55 57 58 57 57 58 57 57 58 57 58 58 52 51 51 58 58 55 55 54 55 57 57 57 58 58 58 57 55 55 54 52 54 52 52 51 51 51 51 49 49 49 49 49 52 55 58 58 52 51 51 51 51 49 49 49 49 49 48 48 48 48 48 46 46 46 46 46 45 45 45 46 48 49 49 51 51 51 51 51 51 49 49 51 49 49 46 46 48
49 49 49 49 49 51 52 52 54 54 52 52 51 51 51 52 54 55 57 57 57 58 54 51 51 52 55 57 55 55 55 55 58 58 58 55 54 52 52 51 52 58 58 58 58 58 58 55 55 57 57 57 58 58 58 55 55 57 57 61 64 64 66 73 75 78 81 81 82 109 115 102 88 78 70 70 72 69 61 60 58 58 55 54 54 54 54 55 58 58 55 52 51 51 52 54 55 55 55 55 55 55 57 57 57 57 57 55 57 58 58 55 54 52 52 52 52 52 52 54 55 55 55 57 58 58 54 52 54 54 55 55 55 55 52 52 51 49 51 51 51 51 51 51 52 54 55 58 57 58 58 54 52 52 54 52 54 55 55 55 54 54 55 55 55 55 55 57 58 58 57 58 57 55 58 58 58 58 57 58 58 55 55 55 57 58 58 57 58 58 54 52 52 52 54 52 51 52 51 51 49 49 49 49 51 51 55 57 55 54 52 58 57 51 49 49 49 49 48 46 48 48 48 48 46 46 46 46 46 46 45 45 45 46 49 49 51 51 51 51 51 51 51 51 51 49 49 46 46 48
49 49 49 51 51 51 49 51 52 51 51 51 51 51 51 51 51 52 54 55 57 55 54 52 57 58 55 57 57 54 54 55 60 60 58 58 55 54 52 52 54 58 58 58 57 57 58 57 55 55 55 57 60 60 58 58 58 54 55 57 61 63 66 70 75 78 76 78 96 108 105 90 79 73 70 69 69 64 57 55 55 58 55 54 54 52 54 58 58 55 54 51 51 51 51 51 51 52 54 55 55 55 54 54 54 54 52 52 55 55 57 55 52 52 52 51 51 51 52 55 55 55 55 57 60 60 57 54 54 54 54 55 55 60 60 52 51 49 49 49 49 49 49 49 51 51 52 54 55 55 54 54 52 52 52 51 52 52 54 52 52 52 52 54 54 54 54 55 57 57 58 58 57 57 58 58 57 57 57 58 58 58 55 54 55 57 58 58 58 58 54 52 54 54 52 52 51 51 51 51 51 49 49 49 51 52 54 54 54 54 55 57 54 52 49 49 49 49 49 48 49 49 48 48 46 46 46 45 46 45 45 46 48 48 51 51 52 52 54 52 52 51 49 51 51 51 49 49 48 49
51 51 51 51 51 51 49 51 51 51 52 52 52 51 51 51 49 49 51 54 54 54 52 54 58 58 57 57 58 58 54 55 58 57 57 58 57 54 52 52 55 58 58 57 57 57 57 55 55 55 55 57 57 58 58 58 57 55 54 57 57 63 69 67 73 73 73 87 102 100 91 79 73 72 66 66 64 60 57 54 52 54 55 54 54 52 52 54 55 54 51 51 51 51 51 51 51 52 58 58 57 55 52 51 51 51 51 51 51 54 54 54 52 52 52 52 51 52 54 55 54 54 54 55 57 58 57 55 54 52 54 55 60 60 58 58 54 51 51 49 49 48 48 48 49 49 51 51 52 54 54 54 52 52 54 57 58 54 54 52 52 51 52 52 54 54 54 55 55 55 57 57 58 58 58 58 58 57 57 57 57 58 58 55 55 58 58 58 58 57 55 54 52 52 51 49 49 51 51 51 51 49 49 49 49 51 51 51 51 51 52 54 52 51 51 51 51 49 49 49 49 49 48 46 46 46 45 43 43 43 43 48 49 51 52 54 54 52 52 51 51 51 51 51 51 51 51 49 49 51
52 52 52 51 51 51 51 51 52 52 54 55 58 58 52 51 49 51 51 52 54 52 52 54 55 57 58 58 58 57 55 55 58 58 57 58 57 54 52 54 55 57 57 58 58 58 55 55 55 55 55 55 55 57 57 55 54 52 52 54 57 61 69 69 70 72 76 91 93 82 78 70 70 70 64 61 60 60 57 58 58 54 54 54 58 58 58 52 52 52 52 51 51 51 49 49 51 52 55 57 57 57 54 52 51 51 51 51 51 52 54 55 58 58 55 54 58 58 55 58 58 54 55 58 58 57 55 54 52 51 52 55 57 57 57 57 55 52 49 48 48 48 48 49 49 49 51 51 51 52 52 52 51 52 54 54 55 54 54 54 54 52 52 51 51 54 58 58 57 55 54 54 55 57 60 60 60 58 57 58 60 60 60 55 55 58 57 57 57 58 58 58 54 51 51 49 49 49 51 51 51 49 48 48 48 49 49 49 49 49 49 49 49 51 51 51 51 51 51 49 48 48 46 46 46 45 45 42 42 42 45 46 48 48 49 51 52 51 49 49 51 57 57 51 49 49 49 49 49 49
52 52 52 52 51 51 51 51 51 51 51 52 55 54 52 51 51 51 52 52 52 52 52 54 55 57 58 58 58 57 55 58 58 58 58 57 55 52 51 51 54 58 58 58 58 58 57 55 55 55 54 52 54 54 54 52 51 51 51 52 57 61 63 63 63 67 76 87 87 79 75 70 66 66 63 60 58 55 55 57 58 58 54 54 55 58 57 58 58 54 52 52 52 51 51 51 51 54 55 57 57 57 55 54 52 51 51 51 52 54 54 55 55 55 55 55 57 58 55 55 57 57 58 58 58 58 58 54 52 51 51 54 54 55 55 54 52 49 48 46 46 48 48 48 49 49 49 49 49 49 51 51 49 49 49 51 51 51 51 52 52 52 52 51 51 54 58 58 57 54 52 52 54 57 58 60 60 58 57 57 58 58 57 58 55 57 57 57 60 60 57 57 55 54 52 51 51 51 51 49 49 48 48 48 48 48 48 49 49 49 49 49 49 49 49 49 51 51 49 49 48 46 46 46 46 45 43 40 42 45 46 46 46 46 46 48 49 49 49 49 52 55 57 52 51 49 49 48 46 48
49 49 49 49 49 51 51 51 49 49 49 51 52 51 51 51 51 52 54 54 54 52 52 54 55 58 58 58 57 57 57 58 58 58 58 55 54 52 51 52 54 58 58 58 58 58 57 57 55 55 54 54 54 54 54 52 52 52 51 52 55 57 60 61 61 63 70 76 78 75 72 64 61 61 60 58 55 54 54 55 57 58 58 54 55 57 57 58 58 55 54 54 52 52 51 52 54 58 58 58 55 55 55 55 58 58 52 54 58 58 58 55 54 52 52 54 55 55 55 54 54 55 55 57 57 57 58 54 52 52 52 52 52 52 52 52 51 49 48 46 46 48 48 49 49 49 49 48 48 49 49 49 49 49 49 48 48 49 49 51 51 51 51 51 51 52 55 55 55 55 54 54 54 55 57 57 58 58 57 57 55 54 55 58 57 57 58 58 58 58 57 55 55 55 55 55 54 52 52 51 51 49 49 49 49 48 48 49 49 49 51 49 49 48 48 49 49 49 49 48 46 46 48 48 48 46 46 42 45 45 46 48 46 46 46 46 48 48 49 49 51 52 54 52 51 51 49 48 46 48
49 49 49 49 49 51 51 51 51 51 51 51 52 51 51 51 52 58 58 58 54 52 54 58 58 58 58 57 55 55 58 60 60 58 57 55 54 52 52 51 54 58 58 60 60 57 57 55 55 55 55 55 58 58 55 55 52 52 51 52 55 58 58 58 60 60 64 69 69 70 70 63 60 60 57 57 55 54 54 54 57 57 55 55 54 55 57 57 58 55 54 54 54 52 52 52 54 55 57 55 55 54 55 57 57 58 58 57 58 58 57 55 52 51 51 52 58 58 54 52 51 52 52 54 57 57 58 58 52 52 52 52 54 54 54 52 51 49 49 49 48 48 49 51 51 51 49 49 49 49 49 49 49 49 51 49 48 49 49 51 49 49 49 49 49 51 51 54 55 55 55 55 55 55 54 54 55 55 55 54 54 54 58 58 55 55 57 57 58 58 55 54 54 55 57 58 58 57 57 58 58 58 51 49 48 48 48 48 49 49 49 51 49 48 46 46 48 48 48 46 46 48 48 49 49 49 48 46 45 45 46 48 46 48 46 48 48 49 49 49 49 49 49 51 51 49 49 46 46 46
49 49 49 51 57 58 57 51 51 51 51 54 58 58 52 51 52 55 57 57 55 54 55 57 57 57 57 55 55 55 57 58 58 57 57 55 54 52 52 51 52 55 57 57 58 58 55 54 54 54 54 54 55 55 55 54 51 51 51 51 54 57 58 58 58 60 63 69 69 72 72 66 60 57 58 55 55 54 55 57 58 58 57 55 55 55 57 58 58 54 52 54 54 54 52 52 52 54 54 55 58 58 55 57 57 57 55 57 58 57 54 52 52 52 52 54 55 55 54 52 52 51 52 58 58 58 57 58 54 52 52 54 54 54 55 54 52 51 49 49 49 49 49 51 51 51 51 49 51 51 51 49 49 51 51 49 49 49 49 49 49 49 48 49 49 49 51 52 54 55 54 54 54 54 52 52 52 52 52 52 52 54 57 57 57 58 58 57 57 58 55 54 54 55 57 60 60 57 58 58 57 55 52 49 48 48 48 48 48 49 49 51 49 48 46 46 46 46 46 45 46 46 46 48 48 48 48 46 45 45 46 46 46 48 48 49 49 48 48 48 48 48 49 49 49 48 46 45 46 48
49 49 49 51 54 57 55 52 51 49 51 52 55 54 52 51 49 51 52 54 55 54 54 54 55 55 57 55 55 55 55 57 58 57 55 54 54 52 52 51 52 55 57 57 58 57 55 54 55 54 54 52 54 54 54 54 51 51 51 51 51 52 55 58 58 58 63 72 72 72 69 63 57 57 57 55 54 54 55 58 58 57 57 57 58 58 57 58 55 54 54 55 55 52 52 52 52 54 54 58 58 58 57 55 55 55 55 55 57 55 55 52 52 52 52 54 55 55 55 54 54 52 54 58 58 57 57 55 54 52 52 54 52 54 54 52 52 49 49 49 49 49 49 49 51 51 51 51 51 51 51 51 51 51 51 51 49 49 49 51 49 49 49 49 49 49 51 52 52 52 52 52 52 54 55 60 60 54 51 51 52 55 55 57 57 57 58 58 57 57 58 54 52 54 58 58 58 57 57 55 52 51 51 49 49 48 48 48 48 49 49 49 49 48 46 46 46 46 45 45 45 45 45 46 46 48 46 46 46 46 46 46 46 46 48 48 48 48 48 46 46 48 48 49 49 48 46 45 45 46
51 49 51 52 52 54 54 52 52 51 51 52 52 52 51 51 49 49 51 52 54 54 52 51 52 55 55 55 55 54 52 55 58 58 58 55 54 52 52 51 52 54 57 57 55 54 52 54 55 54 54 52 54 54 52 52 51 51 51 51 52 52 54 55 58 58 61 72 72 67 63 60 58 57 58 58 54 54 58 58 57 55 55 55 57 58 58 55 54 54 58 58 54 54 52 54 54 54 55 58 57 57 57 55 54 54 54 55 55 55 55 54 54 52 54 54 52 52 54 54 55 55 55 58 57 58 58 54 51 51 52 52 54 54 54 54 52 51 51 49 49 49 49 51 51 49 51 51 51 51 51 51 51 51 51 51 51 49 49 51 51 49 49 49 49 49 51 52 52 52 52 52 51 51 55 58 57 54 52 52 54 55 55 57 57 57 57 57 55 55 52 51 51 52 55 58 60 60 57 52 51 49 49 49 49 49 48 48 48 48 49 49 49 48 46 46 46 45 45 43 45 45 45 45 46 46 46 48 48 49 48 46 46 46 46 46 46 46 46 46 46 46 48 49 49 48 46 45 46 46
51 51 52 52 52 52 51 52 52 52 52 51 51 51 51 51 51 51 52 54 55 54 52 52 54 55 55 55 55 54 52 54 55 57 58 55 54 52 52 54 55 58 58 58 54 51 51 52 54 54 52 51 51 52 52 52 51 51 51 52 54 54 58 58 60 60 61 69 67 64 63 60 57 55 55 57 58 58 58 58 55 54 52 52 55 55 57 55 54 55 58 58 57 58 58 58 55 55 55 57 58 57 55 54 54 54 54 55 55 55 55 55 54 55 58 58 52 51 52 54 55 58 60 60 58 57 55 52 51 51 52 54 54 54 54 52 52 51 51 49 49 51 51 51 51 51 51 51 49 49 51 51 51 49 49 49 49 49 49 49 49 49 48 48 48 49 51 52 52 52 51 51 51 51 52 54 54 52 52 58 58 54 54 55 55 55 55 54 54 52 51 48 49 51 52 55 57 58 60 58 54 51 51 49 49 49 48 48 48 48 48 48 48 46 46 46 46 46 45 43 45 43 43 45 46 46 46 48 49 49 48 46 46 45 45 43 43 43 45 46 46 46 48 48 48 48 48 46 46 46
49 51 51 52 51 51 51 51 51 51 51 49 51 51 52 52 54 58 58 58 57 57 55 57 58 58 57 55 55 55 54 54 57 57 55 55 52 52 54 54 55 57 57 58 58 52 52 58 58 52 51 51 51 51 51 51 51 51 51 52 55 57 58 58 60 60 61 64 66 64 63 60 55 52 54 55 58 58 57 57 58 58 54 52 52 55 55 55 55 57 58 58 58 58 58 58 57 55 55 57 57 55 54 54 54 54 54 54 54 54 55 55 58 58 58 58 54 51 52 54 55 58 58 60 57 55 55 54 52 51 51 52 51 51 52 52 51 49 49 49 51 51 51 49 51 51 51 51 51 51 52 52 52 51 49 49 49 49 48 48 48 48 48 48 49 49 51 52 54 52 51 51 51 51 52 52 52 52 54 58 55 54 52 52 54 55 54 52 52 51 49 48 49 49 51 51 52 57 58 58 55 52 51 49 48 48 46 48 46 46 46 46 45 43 43 43 45 45 43 42 42 43 43 46 48 48 46 46 46 46 46 46 45 45 43 42 43 45 46 46 46 46 46 48 48 48 48 46 45 46
49 49 49 51 51 51 51 51 51 51 51 49 49 51 52 54 55 58 60 60 57 55 55 55 55 54 55 54 55 55 55 58 58 55 55 52 52 52 54 54 58 58 58 57 58 55 55 55 55 54 51 51 51 51 51 51 51 51 51 52 55 57 57 60 60 57 57 63 69 69 61 57 54 52 52 54 55 55 55 55 60 60 55 55 57 60 60 55 52 54 57 58 57 57 58 57 58 55 55 55 55 54 55 55 55 55 55 55 54 55 60 60 58 57 57 58 55 54 55 55 55 57 58 60 58 55 55 54 52 51 51 51 49 51 51 52 51 49 49 51 57 57 52 51 51 51 51 51 51 52 52 52 54 51 51 49 49 49 49 49 49 48 49 49 49 49 49 51 52 54 52 51 51 51 52 52 52 52 55 58 58 55 54 58 58 57 58 60 60 58 51 51 49 51 51 49 51 52 55 58 54 51 49 49 48 46 46 46 46 46 43 43 42 42 42 43 43 42 42 42 43 45 45 46 46 46 46 45 45 45 45 45 45 43 42 42 45 45 46 46 45 43 45 46 48 48 46 46 46 46
49 49 49 49 49 51 51 49 51 51 52 51 51 51 51 52 55 58 60 60 58 58 54 52 51 51 52 54 54 54 55 60 60 58 54 52 52 52 52 55 57 57 58 57 57 58 55 55 54 52 51 51 51 51 52 52 52 51 52 52 55 55 57 58 58 57 60 60 63 61 61 57 54 52 58 58 54 54 55 58 58 60 58 55 57 58 57 54 52 52 54 57 58 55 55 55 58 55 54 52 54 58 58 55 55 55 55 54 54 55 58 58 55 54 54 54 55 55 55 55 55 58 58 58 58 58 58 58 52 51 51 51 51 57 58 58 58 58 54 54 58 55 52 51 51 51 49 49 49 51 51 51 51 51 51 49 49 49 51 51 49 49 49 49 51 49 49 51 52 54 52 51 51 51 51 51 52 54 55 58 58 55 55 58 57 57 60 60 60 57 52 51 51 52 52 52 52 52 55 55 54 52 51 49 49 48 48 48 46 46 45 45 45 45 43 43 42 42 43 43 45 45 45 46 46 48 46 45 43 45 45 45 43 42 40 42 43 43 43 42 42 43 45 46 48 46 46 46 46 48
51 51 49 49 49 49 49 49 49 51 52 58 58 54 52 54 55 57 58 58 58 58 55 52 52 54 54 54 54 52 55 57 58 57 58 52 52 51 52 52 54 55 55 55 55 57 55 54 52 51 49 49 51 51 52 54 54 52 54 52 54 55 58 57 57 58 60 57 57 57 57 55 54 54 58 57 54 54 54 55 57 58 57 54 54 54 55 54 54 52 52 55 60 60 55 55 55 54 52 51 51 54 55 55 54 52 52 52 54 55 58 58 58 52 51 52 54 55 54 54 54 55 57 57 57 57 57 58 55 54 52 52 54 58 57 57 57 57 55 55 54 52 51 51 51 49 49 49 49 49 49 49 49 49 49 49 51 51 51 51 51 51 51 51 49 51 51 52 54 54 52 51 51 51 51 51 51 52 54 55 55 55 55 55 55 57 57 57 57 55 52 52 58 58 55 54 54 54 54 54 54 52 51 51 49 49 48 48 48 48 48 48 46 46 45 45 45 43 43 43 43 42 42 43 46 48 46 45 42 43 45 45 43 39 39 40 42 43 42 42 42 43 46 48 46 45 42 43 45 49
52 52 51 49 49 49 49 49 51 52 60 60 57 55 54 54 55 57 57 57 58 55 54 52 55 55 58 58 58 54 54 55 58 57 57 58 54 51 51 51 51 52 54 58 58 57 55 54 52 51 49 49 51 51 52 52 52 52 52 52 52 54 58 58 57 57 57 55 55 55 54 54 52 54 55 55 55 54 52 54 55 58 57 54 52 52 54 55 55 55 54 55 58 58 57 55 54 52 51 49 49 51 54 55 58 58 54 54 54 57 57 60 60 54 52 52 54 55 54 52 52 54 54 52 52 52 55 58 57 55 54 52 54 54 55 54 54 54 54 54 52 51 51 51 51 49 49 49 49 49 49 48 48 49 49 49 51 51 51 51 51 51 51 51 51 51 51 52 52 51 49 49 51 49 49 49 49 51 51 51 52 54 54 54 54 55 58 58 58 54 52 54 60 60 58 55 54 52 52 52 51 51 51 49 49 49 49 48 48 49 48 48 46 46 46 46 45 43 43 42 42 40 40 43 45 46 46 45 43 43 43 43 40 37 37 39 42 42 40 40 42 45 46 46 45 42 40 42 43 48
54 54 52 51 51 51 51 52 54 55 60 60 57 55 54 55 55 58 58 58 58 54 51 52 54 55 58 58 58 55 52 55 58 57 55 54 52 51 49 49 51 51 54 55 55 55 54 54 54 52 51 51 49 51 51 51 49 51 51 51 51 54 58 58 58 55 54 52 52 51 51 51 51 52 54 54 54 54 52 52 54 54 54 52 52 54 55 55 55 54 54 55 57 57 55 54 52 52 52 52 57 58 55 58 58 58 57 55 55 57 57 57 58 60 54 52 54 55 55 54 52 52 51 51 51 52 54 58 55 54 54 54 54 54 52 51 51 51 52 51 49 49 49 49 49 49 49 49 49 48 48 48 48 49 49 49 49 49 49 49 49 49 49 49 49 49 49 49 49 49 49 49 49 49 49 49 49 51 51 52 58 58 55 60 60 58 58 57 57 55 54 55 58 58 57 55 52 51 51 51 51 51 49 48 48 49 49 49 49 49 48 48 46 46 46 46 46 45 42 40 39 39 40 45 46 46 46 45 43 43 43 43 40 36 37 39 40 39 39 39 42 45 46 46 43 42 40 42 45 46
49 51 52 51 51 51 52 54 55 57 57 60 58 55 55 55 57 58 57 57 55 52 51 51 52 55 57 57 57 54 52 54 58 55 54 52 51 49 49 49 49 51 51 52 52 51 51 51 51 51 51 51 49 49 48 49 51 51 51 49 51 52 58 57 57 60 60 55 52 52 49 49 49 52 58 58 54 52 51 51 51 51 49 51 52 58 58 58 58 54 52 54 54 57 55 55 54 54 54 58 55 55 55 55 57 55 55 54 55 55 55 55 55 55 52 52 52 54 52 52 52 51 51 51 51 52 52 54 52 51 52 52 52 52 51 51 51 51 51 49 48 48 48 46 48 49 49 49 48 46 48 48 49 49 49 49 48 48 46 46 46 46 48 48 48 49 49 49 49 49 49 48 49 49 49 49 51 51 49 52 54 57 57 58 60 58 57 57 55 55 55 55 55 57 55 54 51 49 51 52 54 52 51 51 57 57 57 51 49 49 48 48 46 46 43 45 45 45 43 39 36 36 37 45 46 48 48 46 45 45 45 45 40 37 36 37 39 39 39 40 42 43 45 45 45 43 43 43 45 46
49 51 51 51 51 51 52 54 54 54 57 58 58 60 60 57 55 57 55 55 54 52 51 51 51 54 58 58 57 52 51 51 51 52 52 51 51 49 49 49 49 49 51 49 49 49 49 49 49 49 49 49 49 48 48 49 51 51 49 48 49 52 58 58 57 57 58 57 54 52 49 49 49 52 55 55 52 52 51 51 51 49 49 51 52 55 57 58 57 54 51 52 54 57 57 55 55 55 58 55 54 52 51 52 54 52 52 51 51 51 51 51 51 49 49 49 49 51 49 49 49 51 51 51 49 51 51 51 49 48 49 49 51 51 51 51 51 51 49 49 48 48 46 46 48 49 49 49 48 48 48 48 49 49 49 49 48 48 46 46 46 46 48 48 48 49 49 49 49 49 49 48 49 51 51 51 51 49 48 49 51 52 52 55 57 57 55 54 54 54 54 54 54 54 54 52 51 49 51 52 54 52 51 52 54 55 55 52 49 49 48 48 46 43 42 42 45 45 45 40 37 37 37 43 46 46 48 48 46 46 45 46 45 40 36 36 37 37 39 39 39 40 42 43 45 45 45 45 45 48
51 52 52 52 52 54 58 58 55 58 58 58 58 60 58 57 54 54 52 52 52 51 51 49 51 52 55 58 58 52 51 49 49 51 51 49 49 48 48 48 48 48 49 48 48 48 48 48 48 48 48 48 48 48 46 48 48 48 48 48 48 51 54 58 58 55 55 54 51 49 48 49 49 51 52 54 52 52 51 51 49 49 49 49 49 51 54 57 58 54 51 52 54 54 54 54 52 52 54 52 51 49 49 49 49 49 49 48 48 48 49 48 48 48 48 48 48 49 49 49 49 49 51 51 49 49 48 48 48 48 48 48 49 49 49 49 49 49 49 49 48 48 48 48 48 49 49 49 49 48 48 46 48 48 49 49 48 48 46 46 46 46 46 46 48 48 49 49 49 49 49 49 49 51 52 51 51 48 46 48 48 49 49 49 52 52 54 54 54 54 52 54 54 54 54 52 51 51 51 51 51 49 49 51 52 52 52 51 49 49 46 46 43 42 39 42 43 43 42 39 37 37 39 42 45 45 46 46 46 45 46 46 46 42 36 34 34 36 36 37 37 37 37 42 43 45 45 43 40 46
54 54 54 54 54 58 58 58 58 58 57 58 58 57 55 54 52 52 52 52 52 51 49 48 48 49 51 52 52 51 49 48 49 48 48 48 48 46 46 46 46 46 46 48 48 48 46 46 45 45 46 48 48 48 46 46 46 46 48 46 48 48 52 58 55 52 49 49 49 48 48 48 49 49 49 51 51 51 49 49 48 48 48 48 48 48 51 54 58 52 51 51 52 52 51 51 49 49 49 49 49 49 48 48 48 48 48 46 46 48 48 48 48 46 46 46 48 48 48 48 48 49 51 51 49 46 46 46 46 46 46 46 46 48 48 48 48 48 48 48 48 48 46 48 48 48 48 48 48 48 46 46 46 48 49 49 48 48 48 46 46 45 45 46 46 48 48 49 49 49 49 49 49 51 51 51 49 48 46 46 46 48 48 48 49 51 52 52 52 54 54 54 54 54 52 51 51 51 51 51 49 49 49 49 51 51 52 51 49 48 45 43 40 39 39 39 40 39 39 36 36 36 37 37 40 40 42 42 42 42 43 43 42 37 33 31 33 33 34 36 34 36 36 39 40 40 39 37 36 46
54 54 54 55 58 58 58 58 57 57 55 54 54 52 51 51 51 52 52 54 52 49 48 46 46 46 48 48 48 48 46 46 46 45 45 45 45 43 42 42 45 45 45 46 46 46 46 46 45 45 45 46 46 46 46 45 45 45 46 46 46 48 49 52 52 51 49 48 46 46 46 48 48 49 48 49 49 49 49 48 48 46 46 46 46 48 49 52 52 51 51 51 52 52 51 51 51 49 48 49 49 49 48 48 48 48 46 46 45 46 46 46 45 45 46 46 46 48 48 48 48 48 49 49 48 46 45 45 45 43 45 45 46 46 49 49 49 49 49 49 49 48 48 46 48 48 48 46 46 48 46 46 46 48 48 48 48 48 48 46 45 45 45 46 46 48 48 49 49 49 49 49 49 49 49 49 49 48 46 46 46 46 48 48 49 51 52 52 52 52 54 55 55 58 58 52 51 49 49 49 49 49 49 49 51 51 51 51 49 48 43 40 39 39 37 37 37 37 37 36 34 33 33 34 36 37 37 37 37 39 39 37 36 33 31 33 33 31 31 34 34 34 34 36 36 34 31 31 33 46
57 58 58 57 58 58 57 55 55 54 52 51 49 48 48 49 49 51 51 51 51 49 48 45 46 46 46 48 48 46 45 43 42 42 42 42 43 42 40 37 39 42 43 45 43 43 43 43 43 43 43 45 45 45 45 45 45 45 46 46 46 46 48 49 51 49 49 48 46 45 45 46 46 48 48 48 48 49 48 48 48 46 46 46 46 48 49 51 51 51 51 51 51 51 51 51 49 49 48 49 49 48 48 48 48 48 46 45 43 43 43 43 42 42 43 45 46 48 48 48 48 48 48 48 48 46 45 46 45 45 45 45 48 49 51 52 51 51 49 49 49 49 48 48 48 48 48 48 46 46 46 46 46 48 46 48 48 48 48 46 45 45 46 48 46 46 48 48 48 48 48 48 48 49 49 49 48 46 45 45 45 46 46 46 48 49 51 51 51 51 51 52 55 60 60 54 51 49 49 48 48 48 48 48 49 49 49 49 48 46 43 40 40 40 39 39 37 37 36 34 34 31 31 33 33 34 34 36 36 36 36 34 33 31 33 33 31 31 31 33 33 33 33 34 33 31 30 30 30 46
57 58 57 58 58 57 55 52 51 51 51 51 49 48 46 48 49 49 49 49 49 48 46 45 45 46 46 48 48 46 45 43 42 42 40 40 40 40 39 37 37 40 42 43 42 42 42 42 42 40 40 42 43 43 43 43 45 45 46 46 46 46 46 48 49 49 49 48 46 46 45 43 43 45 46 48 48 48 48 46 46 45 46 46 46 46 46 48 49 49 51 51 49 49 48 48 48 48 49 49 48 46 48 48 48 46 45 43 43 43 45 43 42 40 40 43 45 46 48 48 46 46 46 46 46 45 46 46 46 46 46 46 48 49 51 51 49 49 49 49 49 49 48 46 48 48 48 48 46 46 46 46 46 46 46 46 46 48 46 46 46 46 48 46 45 45 45 48 48 48 48 48 48 48 48 48 46 46 45 45 45 45 46 46 48 49 49 49 49 49 51 51 54 55 55 51 49 48 48 46 46 46 48 48 48 48 48 46 46 43 43 42 43 42 42 40 39 36 34 33 31 31 31 33 33 33 33 36 36 37 36 34 31 30 30 30 30 30 30 31 31 31 31 33 34 33 31 30 30 46
57 58 58 57 55 54 51 49 49 49 49 49 48 48 48 48 48 49 49 49 49 48 46 45 45 46 46 46 46 45 42 42 42 40 39 37 37 36 36 36 36 37 39 40 40 40 40 40 40 40 40 40 40 40 40 42 43 45 45 46 46 46 46 48 48 48 46 46 45 45 42 40 40 42 45 46 46 46 46 45 45 43 45 46 46 45 42 45 46 48 51 51 49 48 46 48 48 48 48 48 48 46 46 48 48 46 43 40 39 42 43 43 42 40 37 39 40 43 45 45 43 43 45 43 43 43 46 46 46 46 45 45 46 46 48 48 48 48 48 49 49 49 48 46 46 46 48 46 46 46 46 46 46 46 46 45 45 46 46 46 48 48 48 46 42 42 43 46 46 48 46 48 46 48 46 46 46 46 46 46 46 46 46 46 48 46 48 46 46 48 49 51 52 51 49 48 48 46 48 46 46 45 45 46 48 48 46 46 43 42 42 43 43 43 40 39 37 34 33 33 33 33 33 31 33 33 33 34 37 37 36 34 31 30 30 30 30 30 30 31 31 31 31 33 34 34 31 30 37 46
55 55 54 54 51 49 48 48 48 48 48 48 48 46 48 46 48 48 48 48 48 48 46 45 43 45 45 45 42 40 39 39 40 39 37 34 34 34 33 33 34 34 36 36 37 39 39 40 40 39 39 40 40 42 42 42 42 43 42 42 45 45 46 45 45 43 43 43 42 40 39 39 40 42 43 43 45 45 43 43 42 42 45 45 45 43 40 43 46 48 49 49 48 48 48 48 46 46 46 46 46 45 45 46 46 45 42 39 37 37 42 43 42 39 36 36 39 40 42 42 40 40 42 40 42 43 45 46 46 45 43 43 43 45 45 46 46 48 48 48 49 49 48 46 46 46 46 45 45 46 45 45 45 45 45 45 45 46 46 48 48 48 48 45 40 40 43 45 45 45 45 43 43 43 45 46 46 46 45 45 45 46 46 46 48 46 46 45 45 46 48 49 51 51 48 48 46 46 46 46 45 42 43 45 46 46 45 42 39 37 37 40 40 40 37 37 36 33 33 34 36 36 33 31 33 33 33 31 31 33 31 31 30 30 31 31 30 30 30 31 31 33 31 33 33 31 30 31 39 46
51 51 51 49 49 48 46 46 46 48 46 46 46 46 46 45 46 48 48 48 48 46 43 43 43 43 45 43 42 40 36 37 39 37 36 33 33 34 33 33 34 34 36 36 37 37 37 37 39 39 40 42 42 43 43 43 43 42 40 39 42 43 45 45 43 43 43 43 40 39 34 36 39 40 40 42 43 43 42 40 40 42 45 45 43 43 42 43 45 46 46 48 48 48 48 48 48 48 46 46 45 45 45 45 45 42 39 37 37 39 42 43 43 42 39 40 42 42 42 42 42 42 42 42 42 42 43 43 43 43 42 42 42 42 45 46 46 48 48 48 48 48 46 46 45 45 43 42 40 42 42 43 43 45 45 45 45 45 46 46 48 48 48 45 40 39 42 45 45 43 42 40 40 40 42 45 45 43 42 42 43 45 46 46 46 46 46 46 45 45 46 48 49 49 48 46 45 46 46 45 43 42 42 43 45 42 40 37 34 34 33 36 36 36 36 34 34 31 33 34 36 34 33 33 33 33 31 30 30 30 30 30 30 30 31 30 30 30 30 31 31 31 31 31 30 30 30 30 33 45
51 49 49 49 49 48 48 48 48 48 46 46 46 45 43 43 46 48 48 48 46 45 40 40 42 43 45 43 42 39 36 36 37 37 36 34 34 34 36 36 36 34 36 37 37 37 36 37 37 40 42 42 42 43 45 45 45 43 40 39 39 40 42 45 45 43 43 43 40 37 34 36 37 39 39 40 40 42 40 40 40 43 43 45 43 43 43 43 43 45 46 48 48 48 48 49 48 48 46 46 45 45 45 45 43 40 37 37 37 39 42 43 43 43 43 43 45 45 43 43 43 43 43 42 42 40 40 40 40 40 40 40 40 43 45 46 46 46 46 46 46 45 45 43 43 42 40 39 39 39 39 40 42 43 45 45 43 43 45 46 48 48 46 45 40 39 39 43 43 43 42 40 40 40 42 43 43 42 39 39 43 45 46 45 45 46 46 46 46 46 46 48 49 49 48 46 45 45 45 45 43 42 42 42 42 40 39 36 34 33 31 31 33 33 34 33 33 33 33 34 34 33 31 31 33 31 30 30 30 30 31 31 31 30 31 30 30 31 31 31 31 31 30 30 30 30 30 30 33 46
