P2
# Simple pgm image example
250 360
255
162 162 163 158 153 153 154 159 159 154 147 146 150 162 162 155 159 159 153 151 152 159 151 151 150 146 150 150 153 153 149 153 153 145 144 143 142 142 136 136 139 140 140 140 144 145 157 157 153 145 145 148 157 157 155 145 143 143 141 143 147 146 148 151 155 150 147 145 144 144 148 152 153 149 145 145 148 151 160 153 152 152 153 156 164 164 161 156 155 153 145 145 145 148 147 148 149 148 150 151 148 148 150 150 153 159 155 153 153 153 158 160 161 162 162 162 148 146 148 151 151 150 145 145 149 153 153 153 153 151 151 146 147 154 159 154 152 147 146 145 145 148 145 145 145 153 153 148 147 150 150 148 146 146 148 148 143 142 142 143 143 141 141 141 142 143 148 149 149 148 148 151 148 148 150 150 141 136 136 150 150 141 135 135 137 139 140 137 136 136 137 140 140 140 140 141 142 142 143 142 140 139 139 140 142 142 142 143 141 141 137 137 137 137 139 144 144 142 142 144 149 149 148 148 141 141 141 139 136 135 136 134 134 133 134 135 136 136 134 135 139 143 143 138 138 135 133 134 134 135
166 162 163 159 156 153 153 154 149 148 149 146 147 156 158 155 156 161 157 153 156 159 151 149 148 145 148 151 154 152 147 145 147 147 149 147 145 148 142 141 141 147 147 144 147 145 147 151 148 145 146 150 153 150 147 144 143 142 141 146 146 148 152 153 157 152 149 149 147 149 149 149 153 151 148 149 148 150 160 153 153 153 154 158 161 158 156 156 155 149 148 154 162 157 148 146 148 149 153 157 148 150 154 155 158 164 160 155 155 155 161 162 160 160 161 162 147 147 148 151 149 149 148 151 151 151 147 147 151 150 149 148 148 157 159 155 148 147 148 148 148 148 147 149 148 148 148 146 145 145 149 145 141 143 147 147 143 142 143 143 143 141 141 142 144 145 146 149 149 148 153 154 152 148 149 145 141 137 136 139 143 143 140 137 140 141 141 138 137 138 138 140 140 140 140 141 140 146 148 144 140 139 140 141 143 146 143 143 141 139 139 140 138 137 141 146 143 144 145 147 148 146 144 142 138 137 136 135 134 134 135 133 134 134 132 133 133 134 134 135 137 139 138 135 134 132 131 132 133 134
166 163 158 158 158 161 163 153 149 148 148 150 153 159 161 158 158 161 161 156 159 159 153 151 149 145 148 151 154 154 149 142 142 147 153 148 145 149 150 147 146 148 149 148 149 147 145 147 147 146 146 147 148 146 144 144 149 148 145 149 148 151 158 158 158 151 152 152 151 152 154 151 149 154 153 152 153 153 161 160 158 159 153 153 157 155 155 155 159 157 155 158 166 163 150 151 148 150 154 157 154 154 160 161 164 164 156 153 161 164 163 162 162 162 162 158 150 149 148 151 151 152 153 151 150 150 148 150 153 153 150 156 153 157 160 159 153 151 151 152 154 154 154 148 145 145 146 147 146 146 149 143 141 141 141 142 141 141 142 143 143 142 143 146 146 147 148 148 148 151 152 154 148 148 148 143 141 139 139 139 142 143 141 140 139 140 140 137 137 139 139 140 141 140 140 141 140 145 148 143 140 140 140 142 144 146 143 142 141 139 139 141 140 139 144 146 143 146 154 153 145 143 143 138 137 137 134 133 133 132 129 128 131 133 132 132 133 132 133 134 137 136 136 134 132 130 129 133 133 135
164 167 162 158 162 168 168 157 152 153 151 157 157 163 163 160 159 161 161 153 156 159 153 152 153 149 150 151 149 149 148 142 142 146 153 152 146 147 153 155 152 150 154 154 159 152 148 148 147 148 146 147 148 149 147 146 152 157 150 148 148 149 155 157 154 151 154 153 151 155 158 157 153 158 156 156 164 161 162 164 164 163 156 153 156 159 159 153 158 166 161 158 166 162 153 154 150 150 154 157 153 153 158 158 163 157 152 153 163 169 169 162 165 165 165 161 155 153 154 150 150 153 159 150 150 159 162 165 163 162 162 168 168 162 158 156 157 157 153 155 156 155 154 149 147 148 148 148 148 148 149 144 141 141 141 141 141 141 142 142 144 146 147 152 151 151 150 148 148 148 148 148 148 147 147 143 141 140 143 142 142 142 142 140 138 137 137 137 140 141 140 140 142 143 143 144 145 148 150 147 143 142 142 146 148 147 142 143 143 141 139 139 141 139 143 146 143 146 154 148 142 141 140 137 141 139 136 137 132 131 130 128 132 133 133 133 134 132 132 133 138 138 138 136 132 132 129 133 132 132
169 169 168 162 163 166 165 152 151 151 154 157 155 161 163 158 158 160 161 154 159 159 151 151 156 155 159 157 150 148 149 146 149 148 153 153 146 146 148 154 155 152 153 159 159 157 151 150 146 145 148 148 152 154 154 148 151 157 152 151 148 148 148 151 153 155 161 161 156 158 158 155 156 158 156 158 164 162 163 164 163 161 157 153 153 159 156 153 158 166 164 158 162 162 158 159 153 151 153 153 153 155 153 158 162 152 152 159 162 165 172 170 171 165 165 158 154 158 159 150 151 162 168 158 160 168 174 179 176 176 179 181 181 168 157 156 158 161 160 158 158 158 161 158 154 157 153 152 151 151 151 146 142 141 142 141 141 141 144 144 146 146 145 151 152 151 148 146 146 145 148 147 146 149 148 142 140 141 145 146 143 146 142 142 141 139 140 140 140 142 142 141 143 150 152 151 153 153 154 148 145 145 146 149 154 157 148 146 146 146 141 143 149 144 143 146 145 144 143 142 141 141 139 137 141 140 138 138 133 131 133 133 135 134 133 134 134 133 133 134 138 138 138 137 133 133 133 134 132 130
175 175 174 165 162 158 155 151 151 152 153 154 153 153 158 159 158 161 165 164 164 159 153 155 159 161 161 159 152 148 148 152 152 148 151 151 146 146 147 152 155 150 150 159 158 157 149 146 145 145 146 149 156 158 153 149 150 153 150 152 151 148 152 159 158 162 165 168 163 153 156 158 162 159 156 156 161 158 158 158 158 161 159 153 153 154 153 153 158 161 162 164 165 163 160 159 157 156 158 160 159 158 158 160 161 161 158 158 162 162 168 174 174 166 165 160 158 166 164 155 158 167 172 168 172 177 181 187 189 187 186 188 183 169 160 160 164 168 167 168 171 170 167 158 157 161 158 153 152 157 159 148 143 143 147 144 141 143 146 146 148 145 144 148 152 153 148 146 145 147 150 147 148 153 148 142 140 140 142 142 144 146 142 144 144 143 144 143 141 143 149 145 145 151 157 158 156 157 151 148 150 146 148 154 157 157 149 146 146 146 144 149 149 146 143 149 149 143 141 141 141 141 140 139 140 141 136 133 133 131 132 134 138 135 135 136 137 133 134 134 132 134 137 137 136 137 136 134 133 130
170 172 168 163 163 155 153 153 154 154 150 150 154 158 156 158 156 160 166 165 163 156 153 157 160 158 159 157 154 148 146 147 148 145 144 149 148 147 148 151 151 150 150 157 155 151 149 148 148 148 152 155 163 163 158 159 154 150 150 149 148 148 158 161 158 164 168 167 161 154 158 163 166 158 153 153 159 160 158 158 158 161 162 159 155 153 155 160 161 162 162 165 165 161 155 156 157 158 160 161 158 161 162 164 165 169 165 165 171 169 168 172 174 165 165 163 162 171 173 169 169 172 177 176 178 183 186 188 190 190 188 184 181 174 170 173 177 174 168 177 188 182 177 167 165 167 166 155 153 156 159 149 145 146 148 147 146 146 145 145 148 145 144 148 151 153 151 146 143 146 152 152 152 154 151 144 140 142 144 143 145 151 152 148 148 148 150 148 144 145 149 150 148 151 155 157 160 160 153 151 149 149 153 158 158 154 150 149 148 145 145 148 146 141 142 147 146 144 145 141 141 141 141 141 141 141 138 134 132 131 133 135 137 138 136 136 137 133 132 134 132 135 137 136 136 139 137 136 135 131
160 165 162 162 163 156 153 156 157 157 150 150 155 158 154 153 152 161 166 160 156 156 156 159 156 157 158 155 154 149 146 146 144 141 139 146 150 148 150 153 152 154 150 152 154 153 154 157 149 148 157 160 164 162 161 161 156 154 152 151 147 147 156 161 158 162 166 158 156 159 161 163 166 158 153 156 163 164 164 163 161 160 162 161 158 154 161 166 165 167 168 167 164 158 153 153 158 162 162 162 162 163 165 165 169 174 174 174 172 173 173 172 169 159 163 164 162 162 172 175 177 179 179 179 176 183 187 189 185 184 183 179 179 178 178 179 181 181 177 183 188 181 178 171 168 167 164 158 156 158 157 150 145 146 148 148 147 146 147 148 146 144 145 152 151 153 153 145 143 145 148 148 152 157 154 148 146 146 146 146 151 162 162 150 148 149 153 153 147 145 148 151 151 148 151 153 159 160 154 149 147 151 159 155 153 152 149 148 147 145 147 144 142 141 143 144 141 142 146 143 142 141 140 140 140 141 137 134 133 133 136 136 138 138 136 136 138 133 131 133 136 138 137 133 134 141 141 136 136 134
154 165 167 162 162 160 157 158 159 160 159 147 148 151 147 148 153 160 159 153 153 159 159 153 151 157 156 153 154 152 150 146 141 139 139 148 150 145 146 151 153 154 151 153 157 159 159 158 152 148 155 161 165 165 165 163 160 158 158 154 151 149 156 162 153 156 162 155 155 156 157 165 166 162 158 161 164 165 166 167 165 163 162 165 163 162 165 168 168 170 170 165 162 160 156 156 158 163 165 167 165 168 169 168 171 175 175 173 173 173 179 174 164 159 163 164 162 165 172 174 175 172 169 167 171 180 184 184 179 173 175 174 171 177 179 176 176 176 180 183 179 176 179 171 168 165 162 162 163 161 163 155 147 145 147 148 151 149 152 151 148 145 148 157 157 156 155 146 144 146 145 145 151 155 157 151 145 144 144 144 147 154 158 152 148 148 153 152 149 148 148 151 151 149 148 148 152 155 151 148 147 153 160 153 153 153 152 148 147 148 147 142 143 143 144 144 140 139 144 144 143 141 136 137 139 139 135 134 134 135 137 136 137 137 138 138 137 131 131 131 136 138 136 134 137 140 141 140 136 135
154 168 177 164 158 158 155 156 156 160 158 148 146 148 145 146 151 159 156 150 150 159 156 153 151 154 156 150 149 149 152 142 139 140 142 148 146 144 145 149 152 152 151 157 158 156 155 155 154 150 154 166 165 168 167 165 163 161 156 152 154 152 154 162 153 151 157 156 160 157 161 166 165 162 162 163 162 162 162 168 170 169 168 170 171 168 168 169 168 170 168 165 160 161 162 161 161 162 168 169 170 173 173 168 171 182 179 177 178 179 177 174 171 165 160 162 166 167 166 168 171 171 168 167 167 180 184 180 173 168 168 169 169 174 177 173 171 174 178 179 176 178 180 174 170 168 168 171 167 165 164 160 154 151 150 149 152 153 158 157 153 152 152 163 163 160 152 142 142 146 143 142 145 151 153 148 142 143 144 146 148 149 149 151 148 148 151 149 149 153 151 148 147 149 152 148 147 148 149 147 151 162 163 160 163 162 153 152 157 153 147 144 142 142 147 147 140 136 141 148 148 141 136 136 141 141 138 137 138 136 136 137 138 136 136 138 137 133 133 132 133 135 137 137 140 141 141 140 136 132
159 171 177 165 158 159 155 160 156 156 153 149 146 146 145 147 150 159 159 150 155 162 156 154 151 153 157 157 147 142 147 142 140 143 148 148 142 144 151 157 154 154 151 153 153 153 157 158 158 158 162 169 169 168 165 165 165 164 156 149 148 149 149 155 153 151 153 157 160 156 158 162 163 163 165 167 165 162 165 169 174 172 171 177 177 172 172 171 166 165 166 162 160 163 165 165 163 165 170 172 171 171 172 169 176 186 186 185 185 177 174 176 177 171 165 160 167 166 167 174 176 178 183 169 174 189 191 188 180 174 177 179 179 177 171 171 173 174 179 179 178 180 179 175 169 170 174 173 169 165 164 155 158 163 162 153 149 157 163 158 156 159 158 166 166 161 150 141 141 144 143 142 142 148 152 146 143 142 144 159 159 145 145 147 147 148 148 148 150 153 151 148 146 150 152 148 146 147 148 144 145 162 163 162 163 163 152 151 157 152 151 147 143 140 142 146 141 136 140 146 144 141 140 140 143 143 141 143 141 138 136 136 138 137 135 136 137 138 138 133 132 135 138 139 141 141 141 138 135 132
162 171 169 163 158 159 157 162 162 156 153 153 148 147 148 149 152 155 156 153 156 162 152 152 150 152 157 157 148 142 142 143 141 141 146 148 142 145 157 154 153 154 151 154 156 156 158 155 156 161 168 172 170 170 166 169 171 167 160 153 149 152 153 150 154 154 157 154 150 153 156 160 162 162 166 167 168 168 168 170 174 171 171 179 179 176 171 172 169 165 162 160 160 162 167 167 167 170 175 179 176 172 170 172 180 182 182 184 184 178 178 178 178 174 168 165 169 175 181 183 184 184 187 183 183 196 194 190 188 182 180 180 180 179 174 173 173 173 176 177 177 178 178 173 171 175 177 172 170 170 167 158 160 167 168 162 155 162 168 159 157 159 158 161 165 157 151 145 143 144 145 146 145 147 149 146 143 142 145 159 158 141 141 145 147 150 150 147 145 145 148 149 145 146 146 145 143 145 146 144 144 153 160 159 158 157 155 156 157 149 148 150 144 140 141 144 141 139 141 142 141 141 141 139 140 141 141 143 141 140 138 139 141 140 136 135 136 137 137 135 136 138 140 141 142 144 141 138 136 136
162 165 165 165 162 160 153 153 156 154 151 151 151 149 151 155 157 153 154 156 158 158 151 151 148 148 148 149 148 142 142 143 141 140 140 142 142 144 148 147 154 155 153 154 160 162 157 152 155 158 169 172 171 173 171 170 171 168 163 158 150 152 153 150 154 151 150 153 150 152 153 156 162 162 162 163 163 162 162 167 168 168 168 174 177 175 174 172 173 169 160 162 166 165 165 165 167 171 179 182 180 174 171 174 179 179 180 184 185 184 183 182 184 179 173 170 172 178 184 185 184 184 187 186 194 200 192 188 189 182 179 179 179 175 177 180 178 174 174 176 178 176 175 172 174 177 176 174 174 174 171 168 168 171 174 171 165 169 175 171 160 157 155 156 156 153 151 147 146 146 148 151 148 148 143 142 143 143 143 146 146 143 144 146 145 147 147 145 141 141 142 143 142 141 143 142 142 143 148 148 144 147 151 148 145 149 155 158 158 149 148 150 147 141 143 147 142 141 143 142 141 141 141 139 140 140 140 141 140 141 143 142 141 141 139 137 136 137 136 133 137 141 141 141 141 143 144 141 140 139
162 165 162 165 164 161 157 152 151 151 150 150 152 151 152 153 157 153 157 157 158 157 153 154 149 148 148 152 147 143 142 142 142 141 142 142 143 142 145 145 151 155 153 153 153 162 156 152 158 158 165 170 168 171 173 171 169 168 158 155 148 148 153 156 156 155 150 153 154 153 156 158 161 160 161 158 165 165 162 163 167 170 170 170 169 170 172 175 177 174 166 169 171 168 167 165 165 168 175 182 182 178 176 176 179 182 184 187 188 186 189 186 186 182 175 171 173 179 184 189 189 187 187 188 196 200 190 194 194 190 190 188 182 181 184 187 187 181 177 177 179 176 174 174 174 176 174 179 183 176 172 173 169 172 174 170 168 171 177 173 165 158 155 155 150 149 150 147 146 146 150 159 155 148 140 138 141 141 141 140 141 141 142 144 142 146 149 146 143 143 141 141 143 141 142 141 141 142 144 144 141 143 145 145 145 148 154 157 157 148 148 150 145 143 149 149 142 142 143 141 140 141 141 139 141 141 140 140 140 143 146 142 144 142 140 139 137 135 133 133 136 140 140 139 139 141 141 141 139 136
166 165 162 163 165 162 163 163 158 155 154 152 148 148 153 155 156 157 159 156 153 154 153 154 152 148 149 152 147 143 143 142 142 143 146 146 143 145 150 151 150 150 153 154 153 162 157 155 160 160 162 165 165 165 171 169 164 162 158 155 150 148 159 164 164 162 157 157 160 161 162 164 160 160 161 159 171 171 165 162 167 174 175 171 168 168 170 177 174 168 171 177 174 170 170 168 166 169 173 179 182 180 179 183 187 187 182 184 186 190 194 188 182 182 176 173 181 182 182 185 189 185 184 182 182 182 179 186 192 192 190 189 179 182 184 184 187 186 182 179 177 179 183 182 179 174 174 186 186 176 171 175 174 170 165 159 160 166 177 174 165 156 152 154 149 148 147 147 148 148 152 159 159 148 142 138 141 140 140 140 139 140 140 142 143 149 149 148 142 141 142 144 143 143 142 141 140 140 140 139 139 143 146 146 145 148 149 149 152 148 148 148 146 142 146 146 141 139 143 141 139 139 137 138 141 142 141 141 142 146 144 144 144 141 140 137 138 137 135 134 135 137 140 139 140 141 138 136 137 132
164 167 166 164 165 163 165 166 165 164 163 155 148 148 157 159 160 162 158 153 153 153 153 154 154 151 149 151 148 145 143 143 146 148 144 145 146 150 153 155 154 153 152 156 162 157 157 164 164 162 165 164 161 158 165 165 162 161 158 155 153 155 161 164 165 162 158 160 161 155 163 164 162 160 162 165 171 171 165 166 179 181 178 177 173 169 172 177 174 171 177 182 178 175 175 172 168 169 172 179 183 179 179 188 191 189 184 186 192 193 194 188 187 183 180 182 186 186 179 177 173 167 168 165 153 150 153 159 166 167 165 163 166 171 171 167 172 177 179 177 179 186 192 192 190 177 174 180 181 177 171 175 175 169 159 158 160 165 171 168 157 148 148 150 150 147 147 151 151 153 153 157 156 152 145 138 140 140 143 143 138 137 139 142 143 147 147 145 143 144 144 146 145 148 148 146 141 140 140 141 140 145 147 147 147 150 148 149 154 152 149 147 146 143 142 146 141 139 143 143 140 141 137 139 144 147 143 143 145 147 145 146 143 140 139 138 141 141 136 135 135 138 139 140 141 141 139 136 135 132
164 174 179 177 172 165 165 168 168 167 164 159 153 152 158 161 161 163 162 153 152 153 153 154 154 151 150 152 153 148 147 147 148 150 148 149 148 145 148 152 155 151 149 153 160 156 153 159 163 165 164 157 153 156 161 161 156 158 162 162 159 159 162 161 162 165 164 162 159 153 153 155 158 162 166 168 169 168 165 171 183 183 176 171 171 174 174 171 173 173 179 182 174 171 174 174 170 168 170 179 183 179 180 188 194 192 188 194 194 192 192 194 190 185 179 173 173 167 153 141 134 129 130 127 120 116 117 118 119 119 121 125 131 135 136 136 143 153 159 162 168 179 187 192 187 179 178 180 177 177 178 176 175 171 159 158 168 170 168 163 157 155 155 156 158 158 152 151 151 155 153 153 156 155 150 140 141 141 141 141 140 139 138 143 146 147 147 145 146 147 145 144 146 146 148 148 147 143 149 153 146 147 155 149 147 149 152 154 154 152 150 147 146 143 142 145 142 141 142 142 142 141 139 140 145 147 146 148 151 148 150 150 146 140 139 140 144 143 139 137 137 141 143 141 141 141 141 141 137 134
177 177 179 177 169 165 167 165 165 165 165 161 155 153 156 158 158 161 158 150 148 152 150 149 149 150 153 157 156 154 150 149 150 154 153 151 145 145 146 146 148 146 145 148 147 148 152 153 158 160 158 153 156 162 155 153 153 158 160 158 158 160 158 158 158 166 166 164 161 155 154 152 152 162 164 165 165 162 160 165 172 171 170 168 168 170 170 170 170 167 171 171 168 166 172 173 168 166 169 175 178 174 184 191 195 194 192 193 193 188 187 187 179 164 145 130 120 110 97 88 76 76 79 82 74 74 74 76 73 73 73 73 73 73 74 88 99 112 119 127 137 146 155 163 168 179 180 180 177 182 185 179 176 172 166 171 175 168 160 160 166 164 164 163 161 161 157 153 156 164 160 161 156 153 152 143 143 139 139 141 141 140 138 143 143 146 146 145 146 147 145 142 142 142 144 146 144 146 153 152 145 149 155 148 142 145 154 153 148 141 142 147 148 147 140 139 142 147 144 143 145 141 140 139 142 142 146 153 155 151 151 149 146 143 142 142 146 144 138 138 140 144 144 139 140 141 141 141 138 135
174 172 172 174 165 164 168 168 168 165 165 162 160 158 160 163 160 158 159 152 148 151 148 150 151 153 157 166 166 157 152 153 153 155 154 148 148 148 146 146 146 145 146 148 146 147 153 156 162 162 158 158 161 163 161 158 158 164 161 158 158 163 164 164 161 162 160 165 163 155 159 157 156 161 158 162 166 162 160 160 165 168 169 170 169 166 166 169 169 167 169 170 168 166 177 177 168 166 169 171 173 179 187 194 195 193 194 194 190 181 163 144 130 107 91 73 71 73 73 74 76 76 78 81 81 76 76 76 76 76 74 73 67 67 67 67 73 67 71 74 91 105 121 130 142 168 177 179 181 190 190 182 180 178 171 177 177 170 165 167 168 168 167 165 160 160 161 157 160 164 164 165 165 145 138 140 143 142 140 142 141 139 138 142 142 142 145 150 152 150 145 143 144 146 143 141 141 145 153 151 145 151 154 151 142 148 154 152 144 141 144 148 147 144 139 139 143 144 147 147 143 141 141 142 145 148 148 151 155 158 148 147 148 148 146 143 146 143 138 137 141 143 141 139 137 139 141 141 140 139
171 169 165 165 162 163 168 168 168 165 166 162 162 165 168 169 165 160 162 154 148 151 151 154 157 155 158 166 166 158 153 153 153 156 153 149 149 148 146 148 147 145 148 147 147 148 152 153 159 160 166 166 162 158 166 166 164 164 162 158 160 163 165 165 160 158 155 164 164 158 159 158 158 165 160 158 166 165 165 162 168 171 172 172 172 171 172 170 172 171 167 172 170 170 174 168 169 169 168 171 179 187 189 191 192 192 187 183 162 138 124 99 76 71 73 73 71 73 74 78 76 74 76 78 78 74 74 76 74 76 73 71 65 63 65 71 67 65 63 65 67 67 73 84 105 128 143 169 181 187 189 183 182 182 178 176 174 175 170 168 168 168 168 167 162 163 162 157 157 162 161 163 162 147 138 139 143 144 143 144 142 141 142 149 146 144 148 154 151 150 148 147 146 143 141 140 143 146 153 146 144 151 154 151 149 152 154 153 148 145 148 151 147 145 144 143 141 143 146 144 140 140 142 146 150 153 152 150 154 158 153 149 148 147 149 145 146 143 139 139 141 141 140 140 137 138 143 146 142 141
168 163 160 157 164 167 165 165 167 165 167 164 162 169 173 174 170 162 161 156 150 152 155 153 157 159 158 163 162 158 156 156 155 156 154 149 148 147 146 148 147 148 149 147 151 152 152 153 161 158 165 166 159 156 161 164 163 158 158 160 158 160 162 165 165 158 153 164 164 158 162 157 157 165 161 159 168 168 168 169 171 173 170 171 172 174 174 172 172 169 167 171 172 171 169 168 168 168 168 174 184 188 189 190 183 171 151 132 107 85 79 76 73 71 73 73 71 73 76 78 74 74 74 74 73 71 71 73 71 73 73 73 65 65 69 71 71 67 63 61 61 61 63 67 71 67 82 122 144 171 177 175 180 182 180 179 179 180 174 167 162 162 165 164 161 155 153 155 155 155 153 153 159 151 148 144 143 146 146 144 144 145 147 154 154 151 151 154 156 157 152 152 149 144 139 139 144 145 144 143 142 153 151 148 154 156 159 159 154 154 152 152 154 154 152 149 142 142 143 144 143 142 143 145 151 153 158 158 153 155 158 158 148 145 149 149 147 145 141 139 141 141 140 140 138 140 146 148 144 142
164 158 153 154 164 168 167 165 163 165 171 169 166 172 177 175 172 165 161 159 156 158 158 149 153 161 162 166 162 155 155 161 155 156 153 151 148 148 146 148 148 152 149 147 152 153 154 153 164 164 157 156 153 153 154 158 165 163 160 161 158 156 158 159 159 156 153 158 163 158 162 162 163 164 158 165 171 167 167 169 170 177 173 164 166 170 171 171 171 170 168 171 168 162 165 169 169 168 170 171 184 184 181 171 150 133 110 79 71 73 76 76 76 73 74 73 71 73 74 74 73 73 73 73 73 71 69 69 65 63 65 65 65 67 71 73 73 71 71 69 63 61 59 61 63 63 67 73 88 122 144 162 171 179 182 179 186 190 187 175 165 160 158 158 157 151 152 158 162 161 153 153 150 151 150 147 142 142 142 144 147 149 148 149 155 155 150 148 160 160 155 154 157 157 148 145 148 147 146 142 144 150 147 147 154 157 158 158 156 154 154 152 154 154 150 150 148 145 146 147 147 144 143 144 148 152 154 153 151 156 163 162 150 145 148 148 148 152 146 143 143 141 140 138 140 146 152 152 147 141
162 161 157 158 166 168 165 168 160 160 174 174 170 177 174 166 167 162 161 161 156 158 154 149 155 162 164 166 166 155 158 166 163 161 153 150 148 148 148 152 152 149 147 152 157 156 157 153 156 162 157 156 153 153 160 165 169 167 160 161 157 158 157 152 152 152 156 161 163 165 165 168 169 162 158 166 171 168 168 171 171 179 175 164 164 170 174 177 177 174 176 177 168 159 159 169 173 171 174 177 179 177 169 143 121 90 73 71 71 74 79 82 82 81 82 76 71 73 73 73 71 67 73 73 71 69 69 69 63 59 61 63 65 69 69 67 71 73 73 71 67 65 63 63 63 61 59 63 71 71 94 130 147 166 179 183 189 190 189 180 171 168 165 158 153 153 159 163 168 167 162 157 150 151 151 147 148 145 144 147 153 152 147 148 153 154 148 148 151 159 159 156 156 157 154 154 153 151 149 146 148 153 150 156 158 158 166 162 155 150 150 150 150 150 153 159 153 148 145 146 146 148 144 145 151 154 153 153 152 165 165 159 154 149 148 148 153 155 149 145 146 143 140 139 143 147 152 151 145 141
165 167 165 165 167 166 164 171 165 162 174 170 170 174 172 169 165 162 158 159 156 157 152 153 157 157 162 163 166 160 162 166 165 162 155 150 151 149 151 152 152 148 147 152 162 161 156 153 153 156 156 158 155 153 161 168 170 165 162 160 161 164 163 156 157 157 163 164 162 162 168 172 171 158 158 164 168 168 172 177 178 179 171 167 169 174 179 180 180 178 183 183 177 170 168 174 178 180 181 170 166 160 139 117 85 73 73 73 71 73 76 78 79 82 87 81 73 73 73 73 71 67 67 71 71 67 69 69 63 63 71 69 63 65 71 69 67 71 71 71 69 71 71 65 63 59 59 61 71 67 71 71 102 136 164 179 186 188 184 180 179 172 165 158 160 160 162 163 167 168 167 162 158 154 149 148 153 152 148 152 154 151 147 152 151 151 154 152 150 157 162 158 153 153 153 153 155 154 151 150 151 158 162 171 168 168 173 168 165 158 148 151 153 157 162 162 154 149 150 151 150 151 146 145 159 160 155 156 158 163 163 156 150 149 148 149 155 155 148 146 150 147 143 142 143 145 148 148 144 141
168 174 169 164 165 162 159 171 170 168 170 170 170 173 172 172 165 160 156 156 153 155 150 150 152 153 158 158 158 161 165 167 165 163 156 153 155 150 150 152 152 150 147 152 164 163 157 158 156 156 156 158 158 154 158 168 172 169 163 162 162 166 166 161 163 161 163 164 161 155 163 171 166 160 158 160 165 170 175 178 176 176 174 174 172 177 178 178 180 179 183 183 182 180 180 181 178 182 179 158 143 132 103 79 74 73 74 74 73 73 74 76 79 84 87 78 73 73 73 73 73 71 67 67 71 71 67 63 65 65 71 63 61 63 71 71 67 67 67 69 67 71 71 67 63 61 59 61 63 65 65 69 76 91 130 162 186 189 186 184 182 173 165 164 168 171 167 165 169 167 168 168 163 157 151 148 151 155 156 156 156 150 148 154 156 156 159 156 156 161 164 162 157 155 157 156 160 162 157 156 156 165 171 172 169 173 172 170 169 163 148 148 150 155 161 161 153 151 159 165 159 157 152 150 158 161 161 162 162 161 159 155 147 145 147 149 155 153 144 142 150 151 147 146 145 144 146 147 143 141
174 173 169 166 162 158 158 165 170 171 171 171 170 173 172 169 165 161 158 153 155 155 149 148 153 153 155 158 158 162 168 168 165 161 158 156 157 153 155 157 158 154 153 160 171 168 160 156 156 153 153 157 161 163 162 168 174 174 162 165 165 163 160 158 163 161 158 161 158 155 158 158 161 157 154 163 170 174 178 176 174 176 178 177 174 176 178 178 180 178 182 184 184 181 182 183 183 179 162 137 118 85 71 74 74 74 74 76 74 74 81 79 84 88 87 76 73 73 73 73 73 71 65 63 63 69 63 63 69 69 63 61 59 61 67 71 65 65 65 65 65 65 65 65 63 61 61 61 63 63 69 69 69 71 73 126 164 185 190 190 184 179 174 171 177 181 172 168 172 169 168 165 162 163 158 149 151 157 164 162 156 155 153 162 161 161 163 160 160 163 165 165 165 165 164 162 165 164 157 161 161 164 172 172 174 176 171 168 165 161 153 150 148 150 161 163 156 153 158 165 161 156 154 154 156 156 158 156 158 159 155 154 148 145 145 151 153 152 146 142 153 154 151 151 148 148 146 147 143 141
177 173 169 162 158 163 162 162 162 168 171 171 170 170 169 168 162 162 168 161 158 156 149 148 154 158 161 162 160 160 168 171 164 158 158 157 153 153 158 158 155 155 158 165 175 173 165 158 155 152 152 156 160 163 159 165 172 170 166 168 168 164 155 155 158 158 153 158 161 158 158 156 156 155 154 168 177 180 182 178 174 179 180 176 174 176 178 175 176 178 179 182 182 180 179 182 182 161 137 114 82 71 73 73 74 74 76 74 73 74 78 84 90 88 85 76 73 73 71 67 71 69 65 63 61 61 63 65 67 65 61 59 59 61 65 67 67 65 65 69 65 63 65 65 63 63 69 69 63 63 63 65 67 69 69 79 112 149 186 190 186 184 185 184 188 187 177 171 174 170 162 159 159 168 167 161 157 158 164 161 160 158 150 159 162 160 163 161 164 168 167 167 171 171 168 164 168 162 158 160 165 167 171 174 181 183 177 168 165 165 163 157 148 150 163 166 161 153 158 165 161 155 154 153 157 159 153 149 150 157 156 157 152 148 145 151 152 153 153 149 153 155 154 155 152 150 148 146 142 141
176 177 173 162 160 164 163 160 162 166 167 168 170 166 168 168 168 168 168 165 165 165 156 153 155 161 166 168 168 164 167 171 168 165 164 161 158 155 156 158 156 162 165 168 175 170 166 165 167 163 163 166 162 162 159 168 174 170 168 165 160 161 157 155 158 159 153 156 161 158 158 158 160 158 162 171 177 182 182 171 171 179 178 177 175 175 180 178 174 180 184 185 184 184 181 179 163 136 116 88 76 74 79 74 73 73 74 73 71 73 76 85 99 91 84 78 73 73 67 69 69 69 69 69 63 63 69 71 69 65 63 61 61 63 65 67 69 69 71 69 69 63 63 63 63 63 63 65 63 63 63 63 65 69 63 65 73 97 143 179 188 188 186 188 190 190 189 183 178 172 168 165 162 165 168 162 158 160 161 161 163 158 150 155 158 161 163 161 162 168 171 171 171 171 171 168 166 162 158 163 169 171 179 180 182 183 180 174 170 165 163 158 149 153 163 166 162 154 162 167 160 155 154 153 156 159 154 148 148 153 153 156 159 152 147 152 153 156 153 155 164 157 153 156 159 154 152 148 142 139
174 175 170 165 165 165 165 160 158 161 162 165 168 165 165 165 168 169 169 168 165 165 162 158 155 155 171 173 171 167 168 171 171 168 166 162 162 158 155 161 160 163 166 172 177 174 171 170 170 169 165 165 167 165 165 172 177 174 163 157 158 158 158 161 161 158 153 163 163 155 156 158 162 160 162 172 177 181 182 171 174 179 173 173 178 179 182 177 174 182 189 190 188 182 181 168 137 107 85 85 79 74 78 79 74 73 73 73 71 71 74 88 107 91 82 76 76 73 71 69 69 71 73 73 69 63 65 71 69 69 67 63 65 71 71 69 69 69 71 69 69 65 63 63 63 63 63 65 69 63 63 63 65 65 65 63 65 73 94 143 188 192 191 190 189 190 191 186 183 179 174 174 168 166 168 162 165 165 160 161 163 163 161 160 158 163 158 158 160 162 166 168 165 162 164 162 159 163 160 164 172 178 185 182 177 182 181 178 169 165 163 159 149 153 162 158 158 160 167 168 158 153 156 158 155 153 154 148 149 155 151 150 160 157 153 157 157 157 156 158 165 161 157 153 159 156 157 157 145 139
175 167 166 166 170 170 168 162 158 158 163 168 170 165 165 162 167 167 169 169 165 165 165 161 158 157 169 173 170 169 169 170 171 167 158 152 153 157 158 165 165 168 169 173 177 177 174 168 168 170 172 169 170 172 170 171 177 170 159 157 160 162 162 164 162 158 155 161 163 155 157 161 164 165 166 174 175 174 177 176 175 175 173 173 178 182 179 176 177 186 189 190 181 177 171 140 109 73 73 85 84 76 74 76 78 76 71 71 73 71 74 90 107 88 78 74 73 71 71 71 71 71 71 71 65 63 65 71 67 69 69 65 65 71 69 67 69 67 67 69 65 63 61 63 63 65 65 65 69 65 63 63 65 65 65 65 65 67 67 107 162 192 192 191 189 190 191 190 189 188 179 180 181 174 167 162 170 170 162 162 162 162 165 165 158 161 158 158 160 158 158 156 157 155 155 156 162 165 165 168 174 181 185 179 174 179 180 179 170 165 161 159 150 150 158 158 163 166 169 169 163 153 153 158 158 157 153 148 148 155 153 150 157 161 161 160 161 162 155 156 165 163 161 158 160 156 153 153 144 141
174 167 171 173 177 181 172 165 158 163 165 167 172 166 162 166 173 168 167 169 168 165 165 165 165 165 172 171 170 170 169 169 171 164 150 150 150 155 164 171 171 170 172 174 172 174 174 170 168 173 181 181 177 174 174 174 177 172 162 162 166 166 167 167 164 158 156 158 163 158 156 162 167 169 171 175 171 170 172 172 173 174 174 176 176 181 178 182 185 189 189 186 178 173 144 110 74 71 74 76 81 74 73 73 74 76 71 73 73 71 79 90 97 78 74 73 71 67 67 69 71 67 69 65 65 63 63 63 65 65 69 63 63 63 63 65 63 65 69 69 65 63 63 63 63 69 69 63 63 63 63 65 67 69 65 65 65 69 67 79 115 168 190 192 190 190 193 192 191 191 188 184 181 179 173 168 173 174 167 165 163 165 165 164 162 165 166 165 162 161 157 150 150 154 151 153 168 168 170 175 179 180 177 174 176 178 180 177 165 158 153 155 153 150 160 163 160 165 168 168 160 158 163 161 164 164 156 149 147 149 159 161 160 161 161 161 164 164 158 154 164 169 168 162 159 152 150 150 141 141
174 174 174 174 177 182 171 168 168 164 170 174 177 174 167 172 182 172 168 170 172 170 165 168 171 171 172 171 173 174 173 168 166 160 152 154 154 155 162 169 171 171 174 174 171 171 172 170 172 179 185 182 176 174 173 175 177 177 166 162 165 165 168 168 165 157 156 158 161 156 153 160 171 175 172 174 171 171 171 169 169 171 174 179 177 180 179 187 189 188 186 186 186 167 123 74 71 73 74 74 73 73 73 71 73 73 71 73 71 73 87 97 95 74 73 73 71 67 67 67 65 65 65 65 65 65 65 65 65 67 65 63 61 61 61 63 63 63 65 63 63 63 65 63 65 65 65 65 63 63 63 65 69 69 65 65 65 67 69 65 78 119 169 191 190 192 199 194 193 192 190 186 181 179 168 166 174 174 169 168 165 163 162 162 167 169 165 165 163 164 158 151 150 151 148 148 162 170 172 179 180 180 176 173 174 177 177 167 155 155 153 156 159 154 168 177 170 165 165 162 158 158 164 162 164 163 157 152 147 150 159 164 160 158 157 162 163 164 158 154 165 171 171 162 157 156 152 148 141 141
175 178 179 179 183 187 178 176 177 175 181 179 175 175 178 180 182 175 173 174 174 172 166 168 170 171 174 175 175 173 170 165 159 150 148 152 154 155 162 172 175 175 175 175 173 172 174 171 172 179 185 182 176 174 173 176 180 176 171 169 166 169 171 169 165 160 162 158 161 158 154 165 179 177 171 174 174 176 179 176 174 176 178 184 182 180 182 189 188 186 186 188 177 137 94 73 71 71 71 71 73 73 71 71 71 71 71 71 73 85 104 116 109 91 76 78 73 73 71 71 67 71 67 69 67 71 71 69 67 67 69 65 61 59 59 61 61 63 63 61 61 63 65 69 69 65 65 69 65 63 63 63 63 63 63 65 65 65 63 63 67 71 125 179 190 192 200 200 199 192 189 189 188 177 159 158 168 172 168 165 162 162 165 162 170 170 166 167 164 165 163 158 156 155 154 150 162 170 170 171 174 179 176 171 172 179 174 162 155 156 157 159 154 157 171 177 177 165 163 161 162 166 166 162 162 161 162 153 147 150 164 163 157 156 158 161 158 158 159 154 165 168 165 164 158 163 157 149 145 141
175 179 184 184 186 188 184 182 184 182 185 184 183 183 186 184 182 178 173 173 176 179 174 167 168 177 177 174 172 168 162 160 153 148 148 150 153 157 162 170 174 175 175 176 177 177 177 171 171 171 173 176 176 176 178 178 180 183 179 175 174 177 173 173 169 165 164 168 166 160 160 173 179 176 171 176 181 182 181 180 181 183 182 188 189 186 186 192 190 186 191 190 148 103 73 73 73 67 67 69 73 73 71 71 73 78 85 97 108 116 126 133 133 129 126 126 118 108 103 100 99 95 91 81 76 74 73 73 73 73 71 69 65 63 61 61 61 61 61 61 61 63 65 71 71 67 65 69 65 63 61 61 61 61 63 65 69 63 63 63 69 71 73 134 184 192 199 200 194 190 188 189 186 174 159 158 168 172 167 159 158 162 167 166 172 177 172 172 169 168 168 168 162 161 164 166 177 170 166 170 176 179 173 170 171 179 177 162 158 159 161 164 162 165 167 171 168 165 163 160 162 168 167 162 162 161 162 157 147 149 162 159 158 157 157 163 161 158 157 162 168 165 160 162 165 162 161 154 148 150
179 179 184 190 188 184 186 190 192 184 184 185 188 188 187 179 183 182 174 175 177 181 182 173 171 177 177 169 168 171 165 162 156 155 157 157 162 165 165 170 172 176 178 177 174 175 182 177 175 174 175 179 179 177 179 179 182 186 183 176 176 178 176 177 174 170 168 172 168 162 166 177 179 173 175 179 185 185 182 182 184 189 188 192 195 192 193 196 192 190 192 175 127 79 71 71 71 69 69 71 71 73 82 95 103 116 126 132 138 142 145 150 161 164 158 153 142 136 132 127 128 126 119 111 105 99 90 85 76 73 73 73 67 67 67 65 63 63 63 63 61 63 65 67 71 69 67 67 65 63 61 59 59 59 61 69 69 65 65 69 67 67 73 94 153 192 200 196 190 188 188 186 184 182 172 169 175 174 168 164 162 168 168 170 172 177 174 171 171 171 174 175 164 164 173 179 179 168 166 174 179 179 176 174 171 174 174 159 158 160 160 165 168 168 166 165 159 158 158 156 158 166 168 168 164 162 164 157 153 162 156 152 159 160 162 165 162 164 162 169 175 170 160 162 168 168 165 156 149 154
178 177 183 190 188 186 196 198 198 190 184 188 188 187 184 171 178 180 181 184 183 186 186 177 178 178 178 177 172 174 168 166 161 160 161 163 165 165 165 171 177 178 178 177 173 175 182 182 180 182 184 189 187 184 184 184 185 186 183 176 176 178 178 176 177 171 171 172 169 167 170 177 178 174 177 182 184 184 183 184 186 190 194 196 196 193 195 198 193 192 184 138 91 73 73 71 71 71 74 85 97 111 126 134 138 144 159 165 174 185 179 179 190 192 178 166 163 162 153 142 141 138 133 130 128 126 115 109 100 91 90 85 76 76 73 71 67 67 67 65 63 63 69 67 69 69 71 71 67 63 63 61 59 59 61 65 69 65 69 69 67 69 67 67 111 179 200 194 188 186 186 184 184 184 181 178 179 178 175 170 169 169 170 174 171 178 180 176 176 179 176 174 171 176 177 178 175 169 172 176 182 183 180 177 175 175 172 162 162 161 160 165 168 171 169 168 165 158 157 153 153 158 168 174 170 168 164 153 161 163 157 152 161 160 169 168 166 171 164 171 177 174 169 168 174 179 171 158 153 154
177 176 183 186 188 192 198 197 198 194 190 194 192 184 179 171 174 177 180 184 186 186 186 182 183 179 176 176 176 175 171 168 162 165 167 164 165 166 168 172 176 178 174 174 173 174 177 179 180 182 185 189 189 189 189 185 185 184 179 177 176 176 173 174 177 174 172 171 167 167 172 175 176 180 184 184 184 184 184 184 188 193 195 196 196 194 192 198 196 187 157 111 76 73 71 71 73 94 110 124 132 140 153 168 177 185 190 194 198 200 200 194 196 199 194 182 175 175 162 153 149 143 143 141 138 134 131 130 121 105 103 98 90 85 84 82 76 73 71 67 67 67 71 69 69 69 71 71 67 67 69 63 61 61 61 69 65 65 67 69 69 69 69 71 91 134 193 198 192 189 186 184 184 184 178 175 181 181 180 177 173 168 168 176 180 182 182 182 184 182 174 176 184 189 184 175 178 174 178 177 179 183 181 175 171 177 177 169 168 162 163 165 171 172 168 173 168 166 162 150 150 154 167 172 174 171 162 158 163 158 158 163 161 162 171 171 170 171 162 166 183 185 181 174 176 179 172 163 157 155
177 176 180 183 184 193 198 194 194 196 195 194 189 182 180 174 174 177 178 179 182 185 182 182 184 187 185 177 175 174 172 169 168 171 171 168 168 172 174 174 174 178 174 175 176 174 176 180 179 177 183 186 184 186 186 182 182 179 177 179 176 175 172 172 175 178 177 174 168 167 170 172 176 185 190 190 188 188 189 189 192 196 194 190 190 192 192 194 189 171 133 93 76 73 71 82 103 119 130 141 158 168 182 196 196 196 196 196 199 201 210 199 190 190 200 192 181 177 167 162 150 144 144 142 139 136 135 134 124 109 108 103 94 90 88 88 84 78 78 73 71 71 67 69 69 69 71 71 69 67 69 67 65 63 63 69 65 65 65 69 67 67 69 69 67 85 164 194 197 192 189 184 187 188 177 171 179 179 177 177 172 168 168 182 184 182 180 182 185 185 180 179 187 189 187 178 186 180 182 179 177 177 179 176 171 177 177 167 168 162 162 164 171 169 170 175 167 162 158 153 155 160 164 167 173 171 165 167 160 160 165 165 161 162 167 170 166 165 160 160 183 185 180 175 180 179 168 165 160 157
171 178 180 181 177 189 196 193 194 198 195 190 186 184 183 176 173 172 172 172 177 180 180 184 185 186 187 182 171 171 172 170 171 173 170 168 171 179 180 176 176 180 178 177 184 183 179 181 179 177 181 182 183 184 183 184 186 186 183 183 180 176 172 174 177 178 179 177 171 168 170 174 177 182 189 190 188 186 186 186 190 196 190 186 188 191 191 187 174 143 107 79 73 73 82 107 123 128 134 144 153 165 177 190 190 192 198 200 203 220 225 225 224 221 224 222 205 198 192 187 177 162 154 148 142 144 139 135 128 119 114 107 95 94 90 87 85 79 81 82 78 73 67 67 71 71 71 71 71 71 71 69 69 63 63 61 63 63 65 65 65 67 69 69 71 67 124 185 195 194 191 188 188 190 188 173 169 174 178 177 168 166 170 179 184 181 179 180 182 185 188 187 186 187 181 184 188 184 187 184 177 179 180 180 175 178 171 169 165 164 168 168 168 162 167 175 170 162 158 158 162 164 158 154 162 171 171 165 163 169 165 158 158 162 169 167 165 163 162 160 173 178 176 175 182 182 175 167 161 154
171 180 184 182 177 184 188 190 200 200 190 184 184 187 182 175 174 172 166 166 171 180 182 189 189 184 186 186 182 178 175 176 174 173 174 177 175 176 182 182 182 182 182 182 188 188 184 185 182 179 182 182 183 182 182 183 184 184 182 185 181 178 172 171 176 178 178 179 178 176 177 178 180 181 186 186 190 192 190 188 190 193 188 186 190 191 190 184 165 124 85 78 74 82 98 118 125 128 130 136 158 188 200 216 221 221 226 234 234 234 237 242 242 240 238 233 228 224 220 203 198 192 185 179 173 171 164 149 141 133 127 120 111 105 94 90 87 82 84 84 82 76 73 73 73 73 73 73 73 73 71 67 65 61 59 59 61 65 65 65 65 65 67 69 71 71 79 146 190 193 192 192 190 191 191 187 169 171 177 176 170 164 170 179 181 181 174 174 175 178 185 188 184 184 182 186 186 188 186 185 184 181 180 179 177 181 180 177 168 164 168 169 167 162 165 172 172 172 168 160 164 164 160 152 153 163 164 159 168 169 162 158 163 166 167 163 160 158 165 165 166 172 171 175 176 178 175 170 158 154
177 180 181 184 184 184 184 186 194 194 186 184 184 187 180 173 174 170 166 168 176 184 184 187 189 184 186 190 192 186 178 179 181 182 182 184 178 177 179 184 187 184 181 181 186 190 192 185 184 186 184 184 180 179 179 178 178 182 185 185 177 176 171 171 175 181 184 185 184 182 181 179 180 185 188 188 191 194 192 191 193 194 190 188 190 191 189 177 145 102 76 78 81 88 100 110 123 134 144 168 194 223 233 237 237 235 237 241 240 240 240 242 243 243 243 242 238 236 234 226 220 209 202 198 194 190 181 167 153 141 132 125 121 116 108 98 91 87 84 84 79 78 74 76 74 73 73 73 73 73 73 67 65 61 59 59 63 65 67 69 69 65 65 67 71 71 71 121 171 191 193 193 192 191 190 188 174 174 177 177 174 164 164 175 179 178 176 174 173 173 177 183 184 186 184 184 188 188 188 186 186 182 179 179 177 181 180 179 170 164 168 168 165 162 166 168 167 172 170 164 160 158 157 153 152 154 158 162 167 168 160 158 160 167 162 155 153 153 162 165 172 177 174 171 174 174 174 174 165 154
188 188 188 192 189 187 184 186 184 179 183 185 187 183 176 171 172 169 170 175 176 181 182 180 179 184 192 198 198 193 188 188 188 190 189 185 182 182 182 187 187 187 184 186 186 192 192 184 184 188 191 191 184 182 179 182 179 183 185 181 174 174 174 175 177 179 186 186 184 186 186 184 186 192 194 192 193 195 192 192 196 196 193 193 192 192 187 158 127 82 76 81 84 90 109 129 141 165 190 214 228 237 240 238 238 238 241 242 243 243 244 244 246 247 247 245 243 241 239 236 231 222 217 209 203 200 190 184 171 153 142 134 126 120 116 107 99 90 87 85 85 84 79 78 76 76 73 73 71 71 73 71 69 61 59 59 63 71 67 69 69 65 65 65 69 69 71 79 137 187 191 193 191 190 190 186 177 175 175 174 170 169 168 172 174 174 179 179 175 173 176 178 185 188 186 184 186 187 186 188 188 188 184 181 177 178 179 179 172 165 165 170 167 169 174 170 167 174 173 169 163 158 160 161 158 158 163 165 165 165 158 155 157 164 166 166 163 158 162 167 171 174 177 173 178 181 181 173 167 159
189 193 198 198 190 186 184 186 182 177 177 183 187 182 174 174 171 171 175 176 176 179 180 176 177 186 196 198 196 198 198 194 191 190 190 184 182 184 182 184 185 187 191 192 188 188 186 182 184 188 195 194 188 186 187 188 184 185 182 177 175 177 176 182 182 182 187 187 184 185 187 187 189 194 193 191 192 195 193 193 196 195 195 197 192 186 171 136 104 79 76 81 88 99 124 141 162 192 215 227 236 241 242 241 241 243 245 248 250 251 250 249 250 252 252 249 245 244 243 240 235 229 226 224 221 214 201 198 185 169 158 142 128 121 116 109 100 93 90 87 87 85 81 79 81 78 74 71 71 71 71 69 65 61 59 61 65 71 67 69 67 67 65 65 67 69 67 76 110 177 190 192 192 190 190 189 179 172 171 169 172 173 171 171 168 170 177 177 166 167 174 175 184 189 189 182 183 186 188 188 188 188 184 183 178 178 176 177 174 169 166 170 170 177 183 177 169 173 174 174 165 159 163 165 166 163 166 165 167 168 166 158 155 159 167 174 170 168 165 165 168 168 176 179 177 181 177 170 165 167
190 194 198 196 188 184 191 192 185 177 177 180 185 182 175 176 178 177 180 180 177 180 182 182 184 192 198 195 194 195 195 188 186 187 190 190 186 189 188 184 184 184 190 193 194 190 186 182 182 186 194 198 194 190 194 195 194 191 184 180 181 181 182 186 184 185 188 186 182 179 183 185 186 188 189 189 190 192 193 193 194 196 197 194 189 177 151 121 85 74 73 84 98 114 133 157 182 203 228 237 241 243 245 244 244 246 248 251 252 253 253 253 253 253 252 250 247 247 247 244 240 236 234 232 226 221 215 200 189 178 166 153 136 125 117 110 100 98 93 88 85 85 85 82 85 84 76 71 69 69 67 65 63 61 59 61 65 69 67 69 69 67 65 67 67 67 65 67 78 141 185 190 192 192 193 192 179 167 167 170 173 168 165 165 168 169 168 167 160 167 177 182 184 186 187 179 175 182 189 189 188 188 184 182 182 182 175 173 174 173 173 170 172 177 183 181 175 174 173 173 171 168 165 165 166 167 168 167 167 167 168 167 162 168 170 173 177 179 171 166 167 174 177 180 176 171 166 165 162 158
191 198 192 184 182 186 194 197 191 186 186 184 182 182 180 180 185 187 188 185 182 182 182 182 191 194 199 198 197 194 190 188 190 193 200 197 195 193 189 186 186 188 188 191 195 193 188 184 184 186 191 198 198 192 192 196 196 194 191 187 186 184 186 190 189 188 188 185 182 179 181 183 186 184 182 184 189 192 193 194 195 193 193 196 192 168 134 91 73 71 73 88 107 124 142 173 190 213 233 239 242 244 245 245 245 247 248 251 252 254 255 255 255 253 252 251 250 249 248 246 242 239 236 233 227 222 216 200 190 179 167 153 140 129 121 111 99 100 99 93 90 88 87 85 85 85 78 73 71 69 69 65 61 61 61 61 63 65 67 69 69 67 67 67 69 65 65 63 73 118 177 191 192 192 194 193 186 171 174 172 169 163 160 158 167 165 158 158 168 174 176 179 185 184 183 177 175 177 186 188 188 188 186 182 182 184 182 175 168 171 174 174 174 174 176 180 176 178 178 178 179 177 167 159 162 170 168 166 165 166 171 174 170 173 179 179 178 179 174 174 178 184 185 179 175 167 164 163 155 155
191 200 194 186 183 186 194 200 198 189 192 190 182 182 178 175 184 188 188 188 184 182 182 184 190 196 204 202 198 194 190 194 195 196 200 198 195 190 186 186 191 192 188 188 191 191 191 186 184 184 186 193 196 193 190 192 193 192 191 191 188 186 190 193 194 191 188 185 182 177 175 181 186 182 174 175 185 192 197 196 195 192 190 194 185 149 121 73 69 67 73 91 112 132 152 175 194 219 229 237 241 243 244 245 246 247 248 250 252 253 254 254 254 253 252 251 250 249 247 245 243 240 236 233 227 222 215 199 189 178 165 148 136 128 124 117 107 104 102 98 98 95 91 87 87 87 82 74 73 71 71 67 63 61 61 63 63 65 65 67 69 67 67 67 69 67 65 61 67 91 164 192 192 191 192 193 190 179 175 169 164 161 153 152 163 166 162 164 174 178 177 180 180 177 179 178 179 182 187 186 188 190 189 187 184 184 187 178 168 170 174 175 175 173 174 178 176 182 185 182 177 174 165 159 168 177 173 169 168 170 171 174 174 171 171 179 174 171 174 178 186 186 184 178 174 165 166 168 165 162
191 200 200 193 190 188 192 201 202 190 192 192 186 182 177 175 186 188 189 193 191 186 189 193 194 198 209 209 199 194 192 192 194 196 197 195 192 190 190 195 194 188 188 188 188 188 191 190 185 184 184 184 190 192 191 190 193 196 194 192 189 188 192 194 196 196 192 186 184 177 175 177 180 177 173 173 179 188 196 195 192 191 188 185 153 126 94 71 67 67 74 94 117 136 156 175 193 216 226 234 238 241 243 244 245 246 247 250 251 251 251 252 252 251 251 250 250 248 247 244 242 240 236 232 226 221 207 197 188 177 163 145 132 127 124 119 110 105 102 100 99 98 93 87 85 85 85 81 76 73 73 67 63 61 61 63 65 69 67 67 69 67 67 65 69 65 65 61 63 67 131 189 192 192 191 193 191 176 167 158 156 152 148 148 154 168 174 177 182 183 183 182 176 177 179 189 190 190 190 186 186 190 191 189 186 187 185 171 170 172 174 172 174 173 175 177 176 182 188 187 175 171 171 162 173 181 179 173 174 181 181 176 174 171 171 178 178 177 171 173 185 184 176 174 174 179 171 174 172 162
191 202 205 198 194 192 196 204 206 194 190 190 188 186 186 188 196 195 196 203 201 199 204 204 201 203 206 204 199 198 194 192 196 200 201 198 194 193 196 198 192 189 188 188 188 190 191 190 184 184 184 186 190 193 192 192 194 196 196 190 186 186 191 195 198 198 198 193 188 186 183 179 179 178 175 173 174 184 196 195 188 179 177 173 133 88 73 71 67 67 79 102 124 140 156 173 191 205 224 231 236 240 241 242 244 245 247 248 249 249 248 249 249 249 249 248 248 247 246 244 241 238 235 230 224 218 202 194 184 174 163 148 134 128 123 118 112 108 102 104 98 94 90 85 84 82 82 84 78 76 73 67 63 61 61 65 69 71 69 69 69 67 69 65 65 65 65 61 61 69 95 177 192 191 191 194 192 176 165 155 152 148 148 149 150 171 179 182 179 182 187 187 184 189 191 191 191 192 191 190 188 188 191 190 187 179 174 167 172 174 174 171 171 177 179 176 169 179 188 184 176 177 177 175 179 179 181 180 179 185 182 178 177 175 182 186 186 185 174 178 185 185 176 173 177 179 174 174 174 167
191 201 205 200 196 194 201 217 216 198 188 184 186 190 194 200 202 202 196 201 206 217 222 220 217 212 203 203 201 200 196 196 201 204 206 201 196 194 195 198 196 195 196 198 200 198 197 193 186 186 188 190 194 197 198 197 196 196 195 193 190 188 190 193 196 198 198 192 188 188 188 184 182 182 182 180 183 186 186 189 189 181 172 150 114 73 71 67 67 73 88 111 130 142 158 175 190 203 222 228 234 238 241 241 241 243 245 246 246 246 245 246 246 246 246 246 245 245 244 242 240 236 233 227 220 205 198 188 178 168 160 146 137 130 122 118 117 114 111 107 95 93 88 85 85 82 84 84 81 76 73 71 63 61 61 63 69 71 67 67 67 67 69 65 65 63 65 69 61 63 71 150 192 191 190 194 189 167 162 153 153 151 149 148 148 168 178 180 176 179 187 179 182 191 191 189 189 190 192 196 189 173 190 189 184 175 167 167 172 179 175 170 170 177 179 179 169 176 185 185 178 179 179 183 185 185 184 184 184 186 187 185 179 176 186 189 188 187 182 180 182 184 178 173 177 174 167 166 171 175
191 200 200 199 197 194 203 224 224 203 190 184 186 194 200 201 201 200 194 202 215 219 222 222 221 220 213 213 205 201 200 201 205 214 214 206 201 199 198 197 199 201 203 203 204 206 204 200 193 191 193 195 200 204 203 201 198 197 198 199 198 195 193 193 194 194 193 190 188 188 188 186 185 187 191 191 192 186 177 186 189 188 162 127 95 84 71 67 71 74 93 116 135 146 164 178 190 201 220 226 233 237 239 240 239 240 241 241 242 242 242 242 242 243 243 243 242 242 242 241 237 234 229 222 214 198 188 180 170 160 152 143 137 133 128 124 120 118 115 108 100 95 91 87 87 85 82 84 84 78 73 67 65 61 59 61 65 67 67 69 69 67 67 67 69 65 65 63 67 61 73 130 188 189 188 185 160 147 152 153 153 153 150 152 152 168 186 179 166 165 168 164 174 186 184 177 171 188 198 198 186 154 187 189 184 178 171 168 179 176 173 171 170 171 176 178 171 171 181 185 182 182 181 182 184 187 188 189 188 184 188 188 182 184 189 192 190 188 185 185 183 182 184 184 182 177 167 165 165 167
192 200 196 198 199 198 203 225 225 210 195 186 188 196 200 199 199 200 194 198 214 224 221 222 222 221 219 220 215 205 205 215 219 220 219 217 209 204 203 201 200 201 203 203 205 215 209 201 196 195 199 201 204 204 204 201 200 200 201 202 198 194 193 193 195 195 192 188 186 186 186 186 188 190 195 196 194 186 177 179 189 183 138 102 97 88 71 69 71 76 90 112 133 149 168 181 191 201 218 225 231 235 238 237 236 234 235 236 237 238 238 238 239 240 240 240 240 240 238 237 234 230 225 220 201 192 182 174 162 153 148 142 136 136 133 127 122 121 117 108 100 97 94 91 90 87 82 82 84 82 78 71 67 65 65 63 65 69 71 69 69 71 67 69 65 63 63 63 61 61 69 100 166 187 187 167 139 140 150 153 153 152 152 152 151 162 186 179 154 145 147 154 167 174 178 176 171 184 193 197 177 154 186 190 185 182 181 173 177 175 179 177 173 174 178 181 175 174 181 179 180 182 180 180 181 188 191 191 189 188 188 186 186 186 190 192 190 188 187 187 186 182 185 188 187 180 170 168 163 159
192 197 194 196 199 203 214 222 221 203 199 194 187 192 202 201 199 198 198 198 220 225 225 222 217 217 220 221 218 212 210 216 219 220 218 216 210 205 203 203 201 201 202 202 205 215 213 203 199 199 202 204 205 203 203 201 201 203 203 200 194 192 192 195 198 197 193 191 191 190 188 188 190 192 195 198 194 190 188 171 177 148 115 102 98 84 71 67 71 76 90 112 136 153 171 183 192 201 217 223 228 233 235 233 230 229 229 231 231 233 233 234 235 235 236 237 237 237 236 234 231 226 221 209 197 188 179 171 162 153 149 143 140 137 134 130 124 123 119 114 107 102 100 97 93 88 85 82 84 84 82 73 71 71 71 67 67 67 71 69 71 69 67 65 63 61 61 61 61 61 67 73 141 181 166 142 134 136 141 145 149 152 151 148 144 154 183 173 142 140 140 151 161 164 175 177 177 184 190 189 154 169 192 193 190 188 188 185 179 173 179 179 177 175 177 181 178 177 181 174 171 174 179 180 180 188 190 190 189 189 190 189 189 185 189 190 188 188 185 184 188 187 186 186 189 186 169 168 165 159
190 194 194 194 195 203 205 219 215 198 199 198 188 192 203 200 194 200 200 202 222 223 224 221 218 217 221 221 218 212 205 212 216 217 213 209 205 205 205 212 212 213 214 213 214 217 215 205 203 201 203 210 218 209 203 201 202 202 198 196 195 195 195 198 199 194 193 194 194 191 190 190 190 193 197 199 199 199 198 187 162 124 105 104 88 73 67 69 71 78 91 117 138 158 172 184 192 200 216 222 225 226 228 229 227 226 226 226 226 226 228 229 230 231 233 235 235 235 235 232 228 222 218 203 194 186 178 170 163 155 152 146 141 137 136 137 133 127 124 122 118 110 103 103 98 93 88 84 84 84 81 73 71 73 71 71 67 67 69 71 71 67 67 65 63 61 59 61 61 63 65 67 128 155 139 131 129 127 128 140 147 149 152 145 142 150 166 159 142 140 140 144 153 155 168 172 174 187 189 181 144 171 192 193 192 183 184 188 181 168 169 175 176 175 173 176 177 179 180 175 171 168 176 179 179 188 190 189 189 189 191 190 188 184 190 190 183 179 182 189 190 188 185 184 189 184 171 171 167 159
190 196 196 194 192 194 199 201 203 199 198 196 188 192 203 203 193 192 193 200 219 220 205 199 215 220 218 221 219 212 203 205 214 214 214 213 205 217 220 220 220 220 222 223 221 220 217 205 205 205 212 217 218 206 201 201 203 202 198 197 197 197 198 200 200 196 194 194 193 192 191 193 195 197 199 203 210 217 213 182 132 108 109 94 79 71 67 71 73 79 94 118 137 153 171 183 192 199 211 220 222 223 224 226 226 225 225 224 224 222 223 224 226 229 231 234 235 235 234 231 226 222 214 201 193 186 178 169 165 162 158 151 145 141 138 139 138 133 129 125 123 120 110 109 108 100 93 85 82 81 81 74 73 71 69 71 71 69 69 71 71 71 71 69 63 61 59 61 63 65 63 71 108 132 131 130 130 127 129 141 147 148 152 141 138 142 147 152 142 138 135 136 141 145 158 165 169 182 181 162 139 169 188 191 185 152 166 181 180 174 168 176 179 173 173 175 177 182 185 184 176 168 176 179 186 190 191 190 189 190 191 190 184 188 192 192 186 179 186 190 190 189 181 180 182 179 174 173 173 159
190 194 194 192 192 196 197 194 197 198 193 192 188 189 196 196 188 179 182 196 219 220 213 194 196 209 205 213 216 209 203 216 220 221 221 220 221 221 220 220 217 213 221 225 223 222 219 205 205 216 218 218 214 203 201 205 204 203 214 206 203 201 200 199 198 193 190 188 188 190 194 197 199 200 202 216 220 221 203 158 115 107 98 79 74 73 71 71 73 87 103 119 136 150 171 182 192 199 205 218 222 223 224 225 226 225 224 222 222 221 220 221 223 226 230 234 236 236 235 233 229 222 218 203 195 186 177 173 170 168 163 158 151 148 142 141 139 137 133 128 125 125 120 116 114 105 98 87 84 84 81 76 73 71 71 69 67 71 69 71 71 71 71 71 65 61 59 61 61 63 63 69 79 118 127 128 125 128 129 137 147 144 141 137 135 136 140 145 139 131 131 135 136 144 162 167 175 182 171 141 136 167 184 190 177 141 149 174 183 180 176 178 183 179 179 185 184 186 187 186 182 182 187 184 188 191 191 190 190 191 191 191 188 189 192 192 190 189 188 188 190 190 186 179 176 178 172 170 169 160
183 184 188 192 196 200 200 197 192 190 188 189 182 175 179 183 184 182 177 186 201 217 217 196 194 204 201 201 215 214 219 224 225 224 224 228 221 201 197 200 205 219 225 226 227 226 222 221 220 219 220 220 217 210 203 204 206 205 220 219 214 213 201 196 190 186 186 188 190 193 199 202 204 205 213 219 221 221 192 136 111 103 85 73 73 71 69 71 73 95 118 129 139 158 174 186 193 200 205 218 222 224 225 226 227 227 225 223 221 220 219 220 221 225 230 234 236 237 237 235 231 226 221 209 198 188 179 179 180 174 170 167 165 161 153 148 143 140 137 133 128 128 125 120 111 102 93 87 84 81 79 76 74 73 71 67 67 65 67 67 67 67 67 67 65 61 59 61 63 63 63 67 73 109 125 123 123 126 124 132 143 140 132 135 137 137 135 135 133 129 129 132 131 141 159 173 182 175 155 134 138 165 179 187 168 139 141 165 188 188 188 183 184 187 188 189 189 190 188 189 186 188 190 188 189 190 191 191 189 190 191 190 188 190 191 192 192 191 190 189 189 190 190 184 176 181 173 162 160 164
173 171 175 181 184 192 200 196 189 182 179 183 177 167 167 173 179 179 173 177 197 206 203 194 190 201 203 205 220 219 222 226 228 224 222 228 205 186 182 177 190 220 230 230 231 231 228 228 225 225 225 224 219 218 204 204 206 205 216 221 219 215 203 197 190 188 190 194 196 198 203 212 217 220 220 219 223 220 165 119 109 99 78 71 71 71 67 69 71 98 124 137 149 165 178 186 194 201 208 218 221 224 227 229 230 229 228 225 222 221 220 219 220 224 231 235 238 240 238 237 236 232 227 220 203 197 188 186 186 184 183 180 176 173 167 158 153 145 141 137 132 130 127 121 110 102 93 82 82 84 81 76 74 74 71 69 67 65 65 63 65 65 67 67 69 61 59 61 61 63 63 65 71 102 127 126 126 123 116 131 141 138 130 135 136 135 133 129 129 130 129 128 131 140 153 169 181 167 144 134 147 158 169 182 158 138 139 157 187 189 188 184 186 189 190 191 191 191 190 191 189 190 190 188 189 190 190 190 184 184 188 184 184 189 190 192 192 191 190 191 190 189 188 184 180 181 171 160 158 162
172 167 162 157 168 182 186 180 181 177 171 168 168 168 165 162 171 169 166 177 198 214 203 196 190 197 203 219 223 225 226 227 230 216 203 217 195 184 181 171 175 200 222 229 231 227 222 229 230 229 229 226 220 205 203 200 203 203 203 220 221 212 203 201 198 195 199 204 213 213 219 221 221 223 222 222 229 205 136 104 105 93 76 71 73 73 69 69 73 102 126 140 157 168 179 189 198 202 212 219 222 224 227 228 230 230 228 225 224 223 223 222 223 228 233 236 239 240 240 239 238 234 233 226 216 217 202 198 197 196 196 189 184 180 177 171 165 158 148 142 138 134 129 124 119 109 97 87 79 84 82 78 73 73 71 71 69 65 65 65 65 65 65 65 69 63 59 61 61 65 63 63 69 94 124 127 125 110 105 126 135 134 128 128 128 126 130 127 127 126 127 129 134 140 148 157 159 149 135 138 154 152 159 173 150 138 141 159 186 190 189 188 189 188 191 192 192 192 194 193 190 191 191 188 190 192 188 185 184 188 182 184 188 188 190 192 192 192 192 192 192 190 188 180 180 174 168 161 153 152
179 175 165 154 158 157 152 161 166 168 162 154 154 163 155 156 165 161 158 169 192 209 214 214 200 194 201 220 225 225 225 230 225 190 186 189 182 180 184 171 171 190 201 218 226 225 222 228 230 228 230 229 222 205 203 200 205 216 205 218 218 205 202 204 204 202 203 221 228 225 228 228 224 224 222 222 229 194 124 104 103 85 73 73 73 71 69 67 73 109 132 146 159 170 183 192 199 205 217 220 223 225 226 227 228 228 226 226 227 229 226 227 228 230 234 236 238 240 240 238 238 235 230 227 220 218 213 203 201 201 200 196 189 185 182 179 174 165 156 149 141 137 130 127 123 116 99 88 79 79 84 81 73 67 71 69 67 69 67 69 67 65 65 65 69 63 61 61 63 63 63 61 67 84 119 123 120 105 107 114 123 128 124 124 123 118 120 121 123 121 122 130 134 140 144 145 146 140 134 141 154 153 162 166 141 136 139 159 190 192 190 189 190 188 189 190 192 197 196 194 191 192 193 191 192 192 190 189 186 188 186 181 184 189 191 192 192 191 191 191 192 192 189 179 173 162 168 164 155 148
179 170 165 156 152 145 141 142 142 151 163 158 162 161 150 150 155 153 153 165 182 190 203 214 200 192 196 219 225 219 221 226 204 179 169 178 174 176 181 168 171 180 183 196 221 224 222 222 228 228 230 230 224 217 207 205 218 221 220 221 221 220 209 216 218 218 219 225 232 229 230 230 228 229 230 225 221 178 122 108 95 76 73 73 71 67 67 67 74 110 131 143 161 174 186 196 202 213 220 223 225 227 227 226 226 226 227 228 229 230 231 230 231 231 234 236 236 238 238 238 237 237 231 226 222 221 217 206 202 201 200 194 189 184 183 181 177 168 157 151 143 138 131 126 120 109 102 93 85 84 84 82 73 67 69 69 67 69 71 69 67 67 65 63 61 61 59 59 63 65 65 63 67 76 111 116 112 112 114 105 109 125 126 126 125 117 117 121 119 119 119 130 133 135 137 138 138 133 135 145 147 147 164 166 141 136 138 158 189 193 192 189 190 188 189 189 190 197 196 194 193 193 190 187 190 191 190 189 188 188 188 179 179 189 192 197 194 190 189 190 191 192 188 174 165 160 171 167 153 145
167 173 165 151 148 141 141 135 130 141 162 171 171 169 163 162 153 153 150 161 173 171 183 195 195 192 192 209 224 214 206 204 190 171 166 172 172 172 171 166 174 177 173 182 203 224 228 225 223 224 224 221 217 217 213 217 222 226 228 225 226 228 225 224 224 224 228 233 231 229 231 234 237 243 237 230 216 159 118 105 90 73 71 71 67 67 65 67 73 107 128 139 155 173 185 195 202 209 220 223 224 224 225 225 225 226 227 229 230 230 231 231 232 233 233 234 235 236 237 237 233 225 220 216 217 220 213 200 197 194 193 190 186 183 179 177 173 165 157 148 140 136 130 126 119 103 100 99 91 88 82 78 73 71 69 67 67 67 71 67 69 67 69 63 61 59 59 61 63 69 67 69 67 73 107 109 104 109 110 104 105 121 125 126 125 121 121 124 125 123 124 129 129 127 128 130 128 126 137 148 142 141 162 160 141 137 134 148 183 193 193 188 189 188 188 189 190 193 194 193 192 191 189 187 190 190 188 188 189 188 187 179 182 190 192 197 192 189 189 189 189 187 178 166 158 158 171 153 144 142
167 173 163 148 146 141 138 131 129 138 153 164 166 165 162 163 162 160 150 148 160 165 174 185 186 186 181 190 200 197 194 186 182 182 171 166 167 168 162 159 173 171 164 165 186 218 230 228 216 217 220 218 220 224 223 222 226 233 230 230 229 230 232 230 228 227 230 233 233 233 234 237 241 244 238 227 203 144 108 102 88 73 71 71 67 69 65 67 73 105 126 137 151 169 182 191 198 204 215 217 217 217 218 218 222 224 228 230 231 232 231 231 234 234 232 232 233 231 224 205 200 190 186 186 192 200 196 190 188 186 185 184 182 180 174 169 166 160 154 142 135 133 129 125 118 103 94 95 94 90 84 81 74 71 67 67 67 69 69 67 67 67 71 69 63 59 59 61 65 69 69 69 69 71 103 109 103 105 104 103 100 115 121 125 125 124 126 128 129 125 128 131 128 122 122 124 124 126 137 148 139 138 158 142 134 134 131 141 172 192 192 190 188 189 190 190 190 192 193 192 190 191 190 188 190 189 189 189 188 188 187 179 182 188 192 192 186 184 185 183 180 171 165 158 156 156 151 142 141 141
173 173 162 142 140 141 134 131 129 135 143 154 162 153 147 150 162 162 151 139 141 156 165 175 182 183 177 175 181 182 185 173 185 194 183 166 165 168 157 149 160 158 152 157 177 204 230 213 181 186 202 219 229 233 233 230 233 232 229 230 230 230 231 232 230 227 229 231 235 236 234 236 243 244 235 228 194 132 102 103 94 74 71 71 71 71 65 67 73 100 122 136 148 168 180 188 194 198 198 197 196 197 199 203 214 220 223 228 232 229 229 231 235 234 231 224 213 200 184 159 157 148 148 155 165 170 175 181 187 180 176 181 182 177 168 165 155 146 141 134 129 127 123 117 115 107 98 94 91 90 88 85 76 71 67 69 69 67 67 69 67 65 69 71 69 63 61 63 69 71 71 69 67 71 102 115 107 102 97 97 100 110 112 123 127 128 130 129 130 129 129 131 127 123 121 120 123 128 136 141 134 139 157 135 124 129 131 141 155 162 174 188 188 190 190 191 190 191 192 191 190 190 188 188 189 189 189 190 188 189 190 188 190 190 191 188 177 174 175 175 170 162 156 150 151 153 147 139 139 136
173 166 151 140 140 138 134 133 132 133 138 144 151 148 147 150 160 161 153 139 139 144 151 163 181 183 181 179 174 171 181 173 183 194 183 170 167 166 155 145 149 148 148 158 181 192 190 162 141 149 175 198 228 231 229 230 235 234 229 229 227 227 229 231 230 226 228 234 238 238 236 239 244 244 236 231 181 119 94 95 91 74 71 71 73 73 67 69 73 97 121 136 153 169 180 186 188 186 184 181 179 179 185 194 202 215 220 224 229 225 226 228 233 235 228 201 177 165 142 130 127 128 133 136 138 141 149 156 168 167 163 164 167 162 151 144 142 136 129 125 123 119 114 114 114 108 103 94 88 88 90 88 76 67 67 69 65 65 65 69 65 63 65 67 69 67 63 63 65 67 67 69 69 71 98 115 105 97 95 93 98 105 107 118 123 127 131 133 134 132 128 128 127 125 121 117 122 128 133 137 132 141 158 135 122 126 134 141 142 136 136 167 188 190 190 190 192 193 191 190 190 189 189 188 189 190 190 190 188 190 190 188 190 190 188 182 177 174 174 172 168 160 148 142 142 148 148 143 144 134
151 145 140 140 141 135 132 132 129 131 135 141 148 148 146 153 160 160 160 148 141 142 142 152 164 164 168 168 164 168 171 168 170 171 171 164 153 154 148 139 141 142 142 151 154 145 139 128 130 135 141 174 196 204 222 231 235 233 226 223 223 226 232 232 230 223 223 232 238 236 233 237 243 241 231 222 162 107 90 88 87 73 73 73 73 73 71 71 73 95 124 141 163 177 185 184 177 171 164 151 142 145 154 172 189 202 217 222 225 222 224 225 225 221 203 174 142 133 122 116 114 112 117 121 124 129 131 132 137 140 140 139 139 136 133 130 129 127 119 117 116 108 107 108 105 104 100 91 87 87 88 85 78 71 65 69 65 63 65 65 65 63 63 65 69 69 69 65 65 65 69 67 67 71 99 115 100 91 91 93 102 111 110 118 121 124 131 134 132 129 124 127 126 125 122 117 121 127 129 133 130 143 158 133 119 124 138 141 138 131 131 150 182 190 190 192 191 192 193 190 188 188 189 190 192 191 191 189 189 191 188 188 190 189 188 185 182 172 164 166 173 164 148 142 144 147 145 148 147 131
135 138 141 141 141 136 132 132 129 129 134 138 140 143 146 147 155 154 148 145 148 152 147 148 148 148 166 165 158 153 155 153 150 148 153 153 141 141 138 135 137 141 144 149 134 122 123 122 128 129 132 148 153 162 186 219 234 228 222 221 222 225 228 226 226 224 225 229 228 224 227 228 229 228 223 200 141 100 91 87 81 73 73 73 71 71 71 67 67 91 126 142 166 179 179 171 156 142 135 128 119 122 131 141 165 190 205 220 221 220 220 221 211 190 174 142 122 105 94 97 98 95 94 99 105 111 112 111 110 117 121 122 121 120 121 117 110 117 109 104 102 94 97 100 102 100 98 91 87 87 90 85 78 71 67 63 63 65 65 65 65 65 65 67 69 69 69 69 67 67 69 65 65 71 95 104 93 90 90 94 104 111 107 111 114 115 119 120 125 125 124 124 123 124 122 117 123 129 128 126 130 148 145 130 115 122 135 136 137 132 134 144 178 194 194 193 191 190 192 190 188 186 186 188 191 192 191 191 190 190 191 190 190 190 189 188 185 172 162 166 173 162 147 142 142 143 142 145 139 124
132 137 141 137 136 134 131 131 133 135 136 135 136 143 148 148 155 149 144 144 149 152 147 148 151 159 167 167 153 144 144 141 142 143 146 149 143 135 133 134 137 141 147 144 128 121 123 122 131 134 132 138 138 139 150 184 221 223 218 220 219 220 222 222 226 226 225 222 217 220 223 218 218 217 201 185 131 95 91 87 79 76 74 73 71 73 71 67 67 88 122 138 146 148 145 140 131 120 109 105 102 103 111 122 135 165 192 213 218 209 214 218 196 174 148 129 108 91 82 87 87 85 82 82 91 95 97 97 93 93 93 100 104 102 103 97 97 99 94 91 88 88 90 93 98 94 93 93 90 91 91 85 76 71 67 65 63 65 69 69 67 69 71 69 67 67 67 69 67 69 67 65 65 71 81 95 93 90 90 95 102 107 99 97 103 108 103 102 115 125 126 121 115 120 119 117 124 128 126 119 130 148 138 124 108 117 131 133 137 136 135 139 170 194 194 192 190 190 190 191 189 186 187 184 184 190 190 190 189 190 192 193 193 191 189 188 181 170 162 173 169 155 144 142 148 145 142 141 132 121
131 134 136 132 132 132 131 132 135 138 138 135 144 149 148 149 149 150 146 149 147 144 145 151 157 162 161 155 147 141 139 140 141 141 141 140 137 129 130 130 134 138 138 131 121 120 124 127 134 135 133 133 131 132 139 141 182 217 217 214 214 215 203 220 223 222 220 214 203 213 216 203 204 200 190 174 131 97 88 82 79 78 76 74 73 73 73 71 73 87 107 116 123 125 121 111 103 103 103 108 103 97 97 100 109 132 170 201 205 203 203 203 186 158 133 109 93 84 76 78 79 79 91 107 123 134 138 135 126 107 94 85 85 87 85 79 82 81 74 79 81 84 88 88 91 91 90 90 91 91 87 84 78 73 71 69 63 63 69 67 69 71 71 69 69 69 67 69 69 69 67 65 63 67 74 95 98 90 88 98 98 98 97 98 103 103 98 99 104 117 126 117 115 119 116 116 124 126 122 118 127 134 124 112 107 117 127 131 137 137 135 136 162 190 191 190 190 192 192 192 189 186 187 184 184 188 188 189 188 189 190 192 192 190 188 183 171 168 170 173 162 144 144 160 171 151 144 141 129 119
133 131 132 133 132 132 132 131 133 137 137 141 154 155 151 152 147 148 146 143 143 147 149 160 160 156 151 141 142 140 137 139 137 136 136 132 127 125 123 122 122 126 125 119 117 117 123 127 134 135 131 129 129 132 134 127 145 199 209 203 205 205 203 219 220 216 215 206 201 202 216 206 200 194 189 181 134 95 88 79 81 78 76 74 71 71 71 67 71 79 91 97 97 95 97 102 122 138 145 145 139 131 121 97 95 111 142 192 200 198 200 198 175 142 124 94 82 81 73 74 78 97 123 138 149 159 159 158 141 126 110 91 79 74 73 73 74 74 71 73 76 79 87 90 90 91 91 90 88 88 87 85 82 73 71 71 63 61 63 65 69 69 71 69 71 71 71 67 69 65 69 65 63 67 73 99 99 93 88 91 94 95 95 98 103 100 97 98 95 103 118 120 118 119 117 116 121 124 118 120 123 111 102 102 105 120 128 132 137 136 132 135 162 189 191 192 191 192 192 189 182 182 186 182 187 188 186 188 186 186 184 188 188 184 179 172 166 168 169 171 161 144 145 165 171 158 144 139 127 119
131 130 132 136 136 134 133 132 131 134 138 146 165 163 153 153 148 140 135 135 141 150 158 159 154 153 148 139 140 139 137 138 136 132 131 127 119 117 116 116 112 117 119 117 119 121 121 125 132 134 132 129 129 133 131 119 136 192 205 203 203 214 221 222 217 201 200 198 193 193 198 200 195 190 189 179 131 95 91 82 79 76 78 76 71 71 69 67 71 74 85 88 90 90 95 116 132 141 141 138 128 124 124 116 100 95 127 177 196 195 196 192 163 135 114 93 78 73 73 76 94 121 128 127 123 117 116 110 100 100 99 93 90 79 73 73 73 71 71 71 74 82 91 97 95 95 98 93 90 88 88 85 81 73 71 67 63 61 61 63 67 67 69 67 69 71 71 67 65 63 63 65 65 67 73 94 99 95 93 93 95 99 98 99 100 98 97 97 95 100 110 114 115 116 117 115 119 125 124 121 116 100 95 100 107 118 126 132 136 134 131 132 155 188 190 192 192 191 190 182 169 175 186 184 182 182 182 184 188 183 182 182 175 171 168 166 167 166 165 162 158 147 147 157 168 150 140 138 129 127
127 130 134 137 139 136 132 131 131 134 139 147 165 165 148 145 143 137 134 134 142 148 155 153 145 145 144 139 136 134 133 134 136 133 128 122 118 117 115 116 112 112 114 114 120 121 120 123 131 137 136 131 128 131 127 118 134 196 214 203 205 220 225 225 219 199 192 188 183 177 183 193 191 186 184 168 130 91 88 85 81 76 74 76 71 71 71 67 67 73 81 85 87 87 98 105 100 94 88 73 71 71 78 97 105 102 107 155 190 196 196 187 153 125 104 93 79 73 76 88 102 110 103 95 93 73 59 59 59 71 73 73 74 73 73 67 71 71 71 73 91 104 107 108 104 102 100 93 87 85 85 82 76 71 71 69 63 61 61 63 69 69 65 65 69 69 69 69 65 63 63 65 65 67 73 87 99 99 98 95 94 99 99 99 95 97 103 100 99 108 116 114 109 105 109 111 114 122 126 124 116 102 93 94 98 103 112 124 130 130 132 132 147 188 192 194 197 194 190 181 169 174 187 184 176 181 178 178 185 179 176 171 165 162 166 165 162 160 155 155 153 150 152 156 155 144 139 138 134 131
127 132 137 139 139 135 134 133 131 135 141 148 158 157 144 141 141 139 134 139 144 144 145 142 139 139 141 137 133 131 130 132 134 134 128 119 118 116 116 117 112 111 111 112 118 121 120 122 130 138 139 133 127 130 128 118 132 199 221 213 205 218 222 223 219 198 194 194 182 177 190 192 189 186 182 166 137 95 85 79 76 76 74 73 71 69 69 67 67 73 76 82 87 87 88 90 95 107 95 67 59 59 71 73 93 109 104 139 185 196 196 185 145 111 94 90 79 78 85 93 97 109 126 134 131 93 59 65 63 63 63 63 67 67 71 67 71 73 73 91 117 126 123 117 110 108 102 94 90 87 82 84 81 73 73 71 65 61 63 69 69 63 63 65 69 67 69 69 69 69 65 65 65 65 71 81 98 99 98 93 90 94 93 94 95 95 99 103 102 108 116 115 108 103 103 104 110 120 126 126 119 103 90 90 93 94 100 109 122 127 130 131 139 179 193 197 198 196 191 186 174 179 187 177 171 181 178 177 182 177 171 164 158 154 158 161 162 159 153 153 153 153 155 155 152 143 137 136 134 132
129 131 136 139 139 139 141 141 135 135 141 148 148 144 140 141 144 144 142 146 149 143 139 139 136 137 139 136 133 128 126 131 134 134 128 122 119 117 120 123 116 111 117 116 119 121 119 116 124 135 141 138 127 128 129 121 130 194 221 217 202 208 220 218 198 187 190 194 188 182 192 192 187 182 176 171 149 117 90 73 73 74 74 73 73 73 69 67 67 84 105 111 99 88 93 111 132 138 122 73 67 71 73 73 79 110 124 134 181 196 196 185 145 109 88 85 79 91 105 112 128 155 179 179 160 120 71 73 73 71 73 76 88 85 88 97 111 123 124 130 134 139 133 124 116 107 100 97 93 88 85 84 81 74 73 69 67 65 67 65 63 61 61 63 65 67 69 67 69 69 67 65 63 65 67 79 94 95 91 91 90 90 91 93 98 97 94 98 95 97 102 108 105 103 102 95 104 112 120 123 122 108 90 90 91 94 102 105 104 121 127 128 132 164 193 198 193 192 190 182 179 184 182 171 168 172 174 177 175 171 169 165 164 162 153 157 162 159 153 155 151 145 148 153 153 142 134 132 132 129
129 131 133 135 136 140 141 141 136 140 144 145 144 141 139 143 147 145 145 148 149 143 141 140 136 137 138 134 130 126 126 129 133 132 130 127 123 119 121 123 117 112 116 119 120 120 115 111 118 133 141 135 126 125 127 131 145 198 221 203 196 199 204 203 171 147 152 177 189 182 177 182 188 177 174 172 158 126 91 74 73 73 73 74 74 73 71 67 67 102 132 141 128 119 127 138 157 166 145 124 110 109 107 108 118 128 135 139 183 196 195 183 145 114 93 87 82 98 119 132 151 192 192 189 181 154 124 111 111 110 112 115 117 111 115 130 141 150 153 153 152 148 140 129 121 114 104 97 90 88 85 81 76 73 67 67 69 71 71 71 63 63 63 65 65 67 69 69 67 69 67 65 63 63 71 82 98 97 93 94 94 93 94 94 98 97 97 93 90 90 93 99 98 97 98 95 98 102 107 109 114 110 97 97 95 94 105 107 103 112 126 132 136 154 191 198 192 190 189 182 180 181 179 174 171 168 172 174 168 170 169 162 162 160 150 158 158 152 156 162 151 144 144 147 147 140 132 131 130 128
132 134 134 132 134 139 141 138 135 141 148 145 145 144 139 146 147 145 149 150 148 148 141 140 140 137 136 132 128 127 129 128 131 134 137 134 125 112 109 116 112 114 119 119 115 112 112 111 122 135 138 132 125 124 131 168 199 221 204 192 190 196 196 181 141 126 130 142 168 168 165 165 183 184 178 173 159 126 82 73 73 73 76 76 71 67 71 67 71 107 136 153 141 131 139 158 173 186 186 177 147 136 130 130 134 134 137 142 186 198 194 183 144 118 98 88 85 100 119 136 148 173 189 182 182 177 149 136 135 132 127 121 118 117 125 138 149 161 167 171 168 159 144 132 123 117 109 98 90 90 90 78 74 71 67 65 69 69 67 69 65 65 65 65 69 69 67 67 67 69 69 65 63 63 69 87 102 99 94 94 94 99 98 94 95 97 98 98 91 90 94 98 98 97 99 97 98 98 100 102 102 107 104 103 100 97 108 110 102 104 122 134 140 150 183 191 190 189 188 182 175 174 177 174 171 171 177 177 168 170 169 165 161 149 149 159 156 152 156 162 154 148 147 148 146 139 136 133 130 128
134 134 134 132 133 141 141 135 134 140 148 145 149 150 141 144 146 142 145 151 150 150 142 141 141 139 139 137 134 133 133 132 136 138 138 134 121 103 97 108 115 120 120 117 114 114 114 114 124 134 135 129 122 118 136 192 213 200 192 188 189 189 177 155 131 126 129 127 135 144 153 148 171 187 182 177 153 114 79 73 74 76 76 73 69 67 65 67 71 116 138 153 148 139 141 146 153 163 165 153 134 120 111 121 128 131 136 148 192 201 194 182 142 110 97 93 93 100 118 133 138 141 153 152 153 148 140 133 130 128 121 111 105 111 127 139 153 169 177 182 179 171 148 135 126 119 110 97 87 87 87 76 74 71 65 63 69 69 69 67 67 69 69 65 69 67 67 67 67 69 69 67 63 63 67 81 102 98 93 94 97 100 100 94 95 97 99 99 95 95 95 100 102 102 100 97 99 99 98 102 104 104 100 104 110 108 115 112 104 103 118 135 139 148 182 190 188 186 188 187 176 168 169 168 168 173 174 167 162 169 168 163 159 147 147 154 159 159 156 156 154 152 152 148 140 135 134 136 135 128
134 134 134 133 132 140 145 138 134 141 149 151 150 146 140 142 143 143 142 153 157 148 143 143 141 136 141 141 139 136 136 136 137 138 137 129 110 100 97 107 115 120 120 114 115 116 116 116 123 131 133 129 119 115 136 183 177 178 185 183 178 168 147 136 128 127 127 118 118 132 139 141 163 185 187 181 136 95 82 73 73 74 74 73 67 67 65 67 73 127 145 161 165 159 150 138 134 130 124 118 104 102 102 122 135 148 149 159 196 205 195 179 141 110 97 102 102 104 122 135 141 141 141 134 131 128 123 122 118 115 108 105 117 135 145 158 170 182 189 189 186 177 153 137 127 112 102 91 82 78 81 78 76 71 67 65 67 67 71 71 67 65 65 65 69 67 67 67 67 69 67 67 63 63 71 74 91 93 91 90 91 95 91 90 91 94 95 94 94 94 94 95 98 99 98 97 100 103 102 98 103 100 94 97 109 111 115 112 109 107 117 135 136 141 182 189 186 186 189 187 177 166 165 165 167 174 168 157 162 168 165 161 156 150 148 150 153 153 153 153 153 152 150 142 136 133 133 137 135 128
136 136 136 137 135 139 145 141 140 147 154 155 147 142 140 145 146 142 147 159 159 146 141 140 137 137 136 136 138 137 136 136 137 141 138 127 104 99 102 110 116 122 122 117 114 114 116 115 121 127 132 131 117 109 135 159 141 158 183 179 165 151 138 127 126 130 131 122 118 125 127 131 153 181 185 155 115 93 87 74 74 76 76 73 71 71 69 69 74 131 162 180 192 192 184 164 147 136 130 124 119 124 132 147 173 184 178 174 200 214 197 179 140 115 103 107 109 118 132 142 158 166 154 141 135 134 132 128 126 130 134 141 159 182 183 184 187 189 189 189 181 171 151 136 126 111 97 88 82 78 81 78 74 71 69 65 67 69 71 71 67 65 63 63 65 65 65 65 67 69 69 69 65 63 67 73 91 90 88 87 85 85 85 90 91 93 98 97 95 98 95 100 105 100 97 97 100 105 103 99 102 99 94 94 102 107 109 110 111 115 119 131 133 134 166 185 184 188 190 186 171 164 167 167 165 168 162 155 161 163 161 158 156 153 151 153 156 157 154 154 151 149 148 141 137 135 133 137 134 128
136 136 141 147 141 140 141 141 141 149 155 149 145 143 141 145 146 141 147 154 152 143 137 134 134 135 127 128 136 137 134 131 135 141 141 125 102 102 105 115 118 122 122 115 110 110 114 114 114 120 127 126 108 100 131 145 124 132 167 168 145 138 130 121 124 134 134 124 121 120 118 124 146 168 162 129 100 91 85 76 74 74 74 76 73 73 69 67 76 132 171 193 222 224 218 204 203 194 181 169 162 168 173 187 200 200 196 190 202 218 198 174 139 118 109 110 118 132 151 177 188 192 187 182 184 194 196 190 190 193 198 203 214 218 203 198 193 189 186 180 170 158 145 136 125 111 94 85 85 81 78 73 73 73 71 67 67 69 71 71 67 67 65 63 63 63 63 63 65 69 69 69 65 61 65 73 88 88 87 88 87 87 90 94 94 94 99 99 99 105 103 107 116 116 116 115 110 104 103 104 104 103 97 94 97 99 102 100 103 115 120 126 129 128 142 169 186 188 190 180 165 164 169 169 164 162 159 153 153 158 158 156 156 157 156 156 160 160 155 152 148 147 146 142 140 137 135 135 134 130
137 139 148 148 141 139 141 140 138 144 150 146 143 141 139 141 143 141 141 143 143 141 136 133 133 130 127 132 137 137 131 127 126 135 134 121 109 109 109 114 118 120 117 108 107 105 105 111 114 111 119 118 104 100 126 135 117 118 144 149 132 131 128 119 119 131 134 129 121 115 108 119 143 160 138 107 93 87 81 73 71 73 74 73 71 67 67 67 79 133 177 200 224 226 226 228 228 225 219 201 194 195 200 203 206 200 198 200 208 219 197 169 139 123 116 112 123 141 171 194 201 207 216 216 220 229 236 236 236 234 233 229 226 223 216 200 193 186 180 171 161 148 139 131 120 107 93 84 84 84 82 73 71 71 67 67 67 67 69 71 71 71 69 63 61 61 61 63 63 65 71 71 65 61 63 71 84 91 88 87 88 90 94 94 93 94 97 97 100 107 111 114 116 120 121 121 115 104 102 104 103 103 98 97 93 94 99 99 99 107 111 121 127 128 135 161 187 188 188 179 171 172 174 174 166 153 153 152 153 162 162 153 156 165 163 158 157 154 151 148 147 147 147 144 141 140 139 140 139 135
139 141 141 131 124 131 135 137 137 141 146 144 142 141 137 137 141 140 137 137 137 135 132 134 133 128 127 135 137 134 126 119 117 123 122 110 109 109 109 112 115 119 117 108 100 98 98 103 107 105 110 115 105 102 114 119 110 115 130 135 129 129 127 123 119 127 132 129 120 112 104 116 138 142 120 99 90 85 82 73 71 73 73 73 71 67 69 71 85 134 179 194 206 220 224 225 224 223 224 222 218 216 220 223 222 209 203 212 217 220 198 166 139 127 123 122 128 151 179 194 205 226 231 228 231 237 241 242 241 241 239 235 229 223 216 200 190 182 172 164 152 141 133 124 111 104 93 87 85 85 84 73 71 69 69 67 71 69 69 69 69 69 65 61 59 59 61 61 63 65 69 67 65 61 63 67 82 95 91 91 93 93 91 93 93 94 99 102 107 110 114 116 116 112 112 107 103 105 103 100 97 102 97 98 95 93 94 102 103 100 102 112 123 131 136 153 181 184 187 182 182 181 172 168 165 158 153 153 156 157 153 153 160 165 162 156 153 150 148 147 148 148 148 145 142 142 143 144 143 137
139 139 129 108 100 119 129 133 136 139 140 141 139 137 135 135 139 140 136 135 134 132 131 131 131 129 128 131 133 129 124 119 115 115 112 109 111 110 107 109 112 120 119 110 102 98 95 97 98 102 105 110 105 100 104 110 110 115 121 122 122 125 125 123 122 125 130 127 119 107 97 111 132 130 102 94 88 87 87 76 73 73 67 71 71 67 71 73 85 131 166 182 196 205 219 221 222 224 225 228 227 225 226 229 224 219 221 221 221 221 198 164 138 128 125 128 136 158 180 196 217 230 233 233 235 238 241 241 240 237 234 231 227 221 205 196 186 176 165 155 145 138 132 123 111 103 95 87 79 79 81 74 73 71 69 67 71 67 67 69 67 65 63 63 61 59 61 63 65 69 69 67 65 61 61 67 87 102 103 107 104 97 91 93 95 95 95 100 104 103 107 108 104 102 99 94 93 99 107 105 95 95 94 93 93 91 93 95 95 95 94 95 112 128 135 145 171 184 187 186 184 179 169 160 162 166 158 152 157 156 153 156 162 164 158 161 161 153 148 148 149 151 151 148 146 148 147 146 144 136
137 134 123 108 100 108 124 132 136 137 139 139 137 135 135 136 140 141 137 136 135 132 130 130 129 126 124 127 128 128 127 125 119 109 107 110 114 112 107 107 114 119 117 110 108 102 94 94 97 103 107 111 109 100 104 111 115 117 115 112 115 118 120 120 120 125 127 125 117 103 97 108 128 122 94 87 85 85 87 79 74 73 67 71 71 71 71 73 82 126 153 175 191 201 214 220 222 225 228 231 231 233 230 229 222 218 220 223 225 226 201 166 141 131 126 126 138 158 179 197 217 229 231 229 229 233 236 237 237 234 230 228 224 218 201 191 179 168 156 146 140 134 129 122 112 105 95 87 82 81 81 74 73 73 69 69 71 69 67 71 71 65 65 69 63 61 61 63 65 69 69 67 65 63 63 67 85 102 108 117 112 100 95 95 95 94 94 95 95 100 108 104 100 99 100 97 93 94 104 107 94 94 95 93 91 91 94 94 94 97 95 99 111 124 130 135 148 171 183 183 177 171 165 163 160 166 164 152 154 156 158 159 163 161 160 168 171 161 150 150 152 152 153 152 153 153 150 146 143 136
137 134 124 116 114 117 126 136 140 140 139 138 138 137 137 141 145 143 141 138 135 133 130 128 122 116 120 123 127 128 128 127 121 108 107 111 115 115 109 108 114 118 117 111 107 105 98 99 99 103 107 112 110 104 105 111 112 111 104 103 100 102 109 115 120 123 125 122 112 103 100 110 127 116 88 85 85 87 88 82 76 73 73 73 73 73 71 71 79 117 142 168 187 199 212 220 224 226 230 232 234 235 232 228 222 217 219 222 229 229 204 171 141 133 128 128 140 158 179 197 214 224 226 224 225 229 231 234 236 234 231 225 221 211 197 186 172 158 148 141 136 129 125 121 115 104 93 88 85 85 85 78 74 73 67 67 67 67 71 71 71 65 65 69 61 61 61 63 65 67 69 67 67 65 63 67 88 107 116 122 120 111 108 105 100 100 95 97 100 103 105 108 109 105 107 103 100 97 100 108 110 111 107 93 95 98 99 95 94 103 104 109 117 118 123 126 134 141 148 155 158 158 160 157 155 159 153 152 152 153 158 158 160 161 161 168 171 164 155 154 154 153 151 151 153 153 148 145 141 138
141 135 120 112 115 125 135 144 144 141 139 138 140 141 141 148 148 146 141 138 135 133 129 125 118 112 115 120 125 128 128 127 122 112 108 112 115 115 116 116 120 122 119 112 104 105 105 105 102 102 107 111 109 103 105 108 108 103 99 98 93 94 103 112 119 123 123 120 110 103 100 112 126 105 85 84 87 88 85 76 74 73 73 73 73 73 71 71 74 107 136 162 183 198 211 221 224 227 229 232 235 234 229 226 222 218 216 224 233 234 209 174 142 134 129 131 143 161 171 191 205 220 221 222 224 228 232 234 235 233 229 224 220 203 193 181 165 150 142 136 128 124 121 119 111 98 90 82 79 84 85 82 78 73 67 67 67 71 71 71 67 65 65 63 63 61 63 63 65 65 69 67 69 69 63 71 104 131 138 139 138 134 132 130 130 131 132 131 129 126 124 128 129 124 123 123 120 117 111 119 124 127 120 102 107 109 104 95 102 108 107 109 118 115 115 119 124 126 131 136 141 142 151 147 147 146 142 145 149 151 148 145 148 154 155 161 164 162 158 157 149 144 142 142 146 148 144 144 144 136
141 130 107 102 103 116 135 143 141 139 137 137 138 138 137 140 144 143 141 137 134 132 126 118 110 110 110 119 124 127 127 126 124 119 112 112 110 110 114 122 122 122 116 108 103 105 107 107 100 100 105 110 109 103 107 105 107 103 99 95 94 93 100 110 120 123 123 120 111 107 105 116 121 98 78 76 82 81 76 73 73 73 73 73 73 73 71 67 73 95 130 158 184 198 213 221 224 226 227 229 231 229 224 222 218 214 218 224 234 236 208 175 149 138 134 132 140 158 173 191 209 217 219 221 225 228 231 233 233 230 225 221 214 200 188 176 165 149 139 132 123 122 117 112 104 97 91 87 84 79 84 81 79 73 67 69 71 71 71 69 65 63 65 63 63 63 63 65 65 65 65 67 69 67 65 71 117 144 144 144 141 141 141 139 142 150 160 162 149 146 147 160 160 150 145 145 143 141 139 138 138 137 137 134 133 131 127 126 130 131 129 131 136 133 130 128 130 134 136 139 139 141 149 148 144 141 139 139 141 146 144 139 139 142 144 148 150 149 147 148 144 140 138 138 140 142 142 142 145 136
124 114 99 95 95 95 123 135 136 135 133 133 134 133 129 128 131 133 134 135 134 131 124 114 110 112 112 121 126 127 125 122 122 121 119 111 110 115 118 122 122 118 110 104 103 103 104 103 102 100 103 105 107 108 109 103 103 103 99 93 90 90 98 108 115 120 120 112 108 105 107 110 104 85 74 76 76 74 73 73 73 73 71 73 73 73 73 67 71 90 124 151 182 198 208 220 224 224 225 225 225 224 220 218 201 201 205 224 236 231 199 171 157 142 136 133 138 149 173 191 205 216 217 220 222 224 225 225 226 224 221 217 204 196 186 174 163 148 137 131 125 123 120 111 102 99 98 91 88 84 79 76 74 73 69 69 71 71 71 67 65 65 67 69 63 63 63 65 65 65 65 69 69 69 63 69 90 122 128 135 139 134 128 124 122 137 153 162 159 154 154 162 163 162 153 148 144 144 146 148 147 149 152 154 153 149 148 146 147 150 153 151 158 159 154 154 149 148 148 150 153 162 171 165 155 148 150 150 147 149 148 149 148 144 146 149 153 153 146 146 148 148 146 142 144 151 152 147 147 141
104 103 97 94 93 93 112 131 133 133 132 132 132 131 127 123 124 124 129 130 132 129 123 116 112 114 116 123 130 128 122 122 123 124 124 119 116 118 120 118 114 109 105 104 103 104 103 102 102 104 104 104 105 109 109 103 103 104 100 93 88 88 95 108 112 115 116 109 105 108 104 103 98 76 74 74 73 73 73 73 73 71 71 73 73 73 73 71 73 88 119 144 177 196 206 219 221 222 224 223 222 220 208 198 190 192 205 224 235 225 192 169 158 144 137 133 136 141 159 186 200 204 210 214 218 220 220 221 221 220 216 203 200 194 182 168 158 143 135 129 124 122 118 105 94 93 95 91 88 85 84 78 74 73 69 67 69 71 67 67 69 69 67 69 65 65 63 65 65 65 65 65 65 65 63 67 71 93 103 116 122 115 110 109 109 127 138 148 153 154 148 153 157 151 147 141 140 141 143 147 148 149 150 153 159 166 166 165 159 159 159 158 162 163 166 166 166 161 158 165 174 179 179 171 168 165 171 171 164 164 165 165 159 148 145 141 142 150 148 145 154 164 162 155 159 171 171 159 152 142
100 102 98 93 91 91 104 126 132 134 133 133 130 128 124 122 121 119 124 128 129 128 124 118 112 115 117 119 130 130 125 123 125 126 126 125 116 114 118 118 114 108 105 108 103 104 104 105 105 108 107 103 105 109 109 107 108 105 100 98 93 90 95 111 115 114 114 105 105 108 100 98 95 73 73 73 73 71 73 73 71 73 71 71 73 73 71 69 71 78 108 138 172 192 202 213 219 221 222 222 221 213 198 186 174 182 201 224 230 221 192 171 155 139 135 131 127 131 145 180 196 200 203 203 209 216 218 218 218 215 203 199 194 188 174 160 148 139 130 124 120 115 109 100 93 90 88 88 87 84 84 81 76 73 71 65 67 69 67 67 69 67 65 69 65 65 67 63 63 69 65 65 63 63 63 65 71 87 95 97 94 97 100 103 104 108 115 126 133 136 135 137 141 138 134 130 129 132 134 136 138 138 137 137 140 150 159 159 159 159 157 156 155 153 156 163 166 168 171 177 182 188 188 182 174 172 174 174 171 165 157 148 141 138 137 132 132 138 141 137 145 162 164 162 165 166 165 156 146 132
100 102 99 93 91 91 99 121 131 134 133 132 130 129 124 123 124 119 119 124 129 127 123 119 111 116 118 122 131 133 130 126 125 127 126 122 114 114 119 119 116 112 108 108 104 103 105 105 107 110 110 105 103 107 108 109 108 103 100 107 102 93 102 110 111 105 103 103 104 104 97 94 87 73 73 73 73 71 71 71 67 71 71 71 73 71 69 69 71 74 97 133 165 185 196 201 211 218 220 221 220 203 192 179 171 183 203 225 230 221 195 172 151 138 132 131 128 127 141 181 198 204 205 203 205 213 215 213 207 203 198 191 186 180 168 149 139 131 124 119 112 108 103 100 95 91 85 85 85 84 85 81 78 74 71 65 65 69 67 67 69 65 63 63 65 67 65 65 65 69 65 63 63 63 63 65 71 81 90 87 85 90 93 93 95 99 99 104 108 114 117 122 125 120 117 111 109 107 105 108 114 117 116 117 121 128 129 129 135 141 147 150 146 145 145 151 162 164 171 177 179 184 187 183 171 165 166 162 148 136 130 127 124 124 127 129 127 125 124 124 131 141 153 164 177 175 164 153 144 131
98 102 95 93 93 91 99 122 131 133 133 132 130 130 127 124 123 120 118 124 127 126 122 119 111 117 120 123 131 133 133 130 129 126 126 123 112 112 117 118 116 112 109 105 104 103 104 104 105 109 111 109 103 103 105 105 107 107 100 110 110 102 104 109 111 105 103 103 104 100 94 93 82 73 73 73 73 71 71 71 67 71 73 71 71 69 69 67 71 74 93 127 150 174 186 196 202 213 219 220 216 200 188 174 171 190 213 232 233 222 197 174 149 140 137 135 134 130 135 179 205 219 219 203 202 203 204 205 203 198 193 184 176 174 164 141 132 125 121 116 110 105 100 97 91 90 87 85 87 85 84 79 78 74 67 65 69 69 67 67 65 63 61 63 69 71 69 67 67 69 67 65 65 63 63 65 71 79 90 82 82 87 88 90 94 98 98 98 99 104 107 110 110 105 103 99 95 95 91 93 94 100 100 97 99 108 108 103 107 124 132 139 138 137 136 140 146 150 160 164 165 163 162 167 163 150 142 135 130 126 124 115 111 123 124 124 120 111 109 110 122 128 135 158 181 181 155 141 135 123
98 98 94 94 94 91 97 119 132 137 135 132 131 129 125 123 121 118 120 126 127 123 117 114 111 114 119 121 126 128 131 134 134 128 126 124 119 112 118 122 118 112 109 110 107 108 103 105 112 112 110 108 110 112 108 107 104 107 107 111 111 108 108 108 112 110 108 105 103 102 100 95 85 73 73 73 73 73 73 71 67 73 73 73 71 69 67 65 67 73 91 121 139 156 176 190 198 204 209 209 202 193 183 166 164 188 220 235 235 226 200 177 152 139 135 135 132 128 126 168 214 222 217 200 200 199 201 204 201 197 188 177 168 158 147 137 129 123 120 114 108 109 98 93 90 88 88 88 90 85 84 81 82 76 67 65 63 65 65 65 65 69 63 61 63 69 71 71 71 71 69 69 69 65 65 65 69 73 85 87 85 87 87 87 91 93 97 102 99 97 100 105 104 98 99 97 95 97 93 90 90 98 100 95 95 99 99 94 95 104 108 119 126 129 132 134 134 136 144 146 144 142 141 144 144 136 130 128 127 127 121 111 118 123 121 115 108 107 108 107 119 123 118 134 150 148 132 123 120 109
98 98 95 94 93 91 97 114 127 136 136 132 130 128 125 122 119 116 118 123 125 123 116 114 114 115 119 118 120 121 126 131 132 128 124 125 122 115 119 122 119 119 117 116 110 105 105 111 118 118 112 110 117 118 110 105 104 107 110 111 109 107 105 107 111 110 108 108 107 105 104 99 85 73 73 73 73 73 73 73 73 76 74 73 71 67 67 61 65 71 88 112 129 141 165 184 191 197 199 200 196 189 178 153 145 176 217 232 233 222 192 157 135 128 126 125 121 120 116 149 200 222 218 205 201 199 198 195 195 191 181 172 164 148 139 131 125 119 115 108 102 103 97 93 88 88 91 90 88 85 84 82 84 78 67 65 65 65 65 65 65 69 65 63 61 63 65 69 67 71 71 69 65 65 65 65 67 71 84 93 87 85 90 93 91 93 97 102 103 97 95 97 99 94 94 98 102 102 97 95 94 93 93 95 100 99 94 97 100 104 100 102 110 117 125 130 129 131 136 134 132 133 130 126 129 126 128 129 127 127 121 116 122 122 114 111 107 108 109 102 116 120 112 116 126 124 107 97 105 102
98 98 95 93 93 93 98 104 112 129 138 135 129 128 128 126 123 116 119 121 123 124 120 115 115 119 117 120 122 118 118 124 127 126 125 126 126 118 120 124 124 123 120 112 108 109 110 116 119 118 115 114 118 115 109 104 107 108 108 107 104 100 102 105 110 109 109 111 108 105 102 97 88 74 73 73 73 71 71 71 71 76 76 73 71 67 65 61 61 67 78 105 125 138 158 177 183 188 190 190 188 188 180 149 130 144 187 205 213 192 157 131 117 108 104 100 102 104 103 138 192 220 217 210 201 198 193 190 189 183 172 162 150 143 137 128 124 119 111 105 100 99 97 94 91 91 91 90 87 87 90 87 82 74 71 67 65 65 63 63 65 65 65 63 61 61 61 65 67 69 67 67 65 63 65 65 67 71 84 93 85 85 90 94 94 95 99 102 103 98 97 95 91 90 90 94 99 100 95 98 100 94 91 94 100 98 95 102 102 102 102 104 108 112 119 126 127 128 130 129 131 132 127 122 123 124 125 127 124 119 119 121 124 121 108 110 118 118 109 100 109 117 116 109 111 114 102 97 109 108
97 98 98 94 95 95 99 99 100 120 138 138 131 128 130 129 126 120 120 122 123 124 121 119 116 118 119 120 122 120 117 118 121 122 120 125 126 122 121 125 126 125 120 116 110 112 115 117 119 119 119 116 114 111 108 107 108 108 107 104 100 100 104 108 112 111 112 110 104 103 100 98 94 78 73 73 76 73 67 67 67 73 73 69 67 69 65 61 59 65 73 98 122 135 151 165 173 182 183 182 186 190 193 182 139 123 138 162 160 138 118 105 94 88 79 79 88 90 93 128 174 203 217 216 203 195 188 188 183 177 167 151 141 135 131 128 121 114 111 107 100 98 94 95 93 91 90 90 88 90 91 88 76 74 73 71 69 65 63 63 65 67 69 63 61 59 61 63 69 71 67 65 65 63 63 63 67 71 81 91 87 85 87 93 98 98 98 97 97 94 95 97 93 88 88 91 93 99 99 98 100 99 93 91 93 91 93 102 100 97 97 100 103 108 116 122 124 123 125 123 125 126 124 121 123 124 124 127 125 111 120 125 125 124 108 110 118 119 116 100 107 117 115 109 109 110 105 100 110 110
94 94 95 94 93 93 99 94 94 111 132 138 135 133 132 130 126 122 119 119 121 120 120 122 120 118 118 119 122 120 117 117 118 116 116 122 126 123 124 126 126 125 124 120 111 112 119 120 119 119 117 116 112 107 105 107 109 107 105 104 103 104 108 112 115 111 109 107 104 102 99 95 94 78 73 74 76 73 71 67 67 67 69 65 65 67 69 69 61 63 73 95 119 130 141 153 166 172 175 182 194 200 209 221 196 147 123 123 122 105 93 91 79 76 79 82 79 85 94 127 162 192 213 209 198 186 185 187 174 168 159 142 135 132 128 126 120 114 109 104 102 98 91 93 93 91 88 88 91 91 90 85 79 74 73 71 71 65 61 63 69 69 65 65 63 61 61 63 69 71 71 67 67 63 63 63 65 67 74 84 87 85 85 90 91 93 94 93 93 93 95 94 95 90 88 91 93 94 94 98 100 100 91 85 88 91 97 102 103 102 98 97 100 105 114 117 120 117 119 118 118 119 120 118 123 123 123 125 122 111 121 125 119 115 107 115 114 115 118 107 105 111 111 108 107 108 108 109 118 111
93 91 91 88 90 93 94 93 93 108 124 134 136 133 132 129 127 124 122 121 119 117 118 122 122 120 119 120 121 120 119 120 117 117 117 117 120 121 123 123 125 126 125 119 114 111 117 117 115 114 114 112 105 105 108 110 116 118 111 110 108 109 112 115 115 112 110 109 105 100 98 97 97 78 73 74 76 76 71 69 67 67 67 65 65 65 67 65 63 65 71 93 115 125 135 144 153 163 168 182 194 205 225 230 235 221 164 116 88 82 85 84 76 79 87 90 87 90 105 131 160 187 194 192 187 176 170 168 157 150 147 138 131 129 125 125 120 112 109 105 98 98 91 91 94 94 88 88 90 91 90 82 81 78 73 69 65 63 59 61 61 63 65 63 61 63 63 65 67 71 71 71 69 69 63 61 63 67 74 88 88 88 90 93 91 93 95 94 94 94 97 97 98 94 88 88 91 91 90 88 93 93 90 85 88 94 100 103 108 110 105 102 109 117 122 119 115 114 116 118 114 111 114 110 117 117 112 119 122 116 122 123 120 114 107 109 112 117 118 117 117 114 112 107 108 112 114 115 119 115
91 91 88 88 91 94 91 91 94 104 109 131 136 134 133 129 127 126 126 123 119 117 118 123 120 119 122 120 120 121 118 120 119 117 116 111 115 117 120 123 126 129 126 121 114 111 114 114 114 114 116 116 111 110 115 114 117 120 118 115 114 114 112 112 114 111 110 109 107 100 97 100 98 78 73 73 76 73 71 71 71 67 67 69 69 69 67 69 69 67 71 90 111 122 132 140 145 148 154 171 188 203 229 234 239 239 220 168 118 79 79 81 78 85 90 91 95 104 121 136 162 179 175 170 165 158 153 149 142 140 140 137 131 127 123 121 119 114 109 104 97 98 91 91 91 90 90 88 88 90 87 79 76 74 71 67 65 63 61 59 61 61 63 63 63 63 69 67 67 67 69 67 67 63 61 61 63 67 73 90 93 98 99 99 100 100 103 103 102 98 98 99 100 102 97 93 91 94 91 88 88 90 90 90 93 99 103 105 109 110 110 111 118 123 123 121 114 108 107 103 100 104 107 105 110 112 112 118 122 119 119 118 119 119 107 107 115 121 123 125 130 124 117 112 118 121 117 115 119 115
93 94 90 91 94 93 93 91 91 98 103 130 138 137 133 128 128 127 126 124 120 121 123 126 121 119 122 120 117 116 114 115 117 118 112 111 117 118 123 126 127 129 126 122 112 112 114 114 115 118 119 116 116 115 111 112 119 120 118 115 111 110 109 110 110 112 111 109 107 103 98 102 94 73 73 73 73 73 73 73 73 67 71 73 71 69 67 69 69 67 73 85 108 121 131 139 142 143 147 160 179 198 222 231 237 239 229 203 148 109 88 88 85 93 98 99 110 121 131 141 151 159 156 153 145 140 142 141 139 139 137 137 131 128 123 119 117 116 111 105 97 97 97 93 91 90 91 91 90 88 85 79 76 74 71 67 69 69 63 63 63 63 63 61 63 65 69 69 71 67 67 67 65 65 63 63 63 67 73 91 94 99 99 99 104 109 110 110 107 105 105 102 102 102 102 98 95 98 95 94 95 93 93 95 98 102 103 100 104 105 107 103 111 119 115 110 103 102 100 100 100 103 104 107 112 116 117 116 118 122 120 117 117 123 114 111 120 123 126 129 131 128 124 121 122 122 121 116 117 111
94 93 91 94 95 94 94 91 91 94 103 126 138 137 132 127 128 128 127 126 124 124 125 126 123 121 121 118 114 114 116 115 118 121 120 120 120 119 126 126 124 125 122 114 109 109 114 112 112 115 117 115 115 114 111 115 119 119 116 112 108 107 108 111 112 116 115 110 105 107 104 100 93 73 73 73 73 73 73 73 73 71 71 74 73 71 67 65 63 69 71 76 97 119 131 139 140 142 145 153 168 184 205 221 224 228 223 213 168 130 108 105 102 108 114 116 123 130 135 138 140 138 136 136 131 127 133 138 139 140 141 139 132 129 125 119 118 117 115 108 102 103 100 98 95 91 91 90 90 87 84 79 76 76 71 69 67 69 69 69 65 63 63 63 63 67 71 69 71 69 67 67 69 65 65 65 65 67 73 93 95 97 95 97 102 104 103 107 108 108 108 102 98 102 99 98 98 99 102 102 102 94 90 94 100 100 97 91 91 99 98 94 102 109 107 102 102 102 104 104 105 104 107 111 109 110 115 114 115 122 123 120 123 123 117 116 122 123 125 134 134 134 128 125 121 119 117 114 111 107
94 94 93 93 98 94 93 94 94 95 104 124 138 137 131 127 128 128 128 126 125 123 125 126 123 122 121 115 115 116 116 114 119 121 119 118 116 115 121 121 119 120 119 112 111 112 111 114 110 110 112 114 114 112 116 119 120 119 114 109 105 107 111 115 115 117 115 111 108 107 107 104 95 79 74 73 73 73 67 67 71 73 73 76 74 73 71 65 61 61 67 73 91 116 132 138 140 143 142 144 151 159 177 191 199 219 228 222 180 141 132 127 124 123 124 123 127 134 133 133 131 129 124 122 118 121 133 140 141 144 147 143 137 132 127 122 118 112 111 112 107 105 98 95 98 93 90 88 88 85 85 79 76 76 71 69 69 67 67 67 65 65 63 65 65 65 71 69 65 65 65 69 71 71 67 69 69 69 73 88 93 99 99 95 97 98 97 97 99 97 99 98 98 100 97 97 98 100 102 99 93 82 82 88 93 93 90 88 88 90 90 91 98 109 108 105 105 109 111 112 110 112 112 110 109 110 115 119 124 124 124 126 128 125 117 120 120 120 122 129 134 127 122 116 108 107 104 104 104 95
93 94 93 93 99 94 91 98 98 99 100 121 138 138 131 128 129 128 125 125 124 122 121 122 121 118 116 110 110 115 115 114 119 120 117 115 112 112 119 120 119 120 119 116 117 117 116 115 112 111 112 112 114 117 119 121 122 120 115 111 108 105 109 114 117 117 114 111 105 102 105 107 102 82 74 74 74 73 67 69 71 71 73 76 78 73 73 71 65 61 65 71 87 110 127 135 140 146 142 139 140 136 139 153 177 190 200 203 187 164 148 139 131 127 127 125 126 130 128 125 121 117 110 111 122 131 140 143 144 145 148 144 137 131 128 126 121 111 110 112 110 102 97 94 98 94 91 87 87 84 85 81 73 73 71 69 69 67 67 67 65 65 67 67 65 65 63 63 61 61 63 65 69 67 67 69 69 69 71 81 94 99 94 91 91 98 110 105 100 95 94 95 99 103 99 99 97 100 102 95 91 85 82 88 90 93 93 90 91 91 90 91 102 108 114 117 119 120 119 117 114 120 122 118 119 121 125 129 131 126 128 130 129 123 117 118 120 120 120 121 121 116 107 94 93 100 100 97 100 93
91 91 91 93 99 94 90 94 99 99 99 117 135 137 129 128 130 129 124 124 123 123 119 117 116 114 115 112 116 120 115 117 117 118 114 112 115 115 120 120 119 120 117 119 115 114 116 116 114 115 116 117 117 116 117 121 122 120 114 112 109 105 108 111 115 115 114 108 99 102 104 105 103 87 76 73 73 73 71 73 73 73 73 76 78 74 73 73 69 63 65 71 79 102 125 135 141 148 148 140 135 126 108 108 124 128 135 144 154 153 141 130 122 119 119 117 114 114 114 105 97 91 91 110 134 146 148 148 148 148 148 143 137 132 129 126 122 115 110 112 108 103 98 94 95 91 88 87 82 84 84 74 67 69 67 65 67 67 71 69 67 69 69 69 69 63 59 59 59 59 61 61 65 67 67 67 69 67 67 76 95 98 91 91 91 102 111 111 103 95 93 94 100 103 98 100 102 107 107 103 102 95 91 93 98 99 97 95 98 97 97 98 105 112 123 127 125 125 124 123 121 122 124 128 127 127 130 131 131 129 130 128 125 123 119 120 121 121 112 109 111 110 97 91 91 99 100 97 102 97
91 91 91 93 99 93 90 93 95 103 105 118 136 137 131 128 130 127 123 123 123 122 120 118 114 114 117 115 122 122 116 116 117 119 119 114 115 117 120 120 118 118 119 120 115 110 110 110 115 117 117 117 117 117 115 119 120 120 116 112 110 107 108 109 110 108 107 104 98 102 102 102 102 94 79 74 73 73 73 73 73 73 74 74 78 74 73 71 65 65 65 69 73 90 121 134 141 148 155 152 138 127 104 95 95 102 102 105 122 130 126 117 103 97 97 94 91 91 91 91 91 91 108 131 147 150 151 151 149 148 148 146 136 132 127 123 122 120 114 111 105 104 99 95 97 90 87 85 84 79 76 73 71 67 65 63 65 69 71 71 67 69 69 67 63 63 61 61 59 59 59 61 65 69 69 67 69 69 67 74 91 98 97 97 95 102 108 104 100 97 93 98 100 102 98 99 107 111 111 109 104 100 100 97 102 103 99 100 104 104 105 108 112 120 126 127 127 125 128 129 127 124 127 134 129 128 131 131 129 127 125 125 124 124 121 120 118 109 97 95 104 108 99 94 97 100 100 98 102 102
94 94 94 94 93 93 91 94 95 107 114 121 135 137 132 129 128 125 123 124 124 119 119 116 115 117 116 118 122 121 117 120 120 121 122 120 120 120 121 121 118 118 119 117 116 114 112 115 114 116 117 111 112 114 111 112 116 117 112 112 112 109 108 108 103 97 98 97 99 100 97 97 102 98 79 73 73 73 73 73 71 73 76 74 78 76 71 67 63 61 65 67 71 76 110 130 141 153 161 166 159 145 138 145 166 168 149 141 136 130 118 109 109 104 102 97 95 97 99 105 116 128 139 147 149 152 153 153 151 148 148 143 134 129 125 121 119 119 116 112 103 100 99 97 94 88 87 84 84 79 78 79 73 69 65 63 65 69 71 71 67 69 69 65 63 63 63 63 61 59 59 61 65 71 71 69 69 69 67 73 84 95 100 102 100 102 105 104 103 98 98 102 102 103 105 105 109 108 105 102 102 104 105 103 100 103 102 107 115 112 112 114 116 121 125 127 128 128 133 135 133 128 127 134 130 128 128 128 125 122 123 124 125 124 119 111 103 94 94 97 103 110 109 107 108 105 98 95 99 99
98 99 97 93 93 93 93 95 99 108 112 122 132 133 130 129 125 123 124 125 123 117 117 116 116 119 119 121 122 122 121 122 122 121 122 120 118 118 118 118 111 109 108 110 112 111 111 115 115 117 115 110 110 111 109 109 108 109 110 115 115 111 111 109 103 97 98 97 99 100 97 97 102 94 79 73 73 73 73 67 67 74 78 78 78 73 71 63 61 61 69 71 71 73 94 123 139 160 168 172 181 177 183 203 220 205 200 200 194 175 149 149 148 138 131 128 124 126 127 130 135 144 148 148 149 151 153 153 152 149 147 140 132 129 125 119 116 111 111 110 102 99 99 99 94 88 85 78 79 81 79 79 73 67 65 63 65 67 69 67 69 67 69 67 65 65 65 65 63 61 61 61 65 69 71 71 67 67 67 71 79 100 99 102 102 100 100 100 103 104 105 103 102 107 111 109 104 102 100 100 105 105 105 105 104 108 108 110 115 112 116 114 110 120 123 125 128 129 133 135 134 127 127 129 128 125 126 124 123 122 120 122 123 118 109 97 93 93 93 94 97 107 110 107 108 108 97 95 100 100
97 100 99 93 91 93 93 95 102 108 115 125 132 133 129 127 125 123 124 125 124 121 120 120 120 120 121 121 120 121 119 121 120 120 121 118 117 115 114 114 105 100 99 103 108 107 108 110 112 116 114 114 115 112 110 109 105 103 108 110 109 109 111 109 105 104 104 103 102 104 107 103 102 91 76 76 76 73 71 71 71 74 78 74 73 71 67 65 61 61 63 71 69 67 82 109 130 146 162 170 181 187 201 228 228 206 195 192 190 174 162 167 167 148 139 132 130 130 131 136 143 148 150 150 151 151 152 152 150 148 144 135 127 126 122 118 112 108 105 110 107 102 99 97 94 87 79 78 84 82 78 74 71 65 65 69 69 67 69 71 69 67 71 69 69 67 69 65 65 63 63 63 65 65 71 71 67 65 67 71 76 95 97 100 99 97 97 97 100 103 105 108 110 114 114 112 108 107 105 103 107 107 105 110 105 109 115 109 110 111 116 111 110 117 120 126 129 127 129 130 130 129 128 127 125 125 124 122 121 117 109 107 103 103 98 94 97 102 97 98 97 103 108 107 107 105 107 100 98 100
95 100 97 91 90 91 94 99 105 111 120 126 130 130 128 126 124 124 125 126 127 126 124 125 123 120 119 121 121 119 119 122 121 120 120 117 115 116 111 108 104 103 99 103 108 107 107 110 108 108 110 111 116 116 111 105 103 102 102 104 105 107 109 111 111 111 111 111 107 109 115 111 111 94 76 78 81 78 73 73 71 73 78 74 71 67 65 71 67 65 63 63 63 67 74 90 115 132 142 156 170 184 200 220 217 198 182 160 148 141 136 135 134 130 126 121 118 119 124 130 137 146 148 148 148 148 148 148 148 144 140 133 127 123 121 118 111 104 103 108 108 104 98 91 88 87 84 84 84 84 78 73 67 65 63 71 71 69 71 73 73 71 71 69 69 69 69 65 65 65 71 65 63 63 67 69 69 69 67 71 73 90 98 98 102 104 108 108 107 108 105 109 111 112 110 112 112 111 109 107 107 107 104 110 109 110 115 114 114 110 114 114 112 115 119 126 129 127 125 124 125 127 128 127 123 120 121 116 108 100 95 95 93 94 91 91 99 102 102 105 105 109 117 118 118 118 116 102 99 105
94 98 93 90 90 90 93 100 110 117 120 123 127 129 130 130 127 129 128 125 127 127 125 125 122 118 120 124 125 124 121 122 120 118 121 120 116 116 115 109 107 109 107 109 110 109 110 107 102 102 107 104 104 108 102 97 102 103 100 105 110 107 107 109 112 112 112 112 112 109 117 118 118 97 78 82 79 78 74 73 71 73 78 73 67 65 71 71 71 69 67 61 61 63 71 74 95 117 129 142 153 169 188 200 200 194 183 154 132 122 108 102 104 102 97 102 107 116 121 125 130 135 139 142 147 148 145 145 146 139 133 129 126 121 117 115 108 102 103 107 105 100 93 87 87 87 88 84 78 81 76 73 67 67 67 67 69 67 71 73 71 71 71 71 71 67 65 63 63 65 71 65 63 65 67 67 69 69 67 71 73 90 103 104 105 105 109 109 107 107 110 114 112 114 111 110 109 109 109 107 104 104 103 112 114 109 114 117 118 111 110 108 107 110 116 122 125 123 123 120 114 114 117 119 115 112 108 100 95 91 90 90 90 91 91 94 98 98 99 108 114 116 120 119 112 112 108 99 103 109
94 94 88 88 90 91 94 100 108 112 115 119 125 127 129 129 125 128 127 126 126 123 124 122 119 118 121 123 125 123 119 120 117 118 122 122 115 115 111 108 108 111 115 114 109 108 107 103 102 105 109 105 102 102 100 97 98 100 102 107 110 107 107 110 109 111 111 112 112 109 110 112 116 95 82 82 76 76 74 73 67 71 74 74 71 67 67 71 71 67 63 61 61 61 65 71 81 98 112 131 142 156 171 192 195 192 186 162 136 123 108 102 103 97 99 104 112 121 122 127 131 137 141 143 146 147 143 141 140 133 128 124 121 115 110 108 107 102 102 105 103 97 90 87 87 87 88 81 78 81 78 73 73 71 71 69 67 67 71 73 73 73 71 71 71 67 63 63 61 61 61 63 69 69 69 71 69 69 71 73 73 94 115 116 111 105 104 103 102 102 114 118 118 118 116 116 112 109 111 109 107 107 103 108 105 104 107 110 118 110 107 107 105 105 109 111 108 107 110 109 103 99 100 105 107 103 97 91 91 91 90 88 88 93 95 95 97 98 94 110 122 123 123 119 110 110 105 102 108 109
94 94 88 87 88 93 98 102 104 104 108 109 115 123 125 124 122 123 123 123 123 118 117 117 119 117 120 118 118 118 114 114 114 115 119 119 114 108 107 109 109 115 114 112 114 110 110 105 102 108 109 109 105 105 105 103 103 99 100 105 109 108 108 110 109 108 108 111 112 108 109 108 105 91 79 82 78 76 73 73 67 71 73 73 71 71 67 67 69 67 65 63 63 63 63 65 71 81 94 121 135 145 154 178 188 188 186 178 166 148 134 130 129 122 125 126 127 129 135 139 143 145 144 142 140 141 141 140 136 128 121 119 114 111 108 105 104 102 104 104 103 98 91 87 87 87 84 79 78 81 76 73 73 73 73 69 67 67 71 73 73 71 71 71 69 65 63 61 61 61 61 61 63 65 67 71 69 71 71 73 71 93 116 116 109 102 102 102 102 104 111 118 116 116 118 120 120 114 116 117 114 105 103 107 104 105 104 99 108 111 111 110 110 103 104 107 100 100 100 100 97 94 91 94 98 99 95 88 88 93 91 90 93 97 97 94 97 98 94 109 124 126 127 123 116 115 109 104 108 105
94 91 87 87 88 91 98 100 100 100 100 99 103 116 118 118 121 123 120 120 120 116 114 112 112 112 116 116 114 114 112 110 110 110 117 114 110 104 104 105 108 110 105 109 114 111 111 107 103 109 108 108 109 107 105 108 109 105 103 107 107 105 108 109 109 108 107 109 111 108 112 114 111 95 76 78 78 78 74 73 71 71 71 71 71 71 69 69 69 69 67 69 71 67 63 61 65 71 74 100 123 134 148 171 185 186 189 196 198 191 177 171 170 162 153 148 141 141 149 150 146 144 145 144 140 139 140 139 135 127 119 111 109 108 104 103 102 100 100 100 102 102 98 90 87 85 85 81 78 78 81 74 73 73 71 69 71 73 73 73 73 67 67 67 69 67 63 63 63 67 63 63 63 63 65 69 67 67 71 71 67 88 109 111 108 102 102 102 102 102 108 115 116 118 119 123 123 119 120 123 119 104 103 108 108 104 104 99 107 114 114 108 104 103 107 109 104 102 102 102 97 94 88 88 91 98 94 88 90 93 91 93 100 102 97 94 97 103 103 110 122 127 131 127 119 117 109 103 103 104
93 91 90 88 90 91 99 100 98 99 98 98 98 109 114 112 118 122 121 121 123 121 121 119 114 114 116 116 115 115 115 112 110 110 112 108 108 107 107 105 105 107 102 102 114 114 111 110 108 109 107 107 111 110 109 109 109 110 109 111 109 107 108 114 109 107 107 109 110 109 111 116 117 100 76 76 76 76 76 76 73 67 67 65 67 69 69 71 69 69 69 71 71 69 63 61 61 63 71 82 100 122 141 167 179 189 201 220 226 224 221 217 205 196 186 173 158 154 160 154 145 143 148 148 141 137 138 137 130 122 114 108 107 107 103 99 99 95 93 93 94 95 94 88 87 84 85 81 76 81 81 74 71 67 67 67 71 73 73 73 73 67 69 67 69 67 69 65 65 69 67 69 69 63 65 69 69 67 67 71 67 87 102 108 112 110 105 108 107 104 112 117 118 120 120 123 119 118 122 123 121 109 108 117 114 109 115 109 107 109 107 105 108 111 114 112 110 110 108 109 97 93 94 91 91 93 95 93 98 102 97 97 108 110 105 109 112 112 115 119 122 126 131 130 125 119 115 108 105 104
94 94 98 93 91 91 91 93 97 99 97 94 94 100 111 115 120 122 123 123 126 126 126 125 121 117 118 118 119 118 119 118 115 114 116 111 110 109 107 108 110 109 105 102 108 111 112 112 112 114 117 120 120 121 122 122 120 120 119 120 121 122 121 124 123 120 121 121 118 120 120 123 123 107 76 76 78 78 76 81 79 73 67 65 65 71 71 71 69 67 69 71 71 67 63 61 59 61 67 73 82 100 127 146 165 187 215 235 238 233 229 227 226 215 197 184 167 161 158 152 145 140 144 142 137 137 133 129 122 112 107 100 104 102 99 98 95 94 93 94 93 91 90 87 87 84 81 76 76 81 81 74 71 67 65 71 71 71 71 71 73 71 67 67 69 69 69 67 67 67 71 69 67 63 63 65 69 65 65 67 71 87 102 114 118 115 115 111 107 110 116 116 117 118 119 116 116 117 120 119 111 107 112 117 109 107 115 114 108 105 109 115 115 119 122 115 114 117 110 108 99 99 107 110 102 95 103 104 105 103 97 108 117 114 116 121 123 123 122 125 128 128 133 134 127 118 120 114 108 104
95 95 98 95 93 88 87 88 93 95 93 91 91 97 107 117 120 120 122 123 124 124 123 126 123 119 118 120 120 120 116 114 116 117 117 116 115 112 110 112 115 114 109 104 105 109 109 110 111 117 123 125 125 124 124 125 125 124 124 125 126 128 130 131 131 130 131 134 131 130 131 132 132 118 88 81 81 82 78 76 78 73 71 67 67 69 73 73 71 67 67 71 67 63 61 61 61 63 65 73 73 78 103 130 149 182 206 231 238 233 231 233 230 222 202 188 170 161 153 148 144 140 141 138 134 132 129 124 115 110 104 97 99 99 98 95 94 102 98 95 94 88 85 85 87 85 79 78 81 81 81 76 71 67 67 69 71 71 71 73 73 71 67 65 65 65 67 69 69 67 71 71 67 65 63 69 69 65 65 65 71 88 105 117 120 120 120 119 116 114 112 112 116 119 119 121 122 121 120 115 107 107 114 112 103 102 109 110 107 105 110 115 114 120 122 120 119 120 118 115 112 117 121 126 119 109 117 122 118 114 112 118 118 116 120 119 120 123 119 123 128 128 133 134 129 124 121 119 110 104
91 91 91 93 91 88 87 87 87 90 88 88 88 90 95 107 111 114 117 120 121 122 120 121 119 115 114 120 120 114 110 109 112 116 116 112 110 111 115 115 109 111 114 105 104 107 108 108 109 117 122 125 125 124 121 123 124 120 121 122 125 126 129 131 129 127 128 131 134 134 134 133 132 121 90 82 82 81 76 74 76 73 71 71 71 71 71 71 71 71 71 71 67 63 61 63 69 65 65 69 67 71 79 104 132 165 194 215 222 226 235 235 226 205 194 182 169 158 152 148 144 139 137 138 130 125 123 119 110 105 104 98 95 97 97 98 98 102 98 93 90 87 82 84 87 85 78 78 81 78 78 76 71 67 71 71 71 71 71 73 71 69 71 63 63 63 65 67 67 71 71 71 71 65 65 63 65 63 65 65 71 85 102 110 119 119 120 122 122 120 116 114 118 123 124 126 126 122 118 114 110 111 116 111 103 103 109 112 110 105 105 109 109 111 115 118 120 120 122 122 117 122 126 126 124 119 122 122 122 120 120 120 116 117 118 112 110 111 112 117 125 127 128 130 131 129 125 121 117 107
88 88 88 91 91 87 85 87 87 85 85 87 87 85 82 90 99 109 111 116 124 125 121 117 112 112 111 116 116 111 109 108 111 112 114 110 104 105 107 107 104 110 114 108 108 110 111 108 105 114 115 118 119 121 116 117 118 115 114 116 116 119 122 125 124 121 119 118 123 125 126 124 126 118 90 78 78 76 74 73 76 73 71 71 73 73 71 73 73 73 73 73 69 63 61 65 69 63 63 63 65 67 71 79 107 135 160 187 198 205 222 223 215 198 186 174 164 154 149 144 141 136 132 129 123 118 116 111 105 102 102 95 94 94 99 102 98 98 94 93 88 87 82 84 84 84 79 78 79 81 82 74 73 73 73 73 69 67 69 69 69 67 69 65 63 63 63 65 69 71 71 69 69 67 67 65 65 65 65 67 71 84 97 108 118 120 121 120 119 120 120 118 116 125 129 125 124 120 117 114 116 116 112 114 110 110 118 117 114 110 108 107 107 107 110 115 114 110 110 114 109 112 123 122 123 123 121 120 118 117 117 118 118 114 111 112 109 110 114 117 123 124 121 122 126 127 123 118 112 104
87 87 88 94 91 82 79 85 87 84 82 84 87 85 79 79 90 102 108 115 124 125 121 116 115 112 111 111 110 108 108 108 110 114 114 109 103 104 102 102 102 105 108 108 108 109 109 109 105 109 111 110 108 105 104 105 109 109 107 107 108 109 111 116 116 117 112 110 109 109 114 118 123 118 93 82 76 74 73 71 73 74 73 73 73 73 73 73 73 73 73 73 71 65 63 69 67 65 61 61 63 63 67 73 88 105 130 155 177 184 191 194 192 189 179 162 150 147 144 139 134 129 125 121 112 110 108 109 105 103 103 97 94 99 102 95 91 93 91 91 88 87 85 84 84 78 79 81 84 84 81 74 73 73 71 69 67 65 65 63 65 67 67 67 71 65 63 63 67 71 71 67 67 71 69 69 69 65 63 67 71 87 104 111 115 120 121 117 116 120 121 119 116 124 128 127 126 123 122 120 120 120 112 112 111 114 120 119 112 115 114 109 111 114 116 116 111 112 112 110 109 109 114 115 116 114 114 115 116 116 118 119 118 112 112 109 105 108 115 114 119 120 117 116 118 115 109 103 103 100
85 87 87 94 93 79 79 82 84 82 84 82 85 87 82 81 82 91 102 115 125 125 121 116 115 114 115 114 112 109 110 110 110 112 116 112 110 108 102 103 102 104 109 108 109 111 109 109 109 109 115 116 109 104 103 105 111 112 107 109 108 108 109 112 116 117 117 116 112 110 111 118 125 126 103 79 78 76 73 67 73 74 74 73 73 73 73 71 71 67 71 73 71 67 67 69 69 65 63 63 63 69 65 67 74 88 104 129 144 160 171 167 164 158 151 144 138 136 133 130 125 118 114 109 104 102 100 104 102 98 99 97 100 100 98 90 85 87 88 88 87 87 82 84 84 78 82 87 88 84 84 76 73 67 71 69 67 63 63 63 65 69 71 69 71 65 65 61 65 71 71 69 67 71 71 67 69 65 63 65 71 87 103 108 109 116 119 115 116 121 120 116 116 120 124 125 126 122 120 122 123 123 120 116 115 115 120 117 115 121 121 111 110 111 116 119 116 116 117 118 121 119 118 116 114 110 115 109 104 104 108 117 116 107 109 103 99 103 109 116 124 122 117 116 117 105 102 100 100 98
84 85 90 95 91 84 84 85 84 79 84 85 87 87 84 79 79 85 94 110 125 125 119 118 117 115 117 118 119 115 115 116 112 110 117 118 115 108 102 104 102 108 114 110 112 112 109 109 112 112 115 116 116 114 111 115 121 123 117 117 119 120 122 125 126 127 130 130 127 123 125 127 131 132 116 79 78 76 71 67 73 74 74 73 73 71 69 67 67 71 73 73 71 69 71 71 69 65 69 65 65 69 65 65 71 76 88 103 124 134 145 146 140 137 134 130 127 125 120 115 109 105 104 103 102 99 98 99 98 98 98 97 97 93 90 87 79 84 85 85 84 82 79 79 87 87 88 88 87 87 88 81 74 67 69 71 69 65 65 69 65 67 71 67 67 69 69 65 67 73 73 71 69 69 67 69 67 63 61 63 71 87 99 104 109 110 115 117 114 117 115 108 108 112 114 117 121 117 111 116 118 119 118 116 111 111 117 119 118 121 119 115 111 109 116 119 118 117 112 117 122 124 126 123 117 110 114 112 108 105 100 103 107 107 111 104 99 100 108 121 131 129 126 126 125 116 105 100 99 95
85 87 90 95 88 85 85 84 82 79 87 88 87 87 84 81 81 85 91 107 122 125 122 122 119 117 122 124 124 123 121 120 120 117 120 119 112 112 110 107 105 111 114 112 112 109 108 110 115 115 111 111 121 120 118 121 126 126 126 127 126 126 129 132 133 133 134 136 134 131 133 133 136 136 127 94 78 73 73 73 74 73 73 73 71 71 65 63 69 73 73 73 73 71 69 69 63 65 69 69 69 69 65 63 67 71 74 82 95 107 121 126 122 119 118 115 110 111 107 103 102 102 102 97 97 99 98 99 98 102 103 97 93 91 88 82 79 81 82 82 84 81 79 82 93 93 91 90 85 85 90 84 73 67 67 71 71 69 67 71 67 67 71 67 65 67 69 67 71 71 71 73 71 69 71 71 67 63 61 65 71 82 98 109 109 104 109 109 108 104 100 95 97 103 102 102 105 105 108 109 104 109 110 109 104 105 112 117 118 117 109 107 110 108 114 115 114 108 97 103 112 120 126 126 121 112 110 114 111 111 104 100 105 114 114 112 104 105 121 131 135 135 133 130 128 121 111 100 99 97
87 87 85 88 85 85 85 85 85 91 93 90 91 90 82 81 79 85 94 109 118 120 124 125 121 119 122 125 125 124 123 121 121 121 120 115 110 111 109 108 109 114 112 112 111 105 105 109 111 112 111 115 121 120 118 120 125 123 125 127 125 125 127 130 133 134 136 141 141 138 139 139 139 139 134 109 73 73 74 76 76 73 71 73 71 71 65 65 67 71 71 71 73 71 67 65 61 61 63 65 65 65 63 61 65 67 67 71 76 88 93 99 100 99 99 103 97 103 104 102 103 98 93 90 93 99 98 97 98 103 103 98 94 93 87 82 79 81 84 84 81 79 84 85 94 95 91 88 87 87 90 81 73 67 67 71 71 69 69 71 67 69 71 69 67 69 69 71 73 73 73 73 73 71 71 71 67 63 61 63 71 79 99 109 104 97 97 103 104 99 90 91 95 98 98 98 98 97 107 107 99 103 105 103 103 100 108 109 111 109 97 93 98 103 105 103 99 91 85 97 108 114 116 117 116 111 105 104 103 105 99 99 105 107 108 105 100 105 121 127 131 134 135 135 131 126 122 117 115 105
87 87 85 85 85 87 88 88 91 95 94 88 91 91 84 84 79 84 93 103 104 112 122 125 122 117 118 121 123 121 120 119 118 115 114 111 105 104 102 105 102 107 107 108 108 107 104 105 105 108 110 116 120 116 114 115 117 115 111 116 118 116 120 126 128 131 133 137 138 137 137 139 139 137 134 116 73 73 73 73 74 73 71 71 71 71 67 67 71 71 71 71 73 71 67 65 63 61 61 63 65 65 63 63 63 67 67 67 71 74 78 84 88 90 91 95 94 99 100 97 94 91 90 88 90 93 93 94 94 90 88 90 90 88 88 87 84 85 81 84 79 81 87 90 95 94 88 88 88 87 88 81 73 71 71 71 67 65 67 71 69 71 71 67 67 69 71 73 73 73 74 74 73 73 73 71 67 69 63 65 71 78 91 100 102 98 103 104 103 99 91 90 98 98 98 95 97 97 107 105 98 102 97 93 97 98 99 95 97 98 94 90 90 91 99 100 98 90 85 98 111 108 99 103 105 107 104 99 94 91 90 91 94 91 98 105 100 105 110 107 118 127 134 134 131 126 122 120 117 107
85 87 84 85 84 88 90 91 95 95 88 82 85 87 85 82 79 79 82 88 93 105 119 122 119 116 115 116 119 120 120 116 114 111 110 108 103 102 104 100 97 100 105 105 108 108 105 107 105 105 110 119 117 110 108 108 111 109 107 107 109 110 110 118 119 123 126 127 131 131 131 135 137 136 132 118 73 71 73 73 73 73 73 73 71 71 71 67 73 73 73 71 73 73 71 71 69 65 65 63 63 69 69 63 61 63 63 63 65 67 71 73 78 79 82 87 88 90 91 90 88 88 91 90 87 87 87 88 87 79 79 87 88 87 90 87 84 85 84 81 79 82 90 94 95 91 87 87 87 87 85 81 74 71 71 71 65 65 65 69 67 69 67 65 65 69 71 71 73 73 73 73 73 73 71 69 69 65 63 65 71 76 88 95 98 100 102 103 100 100 98 93 97 97 95 98 99 97 99 99 95 95 90 90 93 98 95 93 93 99 99 88 87 90 98 103 99 91 91 100 102 94 88 90 94 97 94 91 87 79 79 84 79 79 95 107 109 111 109 104 104 116 122 125 125 120 117 116 114 108
84 82 82 85 82 87 91 94 95 94 85 82 82 84 85 85 84 78 78 85 91 105 118 120 116 117 117 116 116 116 115 112 109 109 110 110 105 105 105 102 97 102 108 109 112 114 111 114 112 112 119 126 124 117 117 121 121 118 115 119 121 125 125 127 128 129 129 131 136 136 136 139 141 137 133 124 82 71 73 73 73 73 73 73 67 71 69 67 71 71 73 71 71 69 67 71 71 69 71 65 63 63 61 61 59 61 59 61 61 61 67 71 76 79 79 84 79 84 87 87 85 84 90 90 82 84 84 84 84 79 81 84 85 87 90 85 84 85 84 81 79 82 87 91 95 95 87 87 90 91 90 82 76 73 73 71 67 65 69 63 65 65 69 63 63 65 65 67 71 73 73 71 71 73 71 71 67 65 63 67 73 76 87 94 97 100 98 95 95 97 100 95 98 97 100 102 102 97 97 98 95 95 91 91 93 98 100 94 94 97 95 90 87 88 95 103 99 95 95 99 93 88 85 85 87 87 88 87 82 78 79 84 84 88 98 107 111 114 114 107 105 105 105 109 111 109 115 120 120 111
84 82 84 84 79 84 91 93 93 90 82 85 84 85 85 88 88 78 79 87 97 104 111 119 120 121 121 120 120 119 120 122 121 121 120 119 117 117 115 115 116 116 120 121 121 125 126 128 127 128 131 135 135 131 129 130 131 131 131 133 135 139 138 137 137 137 139 141 141 141 138 141 145 141 136 132 104 73 73 73 73 73 71 69 69 67 67 67 69 67 73 73 71 67 71 73 71 69 71 69 63 61 61 59 59 59 59 59 61 61 65 71 79 87 87 85 79 84 87 82 79 78 84 85 82 82 82 84 85 84 82 81 82 87 87 87 82 82 81 79 84 88 87 90 98 95 90 93 95 95 94 87 84 73 73 71 69 67 69 63 65 69 69 65 63 63 65 67 71 73 73 73 71 69 67 71 65 63 63 67 71 74 81 87 91 99 102 95 95 95 98 95 99 107 108 105 104 104 100 104 102 99 103 100 97 97 100 95 94 97 93 91 88 88 93 93 98 102 95 94 91 88 85 85 87 87 85 84 81 78 79 84 88 93 102 100 102 110 112 107 103 97 94 95 102 97 117 123 123 110
84 87 85 81 79 85 87 88 87 85 82 85 85 84 82 87 88 87 85 88 100 104 109 118 121 125 127 129 127 126 126 129 130 130 126 125 125 125 125 125 125 125 127 127 127 127 129 131 131 131 132 133 136 137 135 133 137 139 139 139 144 144 141 140 140 140 141 144 144 136 135 141 145 144 141 135 117 79 73 73 73 71 69 69 67 69 69 67 71 71 71 69 67 67 73 73 71 69 67 67 63 61 61 61 61 59 59 59 61 69 67 67 81 91 93 91 90 90 87 82 79 78 81 85 84 85 85 87 87 88 88 87 88 90 88 88 87 85 81 81 87 88 88 90 95 98 97 99 98 94 93 90 87 73 67 69 69 69 63 63 69 71 69 63 65 71 69 69 71 71 71 71 67 67 69 69 65 61 63 65 71 74 81 85 90 94 100 102 100 104 107 102 102 105 108 107 104 104 103 104 102 104 107 107 100 95 97 94 94 95 94 91 90 88 90 91 94 102 93 91 90 87 82 85 87 87 85 85 84 84 85 82 85 90 98 95 90 97 108 103 100 97 94 98 97 94 110 120 120 112
79 87 85 84 79 79 82 85 88 82 82 84 84 84 82 87 93 91 88 88 91 98 103 115 120 125 131 131 131 127 127 130 130 129 126 125 125 125 124 124 125 125 126 126 125 124 122 124 125 127 125 126 129 133 131 129 134 138 140 140 140 141 141 140 139 139 141 143 143 136 135 140 141 139 137 133 124 91 73 73 71 67 67 71 71 67 71 71 73 73 69 67 63 65 71 73 71 69 67 65 63 61 61 71 71 63 59 59 61 69 67 71 87 102 107 102 95 94 90 82 84 81 79 84 87 87 85 87 85 90 90 88 91 93 88 88 91 88 79 79 87 90 90 90 94 100 102 99 93 90 91 90 82 73 69 67 67 71 65 65 71 71 67 63 65 69 71 71 71 71 71 73 69 67 65 63 61 61 63 65 71 76 88 95 98 97 97 103 105 107 104 99 99 98 98 100 99 103 102 102 100 103 105 103 97 95 95 95 95 95 97 94 93 93 94 93 91 93 91 88 87 87 88 82 87 88 87 84 85 90 93 87 87 82 85 87 87 95 102 100 109 108 103 104 100 94 110 116 117 117
79 81 79 81 79 79 81 84 85 81 85 85 82 84 84 90 93 88 85 85 85 82 88 108 116 120 125 126 125 123 123 126 124 120 121 120 121 121 121 121 121 123 123 121 118 117 117 118 118 122 124 121 121 127 129 130 135 140 141 143 141 140 141 143 142 141 141 140 138 135 135 137 139 140 137 133 128 107 74 73 71 67 67 71 73 71 71 67 71 71 69 67 63 65 67 71 71 69 65 65 63 63 61 63 65 63 61 59 61 63 69 71 85 109 118 114 104 103 99 90 87 87 85 85 87 87 85 87 85 88 90 88 91 93 88 90 90 91 90 88 91 94 93 94 98 102 98 95 91 88 88 85 78 73 71 67 67 71 71 65 65 63 65 69 65 67 67 69 71 73 73 71 71 67 65 65 63 61 63 69 73 76 88 94 98 97 97 99 102 102 97 93 95 94 95 97 99 103 99 100 100 103 103 98 99 100 100 99 97 98 98 98 98 97 107 100 93 97 93 90 87 90 90 85 87 93 90 87 85 88 93 91 91 82 82 87 91 100 99 99 102 110 110 110 105 102 109 115 123 123
79 81 79 79 84 85 81 81 81 82 87 87 84 82 85 85 87 84 81 82 84 81 79 104 116 117 118 118 117 117 117 119 115 112 117 117 118 117 117 117 117 120 121 119 117 117 118 123 123 124 127 128 131 133 134 136 137 141 143 143 141 141 143 149 149 142 141 141 135 135 135 136 137 139 138 136 135 127 94 73 71 67 69 73 73 73 73 67 71 71 71 71 69 65 69 71 69 67 65 65 63 63 61 61 63 61 59 57 59 63 69 71 79 109 123 122 112 108 104 93 91 91 91 91 91 90 87 90 88 90 91 90 90 90 93 94 93 93 95 94 94 97 100 102 103 100 95 94 91 88 88 85 74 71 71 65 67 71 71 69 65 63 65 69 67 69 67 67 71 73 73 67 67 69 67 71 69 67 67 67 71 74 85 90 93 95 98 98 95 95 93 93 93 93 94 98 103 100 91 93 93 94 95 95 98 100 98 94 93 95 97 97 98 98 109 109 108 102 95 94 90 88 87 85 87 90 93 95 90 90 94 94 93 90 88 95 100 103 104 100 99 105 110 108 105 105 109 114 126 126
87 85 85 87 87 87 82 81 81 81 84 84 82 82 84 82 87 82 81 82 84 82 79 103 115 119 122 122 117 115 116 114 112 115 118 118 121 122 120 120 120 123 126 126 125 125 127 129 129 129 132 134 137 138 138 138 138 139 141 140 137 138 143 149 146 140 140 139 137 136 138 137 136 136 134 133 134 130 110 78 71 71 71 71 71 73 73 71 73 71 67 71 69 69 67 69 67 67 65 63 63 65 61 61 61 59 59 59 61 69 69 67 78 108 123 125 119 112 108 100 99 98 98 98 99 94 91 90 90 90 94 93 90 90 98 98 95 97 99 97 98 98 98 103 104 103 95 94 91 90 87 84 74 67 67 65 67 71 71 67 67 69 69 69 67 71 71 69 71 71 71 69 67 69 69 71 73 73 69 69 71 76 88 90 90 95 104 102 98 98 94 95 95 94 99 100 99 94 90 90 91 91 94 91 91 95 93 88 88 94 95 97 100 99 104 111 115 108 97 98 94 90 85 85 88 90 91 99 94 93 95 97 103 104 103 107 110 110 111 107 105 108 108 102 105 114 115 111 124 122
87 88 90 95 94 93 90 88 87 85 82 82 82 85 82 82 85 84 84 84 85 88 91 107 116 117 119 119 117 118 119 121 123 124 126 127 128 130 129 127 126 129 134 134 130 131 133 133 133 134 135 136 137 137 136 136 135 135 136 136 136 136 139 141 141 141 141 140 141 138 138 141 141 137 136 135 136 133 124 95 73 71 73 71 67 73 74 74 74 73 67 71 71 71 67 69 69 65 65 63 63 63 61 61 59 59 59 61 63 63 65 67 74 104 123 126 124 121 118 110 105 103 104 105 100 97 94 93 90 90 94 93 91 91 95 97 98 99 100 100 104 105 103 103 107 109 103 97 94 90 88 78 71 67 67 67 69 71 73 71 69 69 69 63 65 69 69 67 67 67 69 71 67 65 65 67 73 71 67 65 67 74 91 90 90 95 107 105 99 102 102 103 108 108 111 115 117 116 109 111 109 105 105 97 94 100 104 99 94 102 103 109 115 108 111 114 116 117 109 110 102 95 95 95 99 98 100 107 104 104 107 108 111 114 114 116 115 115 115 107 107 108 105 99 105 117 117 112 121 116
90 93 98 102 103 103 103 103 102 99 90 87 87 85 82 82 82 82 87 87 91 98 108 121 120 116 115 116 116 121 123 126 128 130 131 132 132 130 129 129 127 128 130 131 131 133 132 132 132 134 136 137 138 140 140 138 136 135 135 136 136 137 139 141 143 144 143 143 141 137 138 139 139 135 136 137 137 135 130 108 73 71 73 71 67 73 76 76 73 73 71 71 73 71 71 73 71 65 63 63 63 61 61 59 59 59 61 61 63 63 61 63 67 93 119 126 127 126 124 118 112 111 110 109 105 105 102 99 97 93 95 95 94 94 95 99 100 103 103 102 108 111 111 111 112 116 111 104 99 91 88 76 71 73 71 67 71 73 73 73 71 69 67 65 65 65 69 69 67 67 67 67 67 65 65 67 71 69 65 63 67 71 88 98 97 98 105 107 108 108 111 114 120 122 127 132 138 139 136 135 130 125 123 122 122 123 124 122 117 116 116 121 123 119 119 120 121 122 120 122 117 112 112 108 112 115 115 117 120 121 118 118 118 118 118 118 112 107 107 107 107 107 99 99 109 114 112 117 126 120
94 102 107 109 111 112 115 116 115 110 97 95 91 90 88 88 91 93 94 97 104 112 119 122 120 116 117 118 121 124 127 129 130 134 134 133 133 130 129 128 128 131 132 132 132 133 133 133 133 136 137 138 140 141 141 141 138 137 135 136 137 139 140 142 144 146 144 144 140 138 137 135 135 135 136 136 136 132 126 116 79 71 71 71 71 73 73 73 67 67 71 73 71 71 73 73 71 65 63 61 63 61 61 61 61 61 63 63 63 61 61 63 67 88 116 128 131 131 128 124 122 119 115 112 110 108 107 111 103 97 98 98 97 95 98 100 103 104 104 107 114 116 114 115 114 116 115 109 100 94 90 76 71 73 73 71 73 73 73 73 73 71 71 69 65 65 65 69 63 63 63 65 69 69 69 67 69 67 65 65 69 71 81 100 103 105 109 112 118 119 119 120 126 130 134 139 145 145 144 141 133 129 126 127 131 134 133 129 126 125 123 127 129 129 128 129 129 124 124 126 126 127 128 125 123 126 126 125 125 129 130 132 136 136 134 131 126 118 118 114 110 108 105 108 115 118 125 128 139 135
107 115 119 120 120 118 118 117 117 114 110 109 103 98 95 94 98 104 108 112 121 126 125 125 124 123 123 125 128 129 129 130 132 135 135 133 131 131 130 129 131 133 133 133 133 133 133 134 134 136 137 138 139 140 140 139 137 137 138 139 140 141 143 146 147 146 142 140 136 136 138 136 135 134 136 136 133 128 124 115 78 71 73 71 71 71 71 67 67 71 71 73 73 71 73 73 67 65 65 63 63 69 65 63 69 69 65 65 63 63 61 63 71 78 107 130 135 134 132 127 125 123 120 118 114 109 112 109 103 97 97 98 95 98 99 97 100 107 109 110 116 117 117 118 118 119 117 112 103 97 90 74 73 74 73 71 73 71 71 73 73 73 73 73 71 67 65 63 63 63 63 63 65 67 67 71 69 69 69 71 69 67 73 90 99 102 109 116 123 123 121 125 131 132 135 141 139 137 137 135 129 128 127 127 133 135 135 133 129 129 129 133 137 140 148 152 141 132 129 126 126 128 130 130 127 131 130 130 128 134 139 144 158 158 153 153 145 141 139 127 120 119 119 121 122 122 123 124 136 139
119 122 125 123 122 120 120 117 119 120 119 117 109 104 105 107 110 114 119 121 124 126 125 126 126 124 124 126 127 127 127 129 128 130 133 132 130 130 130 130 131 130 130 132 131 130 130 133 133 133 136 137 140 140 137 137 137 138 140 140 141 143 147 148 148 143 140 135 135 135 139 138 137 135 134 133 132 129 126 112 74 73 73 73 71 73 73 71 73 73 71 73 73 71 71 71 67 69 69 63 63 69 67 69 69 69 69 65 65 65 63 65 67 73 100 126 137 138 135 130 128 126 124 121 119 116 115 112 104 99 99 100 98 99 99 97 103 110 111 111 120 119 121 121 123 123 120 115 108 103 94 84 76 74 73 71 73 71 71 73 73 71 71 73 71 69 65 65 65 65 65 65 67 69 67 69 71 69 69 71 69 69 67 78 93 100 105 111 116 112 111 117 122 122 126 130 127 124 126 128 126 127 128 129 133 134 133 130 129 130 133 137 144 147 159 159 144 133 129 124 123 125 128 126 127 134 134 139 141 143 150 155 153 141 138 139 136 136 131 121 111 117 118 118 112 114 116 111 122 127
123 126 125 122 122 123 125 123 123 125 125 122 117 116 120 122 122 121 123 123 123 124 122 124 126 123 124 125 125 125 125 127 125 124 130 130 130 130 133 133 129 128 129 127 126 127 127 130 130 132 137 139 140 140 137 135 137 139 140 140 140 140 141 143 146 143 141 140 137 136 138 141 141 135 128 126 132 133 131 112 74 73 73 71 71 73 74 73 73 73 67 71 67 69 71 69 67 67 65 65 65 65 67 69 67 65 65 69 69 67 71 67 67 71 93 123 135 138 137 133 130 129 127 125 123 121 119 117 111 104 105 104 100 102 103 105 108 111 111 114 124 126 126 125 126 125 123 118 112 108 104 91 76 73 71 73 73 71 73 73 73 71 71 71 71 71 71 67 73 73 71 71 73 73 67 67 71 69 65 65 67 69 71 71 78 95 94 94 94 91 93 91 93 93 95 104 107 104 108 114 115 118 122 125 129 129 128 128 128 133 138 141 143 143 143 144 137 126 122 119 124 129 127 125 128 134 134 138 139 138 141 135 127 116 109 109 107 107 97 99 107 116 107 107 104 111 116 111 107 105
123 126 126 126 125 127 127 126 125 126 126 125 124 125 125 125 125 126 126 125 125 124 122 122 123 124 125 128 128 127 127 126 122 110 111 122 128 131 131 131 130 129 127 117 108 111 121 126 126 131 136 140 143 143 140 135 135 137 139 139 138 137 139 140 143 141 141 141 139 136 136 141 144 134 118 107 126 133 131 109 76 74 74 73 71 73 74 71 73 73 67 71 71 69 69 71 67 65 69 69 65 67 71 71 65 63 65 65 67 67 71 67 71 67 88 118 131 136 136 133 132 130 129 129 128 126 123 120 112 105 107 104 100 104 110 114 114 112 116 120 126 129 129 129 129 129 126 123 116 110 112 99 82 74 71 71 73 73 78 74 74 73 71 71 71 71 71 71 73 73 73 73 74 74 71 69 69 65 63 63 65 69 69 69 71 81 82 79 76 74 81 78 76 78 78 79 85 87 88 85 91 94 102 111 120 123 123 129 133 141 141 138 137 135 133 132 126 118 118 124 128 129 127 123 123 128 124 122 121 118 116 109 108 107 104 104 104 94 91 94 115 118 109 103 102 105 103 99 98 95
124 124 125 125 127 127 127 125 127 125 125 127 128 128 128 127 125 128 128 125 125 124 124 124 127 127 128 131 132 132 131 124 110 103 103 114 121 120 119 124 126 129 125 109 99 95 99 114 111 116 126 136 145 146 141 136 133 135 137 137 134 135 138 137 138 138 139 141 139 139 141 147 147 131 103 103 121 132 130 105 78 78 78 73 73 73 74 71 73 73 73 74 71 69 71 73 71 67 65 69 69 69 69 71 67 67 65 67 65 65 65 67 67 71 82 109 126 134 137 137 134 134 133 133 130 129 127 125 119 110 115 111 104 108 112 116 116 118 125 127 129 132 132 132 133 132 129 126 121 116 112 100 88 78 71 71 73 73 74 78 78 73 71 71 67 71 73 71 71 71 71 73 78 79 71 67 65 65 63 63 65 67 69 65 69 73 76 81 76 74 74 73 74 74 73 73 74 76 76 76 81 79 88 98 109 117 126 134 138 135 128 125 124 121 123 123 120 124 130 139 138 138 138 135 131 129 124 123 117 116 117 114 118 121 118 111 102 93 91 97 121 122 117 110 102 95 93 94 95 95
119 123 125 127 128 124 124 128 129 128 128 129 129 129 129 127 129 130 129 128 129 129 130 132 135 135 136 138 138 134 127 116 109 107 102 108 112 103 102 107 125 126 121 111 103 98 91 94 100 94 95 122 139 144 145 138 133 133 136 132 126 126 129 129 137 139 140 143 138 135 135 143 141 125 105 102 110 122 124 99 76 74 74 73 74 74 73 73 73 73 76 78 71 67 73 73 71 69 69 71 71 71 71 71 71 71 71 67 67 67 67 69 73 78 88 104 122 128 132 137 137 137 137 136 133 132 130 130 124 116 120 120 115 116 119 122 124 125 129 130 133 133 134 134 134 134 133 129 125 119 116 104 95 87 74 71 71 71 73 76 76 73 67 69 67 71 73 73 73 71 71 73 78 81 73 67 65 69 69 63 63 65 65 65 67 73 78 78 76 76 73 71 73 73 73 73 73 76 76 76 76 76 79 91 103 111 125 134 132 120 105 95 91 88 94 103 116 127 134 141 147 152 153 146 143 141 132 125 123 123 124 121 122 122 115 104 97 103 102 107 122 118 114 109 102 98 95 93 95 97
119 124 127 128 128 128 129 131 131 130 130 132 134 134 134 132 132 132 132 133 134 135 137 141 147 147 148 148 144 129 116 111 115 107 102 105 108 100 102 105 122 123 114 105 102 103 93 91 100 94 93 104 128 138 144 130 118 124 128 124 115 116 117 118 130 141 144 144 130 118 118 128 127 114 105 102 102 107 111 93 76 74 73 73 76 74 73 73 73 74 78 74 71 67 71 73 73 67 71 73 73 71 71 71 73 73 71 67 67 67 71 73 81 87 91 105 120 123 127 133 138 141 140 137 136 133 133 134 128 122 123 124 121 123 123 125 125 129 132 133 134 136 137 137 137 137 136 133 128 123 118 108 99 90 84 73 71 67 71 73 74 73 67 67 67 73 73 73 73 71 71 73 78 81 71 67 69 67 65 65 65 65 63 63 67 73 78 76 74 74 73 71 71 73 73 74 76 78 82 81 81 76 79 87 97 104 114 119 118 104 93 79 71 73 73 79 97 118 124 130 138 147 153 147 147 147 134 125 122 124 126 127 122 108 91 91 103 110 102 108 118 112 109 103 99 103 99 91 97 95
121 125 128 128 128 129 131 129 130 132 132 133 135 135 133 132 134 133 132 134 134 137 138 141 144 144 144 141 130 118 112 116 115 109 107 110 105 103 102 93 97 100 95 94 95 103 102 97 100 95 91 94 108 116 121 105 97 115 117 115 119 121 118 108 107 121 127 128 110 103 97 97 104 108 107 102 98 98 97 85 79 78 74 73 76 76 74 73 73 73 73 73 71 67 67 71 67 71 73 73 71 71 71 71 73 73 71 71 73 73 78 85 91 97 100 108 116 119 124 133 138 141 141 140 137 135 134 133 129 127 129 125 124 127 128 128 129 131 133 136 137 137 139 140 140 140 138 136 130 125 120 109 95 91 90 76 71 67 71 73 74 73 73 71 73 73 74 76 74 71 71 73 81 79 71 67 69 65 65 69 67 69 63 61 65 71 73 74 74 74 74 73 73 74 76 78 81 81 81 84 82 78 79 85 95 100 93 85 88 88 82 76 73 67 67 74 85 91 99 107 124 137 143 140 139 136 128 127 124 122 129 131 123 95 91 95 111 109 100 112 118 109 104 99 102 104 98 91 95 97
124 128 129 128 129 130 129 128 129 132 131 132 133 132 131 131 134 132 132 133 131 131 131 131 136 140 137 127 110 111 116 118 115 110 108 114 110 108 99 85 85 88 91 94 91 95 105 103 99 95 94 94 97 94 95 93 93 105 112 115 121 119 114 97 94 94 100 112 108 104 93 85 90 98 103 100 100 98 93 82 78 76 74 74 74 74 74 73 71 71 73 73 71 67 65 67 67 67 71 71 67 69 71 73 74 73 73 74 82 87 91 95 103 110 112 110 114 121 129 134 137 140 140 140 137 137 137 133 129 129 130 128 129 130 133 134 134 136 137 139 140 140 141 142 142 142 141 140 134 129 124 115 97 93 85 76 73 71 73 73 73 74 76 74 74 73 74 79 76 71 71 74 81 78 71 67 69 65 65 69 69 69 65 61 61 65 71 73 74 74 74 74 74 78 78 82 82 81 78 81 82 76 76 85 93 95 88 82 81 81 78 76 73 71 67 73 76 82 85 94 105 131 143 135 131 127 126 127 125 128 131 128 114 99 97 104 111 104 100 116 121 110 107 107 107 103 97 93 98 95
128 130 130 129 132 133 129 128 130 132 131 130 131 132 129 130 132 130 130 130 129 129 130 131 135 139 130 111 110 120 123 122 116 110 110 114 114 105 94 90 90 93 98 98 91 97 110 108 102 99 99 93 93 94 94 91 88 94 108 116 116 105 100 98 94 93 98 109 109 102 90 85 87 88 95 98 98 99 93 84 79 78 76 74 76 74 76 74 73 73 73 73 71 67 65 67 69 71 71 69 67 71 71 74 74 73 76 87 95 98 104 108 114 122 124 120 118 124 136 140 139 140 140 140 139 140 141 138 135 133 134 133 132 132 137 141 140 140 141 142 142 143 144 145 146 146 146 142 138 132 129 126 118 93 82 78 73 73 73 73 73 73 74 76 73 73 76 79 76 73 73 74 81 74 71 67 63 65 65 69 71 67 65 61 61 63 69 73 74 73 74 74 76 78 79 82 81 78 78 78 81 81 84 85 85 87 85 78 78 76 74 73 74 74 73 73 74 79 87 93 97 127 147 147 142 133 128 125 125 128 127 114 100 99 104 111 111 99 104 118 125 119 111 109 104 102 100 97 100 100
127 131 133 132 133 133 130 129 132 134 132 131 133 133 132 129 131 131 131 132 132 130 130 131 134 129 117 110 119 123 124 118 111 115 114 114 108 98 94 98 99 99 100 98 97 107 117 114 107 103 103 93 90 93 98 95 88 90 97 103 102 99 98 100 97 94 99 107 104 100 90 88 90 88 90 95 98 98 90 85 84 78 74 73 78 74 74 76 74 73 73 73 67 67 69 69 67 67 71 71 67 71 73 73 76 82 88 97 105 111 122 127 133 134 132 129 128 128 140 146 144 142 144 142 141 141 141 143 141 138 139 137 135 135 141 143 144 145 146 147 148 148 149 149 151 151 151 148 143 136 132 133 126 94 85 82 73 73 73 73 73 71 73 76 71 73 82 84 76 73 73 74 79 74 71 67 63 65 65 69 71 69 65 63 61 63 67 71 73 74 73 73 74 79 76 74 73 73 74 74 76 81 85 85 82 84 78 78 79 78 76 73 74 76 73 73 78 85 88 93 100 122 136 141 139 132 127 122 119 120 118 103 99 100 105 111 105 95 105 119 125 125 112 114 108 105 99 95 97 97
126 131 133 133 133 132 132 133 132 134 134 133 135 135 134 132 133 135 133 133 134 135 128 122 124 118 110 116 122 124 121 114 111 115 112 108 102 94 97 102 103 102 98 100 100 108 118 118 114 103 100 93 90 93 98 98 91 90 93 98 104 104 103 99 97 97 99 105 103 98 93 90 93 94 90 94 102 98 88 85 84 78 73 76 78 73 73 74 73 73 71 67 67 65 67 71 69 67 71 71 73 74 73 78 93 104 105 109 115 123 131 137 152 152 145 140 135 135 142 157 157 148 148 148 144 142 140 144 147 142 141 141 140 141 145 148 151 152 154 155 156 156 156 156 156 157 157 155 151 146 144 138 126 100 90 81 74 74 73 71 69 67 71 73 71 73 82 84 81 73 73 74 78 76 73 67 65 65 65 69 71 69 65 63 63 65 69 71 73 76 74 73 73 76 74 73 73 73 76 76 78 85 84 82 85 85 85 87 88 90 88 85 82 84 76 79 91 93 97 105 119 129 137 140 136 136 136 132 122 111 99 95 104 107 105 104 95 99 108 117 125 124 120 121 111 105 97 90 91 97
125 129 131 132 132 130 131 133 133 133 133 132 134 133 131 129 128 134 135 135 138 138 125 115 112 110 119 120 123 125 120 114 116 115 111 103 97 94 94 100 105 105 100 100 100 108 116 117 116 104 102 94 91 91 97 99 95 91 95 98 100 104 104 103 98 98 98 103 99 95 94 93 94 91 88 93 100 102 90 84 81 78 78 81 81 76 76 74 73 73 73 73 71 67 67 69 71 73 73 73 76 79 85 100 111 117 118 120 125 129 135 142 164 169 167 155 144 142 148 154 157 152 148 148 146 142 140 147 148 145 143 142 145 149 153 155 158 161 162 163 163 163 163 162 163 165 165 164 160 154 149 138 124 103 95 85 78 74 73 67 69 71 71 71 69 71 76 81 78 73 74 74 76 74 73 71 67 65 67 69 71 67 65 63 63 65 69 69 71 74 81 79 76 81 78 74 73 73 78 79 82 87 85 91 94 98 100 103 104 107 108 103 99 98 93 95 102 104 109 119 127 133 140 145 148 149 149 149 127 100 88 93 107 110 104 94 93 104 119 122 122 119 121 121 112 104 95 87 87 93
120 125 129 129 130 130 131 132 131 131 132 132 129 128 126 119 119 127 129 131 135 127 112 110 110 116 127 127 125 125 118 114 116 112 104 100 97 100 98 98 108 111 105 99 100 110 111 109 114 105 102 97 91 90 95 102 102 98 97 97 95 94 99 99 99 99 98 99 100 98 99 94 90 88 88 90 95 95 87 84 74 74 76 78 81 81 79 74 74 76 74 76 71 67 67 69 73 73 76 79 85 90 100 117 121 117 119 124 130 136 141 153 169 179 179 170 161 152 156 158 162 166 163 153 147 144 142 145 151 152 150 148 150 157 161 165 165 168 169 169 169 168 168 168 168 169 171 172 167 161 148 139 125 104 98 87 84 78 76 71 71 73 73 71 67 71 79 84 81 73 73 76 78 74 73 71 69 67 67 67 67 67 69 63 63 63 65 67 67 73 84 91 93 95 91 88 88 90 88 88 93 94 102 110 116 119 118 119 122 121 119 121 119 118 121 123 123 124 127 132 136 142 153 158 154 147 141 138 122 93 88 90 103 110 97 93 97 112 122 120 117 112 116 114 104 103 99 91 87 87
111 119 124 128 131 132 133 133 132 133 134 131 127 122 123 121 121 121 122 121 122 114 103 112 116 120 126 127 125 121 114 115 115 110 105 102 102 103 103 99 103 111 110 99 102 110 105 104 112 108 102 99 93 90 95 100 98 97 97 98 98 94 94 97 100 100 100 102 103 99 97 90 88 87 88 88 87 85 84 81 73 71 73 74 76 76 76 74 76 76 74 76 73 67 71 71 73 76 79 88 95 111 117 121 121 119 121 128 136 139 150 163 170 178 181 179 170 159 165 171 174 177 174 162 153 152 148 148 156 164 165 162 162 165 169 171 172 174 174 174 174 172 172 171 171 172 174 174 171 165 148 141 131 119 102 85 84 82 79 73 71 73 74 73 67 71 84 88 82 73 71 78 82 73 67 67 69 71 71 69 67 69 65 63 63 63 63 69 69 71 81 103 105 112 112 105 107 115 115 110 110 115 122 126 131 135 134 134 136 137 134 135 136 138 142 143 143 147 150 154 153 162 169 169 147 129 115 109 99 93 90 93 102 105 94 93 99 107 109 107 110 108 105 107 102 98 98 94 91 90
103 109 119 124 131 131 132 133 132 134 134 129 125 118 119 120 120 116 117 114 105 102 104 112 115 119 121 124 121 116 112 115 114 110 108 102 102 103 102 100 104 114 110 99 103 110 105 103 110 105 104 99 98 94 97 99 99 97 97 100 100 93 93 98 99 100 100 103 107 99 97 91 88 87 88 88 79 78 78 78 73 71 73 74 74 74 74 74 76 76 74 74 73 71 73 73 78 82 91 104 122 131 129 126 127 128 133 140 146 153 160 167 171 178 183 185 180 173 176 183 183 176 173 170 167 164 158 158 161 168 174 174 173 176 179 180 180 180 180 179 178 177 176 174 172 173 174 174 171 161 149 141 135 123 97 85 81 81 76 71 71 73 73 71 67 71 84 88 78 71 71 81 82 73 67 67 67 67 67 71 71 65 63 61 61 63 63 65 67 67 73 81 90 103 109 104 104 112 121 121 120 123 130 134 141 146 148 148 151 158 153 155 160 162 164 162 158 158 158 147 139 141 154 143 126 110 99 95 93 95 100 104 107 105 99 99 102 107 105 105 110 103 95 102 103 99 97 95 97 94
102 103 109 115 124 126 129 132 132 132 133 127 119 116 115 115 114 112 112 104 99 102 107 115 116 114 119 120 115 109 108 112 111 107 107 100 97 97 99 103 112 116 109 100 105 110 104 103 107 104 103 98 97 98 98 100 104 102 98 100 97 90 94 99 99 100 97 108 112 104 100 95 90 87 87 87 84 78 74 74 74 73 73 73 76 76 76 78 74 76 74 73 71 71 73 78 82 90 105 124 132 137 135 135 137 138 144 159 165 167 167 171 178 182 187 188 186 182 182 185 185 179 178 177 172 171 168 165 162 168 177 183 183 186 187 187 187 186 184 183 182 180 178 176 174 172 172 172 168 157 148 141 128 105 85 79 74 79 81 73 67 67 71 67 71 73 88 85 78 73 73 82 81 74 73 67 67 67 67 67 69 63 61 63 65 65 65 65 65 67 67 71 71 82 87 79 88 94 108 117 117 118 126 138 159 159 153 163 162 166 171 175 173 171 168 162 150 142 135 126 118 116 122 122 109 104 99 97 97 100 108 114 116 107 100 102 105 115 107 104 110 95 93 100 102 102 100 100 103 102
103 103 102 105 115 120 126 129 131 132 130 124 115 116 116 112 115 115 112 103 99 102 108 116 116 112 116 116 111 107 104 105 105 103 103 98 95 95 98 105 115 116 107 103 108 109 104 104 103 100 98 98 99 99 97 99 108 105 100 98 94 90 93 98 95 98 97 110 112 102 98 93 91 87 87 87 84 81 74 73 73 74 73 73 74 76 76 78 73 73 73 73 71 67 73 81 90 107 122 130 134 139 142 145 150 153 159 170 177 176 179 182 185 188 191 192 191 188 184 186 186 184 182 180 177 176 174 172 171 174 179 184 188 192 195 194 192 191 189 186 184 182 180 177 174 172 170 168 162 153 146 139 121 93 91 84 74 82 82 78 73 67 67 71 73 76 91 88 79 73 74 82 81 74 73 69 67 67 71 69 65 63 61 65 67 69 71 67 67 69 67 67 67 74 78 78 82 85 90 94 94 95 104 126 148 145 147 171 179 181 183 179 173 167 164 158 139 129 122 114 110 103 103 112 114 104 104 107 110 109 117 121 121 112 103 100 107 115 104 104 110 95 93 99 99 107 108 104 107 108
110 105 103 102 104 112 118 125 130 131 128 122 115 111 111 111 114 115 115 104 102 100 109 116 115 112 114 111 111 107 103 103 103 103 105 104 98 99 103 112 117 117 109 110 118 116 112 107 102 99 98 99 98 94 91 95 108 111 110 103 95 91 94 98 94 94 100 108 105 97 97 90 90 88 87 84 84 81 73 73 74 76 74 73 73 78 81 74 73 71 71 73 71 67 74 79 100 123 127 132 138 144 157 164 168 174 182 184 186 185 188 190 192 193 195 196 195 193 191 191 190 188 184 182 179 180 180 180 181 183 186 188 192 196 198 198 197 195 193 190 186 184 182 178 174 171 168 165 158 148 142 134 114 99 105 87 76 78 81 79 73 67 67 73 74 78 93 88 79 76 76 82 78 71 71 67 67 69 73 73 67 65 65 69 69 71 71 71 69 69 67 67 71 73 76 78 82 84 82 82 78 78 82 97 119 122 131 177 196 196 188 174 166 158 152 149 132 118 112 109 105 102 110 114 112 104 105 108 110 112 118 116 116 109 105 105 105 105 100 104 107 93 97 104 99 107 108 108 105 107
114 109 111 109 104 110 110 114 117 119 120 118 115 109 107 108 109 114 112 103 103 104 112 114 112 111 108 110 110 111 111 107 104 109 111 111 107 108 112 117 120 118 117 119 121 121 118 107 100 98 98 98 97 93 91 102 111 112 111 104 95 93 93 94 94 95 100 108 107 99 98 91 90 91 84 84 84 78 73 74 74 76 76 73 73 78 81 73 71 67 69 71 73 73 79 90 117 129 131 135 147 158 168 171 175 183 190 190 192 191 194 196 196 198 198 198 199 198 198 196 194 191 188 184 184 184 185 186 188 191 191 192 195 198 200 201 200 198 196 193 190 186 183 180 176 170 165 161 154 146 139 132 110 103 105 82 76 76 76 76 73 73 73 78 76 79 93 90 81 76 73 79 76 71 67 67 69 71 73 73 71 67 71 69 67 69 71 71 71 69 69 69 67 71 73 74 78 81 81 81 78 78 79 87 94 100 122 171 196 196 185 164 149 145 141 137 124 111 108 104 102 105 114 110 104 102 102 103 105 109 112 104 105 105 105 108 100 99 99 103 105 94 98 107 103 107 109 105 104 97
115 114 116 116 111 115 115 109 105 107 108 107 109 109 107 105 108 114 108 104 109 110 114 112 111 105 104 109 111 112 112 114 112 110 112 119 118 115 112 120 122 120 121 120 119 120 116 111 104 98 99 99 99 98 95 103 111 114 109 104 99 94 93 94 95 97 99 105 104 99 98 93 91 87 79 81 81 76 73 73 73 74 74 74 74 74 74 73 71 67 67 73 74 74 85 111 131 140 144 150 166 174 176 175 178 190 194 190 193 196 197 199 199 200 200 201 201 202 201 200 198 195 192 188 188 188 189 191 193 193 194 195 197 199 201 201 201 200 198 196 193 190 186 182 176 170 165 158 152 144 139 139 121 107 103 87 78 82 81 76 73 78 78 74 74 79 93 88 74 73 71 74 73 71 67 69 67 71 73 73 71 71 71 67 63 63 65 69 71 71 69 65 63 65 67 73 76 76 82 81 79 81 79 79 85 91 117 153 182 182 173 158 148 142 140 132 118 112 112 112 108 110 114 112 109 107 104 102 109 109 105 103 107 105 111 111 105 105 100 108 110 103 107 112 109 117 115 110 104 97
116 114 110 112 115 115 111 109 105 104 103 99 100 103 105 105 107 112 108 108 112 112 114 114 111 103 103 111 115 116 114 115 115 110 121 126 122 115 112 122 123 123 122 120 118 116 114 114 105 99 98 99 99 97 95 99 108 114 108 103 97 93 94 95 95 97 98 102 98 98 98 91 91 88 82 79 79 76 73 73 74 73 78 81 78 74 73 73 67 71 73 82 82 78 93 123 139 158 168 169 179 187 185 180 184 193 194 194 196 198 200 201 201 201 202 203 205 205 206 204 201 200 197 193 191 190 191 194 194 195 195 197 198 200 202 203 203 201 200 198 195 191 188 183 178 171 165 158 152 145 142 145 130 109 95 82 82 87 87 78 73 76 73 71 73 76 93 79 71 71 71 73 73 71 67 65 65 67 71 73 73 73 71 67 61 59 61 65 67 67 69 63 59 61 63 69 73 74 81 82 79 79 81 81 84 91 114 139 158 165 155 149 147 141 147 141 126 122 125 124 120 119 117 117 114 111 108 104 108 105 103 105 109 109 111 111 108 110 112 118 120 117 123 120 110 118 117 114 114 105
116 112 110 112 115 115 110 110 108 103 105 102 98 98 102 105 108 114 114 110 111 111 114 114 109 105 109 114 116 117 115 111 110 111 123 126 120 114 117 127 126 121 120 114 111 114 115 115 107 97 97 98 99 95 97 104 111 111 107 103 98 97 98 97 95 98 100 102 98 97 95 91 91 91 82 81 82 78 74 73 74 74 76 81 76 74 73 71 67 74 84 85 84 79 97 126 141 164 177 179 184 189 190 186 188 193 197 198 199 201 202 203 203 204 205 206 206 207 207 206 206 203 201 198 195 193 192 194 194 196 198 199 201 202 204 205 204 203 201 199 197 193 190 185 180 172 167 161 153 147 146 141 135 117 88 79 85 90 85 81 73 71 71 71 73 76 87 76 71 67 69 73 71 67 65 65 65 67 71 73 73 73 71 65 61 61 63 69 65 65 63 61 59 59 61 65 71 73 78 82 81 81 81 81 85 91 105 125 141 157 166 162 153 156 171 173 157 146 142 135 128 124 123 121 122 126 122 110 108 105 108 109 108 108 108 109 109 117 119 126 129 129 128 125 126 127 126 125 126 110
115 114 111 115 114 114 110 111 111 110 111 108 99 98 100 107 114 117 117 115 114 112 114 112 107 107 115 117 117 115 109 103 102 114 122 120 114 114 122 127 126 119 114 110 111 112 114 114 107 98 98 97 98 98 102 107 114 114 111 108 104 99 99 99 98 99 102 104 102 97 98 95 95 90 81 84 81 81 74 73 74 74 74 74 73 73 73 73 73 82 85 82 79 85 108 130 154 174 182 186 186 188 191 188 192 196 200 201 202 204 206 206 206 206 206 208 208 210 209 208 207 206 206 201 198 195 194 195 195 197 199 201 203 205 206 206 205 204 201 200 198 195 191 186 181 175 169 162 155 148 148 143 135 123 99 79 87 90 87 87 73 71 73 73 73 74 82 73 71 67 69 71 67 65 65 69 69 69 69 71 67 73 71 65 61 63 69 69 67 69 65 61 59 59 61 65 71 73 74 79 84 87 84 84 87 90 95 117 138 155 168 168 157 164 168 173 171 169 162 149 141 139 141 139 138 141 139 135 132 127 124 125 126 123 121 125 128 132 130 135 138 138 135 135 135 134 128 128 127 104
111 114 114 115 112 112 110 110 112 111 114 109 103 98 99 107 114 117 117 118 118 115 115 110 104 104 112 117 117 110 102 97 99 110 120 117 114 114 125 127 122 119 116 110 110 112 111 105 102 99 98 98 97 98 99 102 105 111 111 107 105 94 95 98 95 97 100 103 104 99 99 98 98 87 82 84 81 78 76 73 74 74 74 74 73 71 71 74 76 81 84 79 82 93 122 135 164 182 187 191 192 191 190 193 198 199 201 204 206 206 208 208 208 208 208 209 210 210 210 210 210 208 206 203 200 198 198 197 197 198 201 203 206 206 207 207 206 204 202 200 198 196 192 188 182 177 170 162 154 147 146 141 134 122 115 95 85 87 87 85 76 73 71 71 67 74 82 73 67 65 69 69 67 65 65 67 69 69 69 69 67 67 65 65 63 63 65 65 71 71 69 65 63 63 63 65 69 73 76 81 87 85 84 87 90 90 94 111 130 141 145 141 142 152 155 158 163 171 171 168 167 169 169 166 155 158 158 159 159 143 145 145 144 138 132 131 131 135 137 138 134 132 134 132 127 118 110 118 115 97
112 111 111 114 115 112 110 111 116 111 114 110 105 103 100 108 110 115 117 121 122 118 114 108 103 103 107 110 114 110 102 97 100 111 123 120 114 110 119 122 118 118 117 107 104 109 109 103 99 100 98 99 98 97 95 97 104 107 104 105 105 95 94 95 94 97 104 108 107 100 98 95 93 87 79 82 81 76 74 74 74 74 78 74 71 71 71 76 81 84 87 85 85 103 125 135 167 185 188 188 193 192 190 197 200 201 205 206 208 209 210 210 210 210 210 210 211 211 211 210 209 208 206 204 201 199 199 200 199 200 201 205 206 207 207 208 206 204 201 200 199 196 192 188 183 177 169 161 153 146 141 137 129 120 119 98 79 78 84 84 78 73 71 67 67 74 81 73 67 65 65 69 67 67 69 67 69 71 67 67 65 63 63 63 63 61 61 63 71 71 67 67 69 65 69 65 65 71 79 85 87 85 82 87 91 97 103 108 123 129 129 130 132 142 149 144 141 144 147 144 144 146 145 141 138 138 138 138 135 133 141 139 134 129 122 119 127 132 133 133 132 130 129 124 107 103 103 108 99 95
114 114 112 117 117 114 111 112 116 112 112 115 110 109 104 104 103 110 117 120 122 119 112 108 103 107 116 119 117 112 103 99 107 115 123 122 114 110 114 118 117 119 116 105 103 107 111 107 103 102 100 100 99 97 95 98 104 103 102 109 108 98 97 97 94 100 105 108 108 100 98 95 91 85 79 81 78 73 73 74 76 74 78 74 71 71 73 81 82 81 82 90 99 112 122 141 177 192 192 190 195 198 196 197 201 205 206 208 210 210 211 211 211 211 211 210 210 210 210 210 209 208 206 205 201 200 200 201 201 201 203 206 207 208 208 208 206 203 201 199 198 196 192 188 184 178 169 158 151 145 138 132 122 112 108 95 79 73 84 90 76 73 73 71 67 74 79 74 71 65 63 69 67 69 65 67 69 71 71 67 63 61 63 63 63 61 59 63 67 71 67 69 67 67 69 65 63 67 73 84 87 87 82 87 95 103 104 107 112 114 111 111 109 110 117 115 107 105 109 116 118 118 108 108 108 111 111 107 105 104 116 116 118 119 119 123 138 141 130 130 135 135 135 125 104 105 109 104 95 95
111 114 114 115 115 114 114 114 114 110 114 118 115 115 107 102 102 107 115 120 122 120 112 111 108 114 123 124 118 115 110 109 114 117 125 126 121 116 115 116 117 119 115 107 103 107 112 111 105 104 102 99 100 98 97 104 109 103 102 109 105 97 98 100 103 107 105 102 104 100 99 98 91 82 79 82 78 73 74 73 76 78 76 74 74 73 74 81 79 79 85 98 115 118 131 156 181 191 194 194 200 204 202 202 205 206 210 211 211 211 211 211 211 211 210 209 208 208 209 209 210 209 207 205 202 201 201 201 201 202 204 206 207 207 207 207 206 202 200 198 197 194 191 188 184 179 171 162 153 146 138 129 118 110 99 88 78 73 84 90 76 73 73 71 73 74 78 74 71 63 63 65 71 69 67 67 69 71 71 69 65 63 65 65 65 63 63 65 69 69 71 69 67 67 67 65 61 65 71 87 87 85 81 82 90 93 90 90 94 95 93 90 93 95 104 105 105 121 125 111 109 112 122 135 141 141 121 94 97 102 109 116 123 123 122 136 141 134 122 122 134 138 138 127 109 108 109 104 100 104
111 114 116 117 116 116 114 114 115 110 118 119 117 116 107 100 103 105 107 116 123 121 115 110 110 121 128 125 122 120 119 115 115 121 128 129 127 122 117 117 119 117 112 108 104 110 114 112 105 104 99 95 99 97 97 105 109 105 105 107 100 97 102 105 105 109 108 100 100 98 99 94 87 76 78 82 81 76 76 74 78 76 76 76 81 82 84 81 79 82 90 104 114 126 143 167 189 198 201 200 205 206 206 206 208 211 213 213 213 212 211 211 211 211 210 208 208 208 208 210 210 210 210 206 203 201 201 201 201 202 204 206 207 208 207 206 204 201 199 197 195 193 191 188 184 181 174 165 156 148 139 129 119 108 94 79 74 73 78 88 76 73 73 71 73 74 78 73 67 61 61 65 71 71 67 67 67 65 67 65 67 69 71 65 65 67 71 71 67 67 71 69 69 67 69 67 63 63 65 73 74 78 78 78 85 93 97 93 91 90 90 110 126 122 109 108 121 142 150 135 117 109 136 173 181 181 136 93 93 102 111 119 125 125 130 138 129 116 107 116 127 131 136 130 114 109 108 108 108 108
111 114 118 119 118 116 112 112 115 112 117 119 118 116 108 100 102 102 102 109 122 124 123 119 119 128 134 130 125 125 122 116 116 121 127 129 127 121 116 116 119 119 112 108 104 107 114 112 105 102 98 95 97 98 97 103 107 104 104 108 107 103 100 103 104 109 108 105 100 95 93 84 79 76 76 81 79 76 74 73 74 74 74 81 84 85 85 85 79 88 98 102 117 133 153 171 191 198 200 201 205 207 210 210 211 213 213 214 213 212 211 211 211 210 209 208 208 208 210 211 211 211 210 207 205 201 201 201 201 203 204 205 206 206 206 204 202 200 197 196 194 191 190 188 184 180 173 166 156 146 139 129 120 105 85 81 73 73 73 81 74 71 71 71 73 73 78 73 67 61 63 69 67 67 69 67 67 63 63 63 69 71 69 69 71 73 74 74 73 73 71 69 69 71 71 71 65 63 63 65 67 71 71 73 82 103 104 104 90 88 94 126 132 132 111 108 128 150 150 143 127 115 133 154 155 144 128 102 95 104 116 124 130 130 130 127 111 107 116 123 118 111 126 127 119 110 110 119 120 110
108 111 116 119 116 112 110 111 114 114 115 117 116 114 105 103 102 105 102 104 122 132 134 133 131 134 134 133 130 129 125 118 117 123 127 128 125 121 117 119 120 118 116 114 105 105 110 109 103 97 97 100 104 105 98 98 105 105 105 108 109 105 104 107 109 109 107 107 102 94 85 73 74 78 76 81 78 76 74 73 73 73 73 81 85 90 91 84 78 91 104 107 121 137 159 173 194 197 200 203 205 208 210 211 212 213 214 214 213 213 212 211 211 211 210 208 208 210 211 211 211 211 210 208 206 201 201 201 202 203 205 205 205 205 204 202 201 198 196 194 192 190 188 184 182 179 172 165 153 144 141 129 116 98 79 79 74 73 73 81 74 71 71 71 71 71 76 73 67 65 65 65 65 65 67 69 67 63 63 63 67 67 71 71 74 82 84 81 78 73 71 67 69 69 71 71 67 65 61 61 61 61 63 65 73 79 90 88 88 87 93 122 131 123 107 107 123 140 145 141 131 119 127 136 136 130 127 126 121 118 127 133 136 131 124 122 118 124 135 138 124 111 124 132 129 128 128 130 130 121
107 110 116 119 117 112 109 109 109 111 114 114 114 110 103 103 104 107 107 107 120 136 144 143 141 137 135 135 135 133 128 124 122 127 129 127 124 119 115 120 120 120 120 118 112 108 105 103 104 108 107 109 109 105 100 99 103 109 112 112 110 107 104 110 114 111 108 104 98 88 79 73 74 78 76 76 76 76 76 73 73 73 73 81 87 95 95 82 78 91 99 105 128 138 156 177 196 200 203 206 206 208 210 212 213 214 214 214 214 213 212 212 211 211 211 210 209 210 210 211 211 210 208 208 206 203 203 203 204 205 206 206 205 203 202 201 199 197 195 193 190 188 184 182 179 176 171 163 150 141 141 129 107 85 79 90 81 76 76 84 82 73 71 71 71 67 74 76 71 67 65 65 63 65 69 71 67 67 67 67 71 74 76 81 84 84 81 78 73 71 67 65 67 69 71 69 69 61 59 57 59 59 59 61 65 67 73 74 79 79 88 108 122 123 130 136 141 148 150 148 146 141 141 153 156 153 151 153 152 145 145 148 142 139 135 139 141 144 152 159 159 149 149 147 145 147 144 141 137 125
107 114 116 117 116 112 109 108 110 111 112 112 112 111 107 102 103 105 104 103 110 131 144 143 141 139 141 141 144 141 136 132 132 131 131 128 123 115 115 121 121 121 121 117 108 100 100 102 108 116 109 105 102 103 108 105 108 111 112 114 111 105 103 111 114 108 104 93 82 74 74 78 78 76 73 74 74 73 73 71 73 74 81 84 90 93 91 90 95 93 93 108 135 136 159 190 196 199 203 206 207 209 210 212 214 215 215 214 214 214 213 213 212 211 211 210 208 208 209 210 210 208 208 208 206 205 204 205 206 206 207 207 206 203 201 200 198 197 194 191 190 186 183 180 177 174 170 163 151 143 139 128 105 85 90 93 87 84 79 88 88 76 73 73 73 67 74 76 71 67 65 65 65 67 71 71 71 71 73 78 79 79 79 74 74 74 74 73 71 67 67 65 65 65 65 65 65 61 57 57 57 57 57 59 59 63 65 71 76 82 84 90 94 104 126 135 141 149 154 155 168 179 182 185 185 184 183 177 174 171 181 182 174 175 170 173 175 171 169 173 179 179 177 168 165 171 163 153 141 127
111 114 111 110 110 110 108 109 112 112 114 115 115 114 110 103 102 104 103 102 104 123 138 133 128 131 138 145 148 148 147 141 138 133 131 130 125 118 118 121 121 121 121 112 103 100 100 102 110 116 104 102 102 104 108 107 114 114 111 114 108 103 104 110 110 100 91 82 78 73 73 78 81 76 73 76 76 73 73 71 73 81 84 88 94 95 91 97 107 97 94 114 138 141 172 199 201 201 202 205 208 210 211 213 214 215 215 215 214 214 214 213 212 211 210 209 208 207 208 208 209 209 208 208 208 206 206 205 207 208 208 208 206 204 201 200 198 197 194 191 188 185 182 179 176 172 168 161 148 143 139 131 109 93 93 85 85 87 82 85 82 73 73 73 71 73 74 73 71 67 65 65 67 71 73 76 76 78 79 79 74 73 71 71 71 71 71 71 71 73 71 71 71 67 67 67 67 63 59 57 57 57 57 57 59 61 61 65 71 73 76 76 81 79 88 94 105 120 128 135 148 171 177 174 177 185 184 179 175 171 185 186 186 187 187 189 192 186 181 177 180 177 177 174 171 181 171 159 144 130
110 111 108 107 105 107 107 109 111 112 115 115 112 110 107 100 100 103 102 102 103 109 123 121 110 105 121 138 148 148 145 146 143 137 134 132 127 124 119 119 122 122 125 123 118 108 104 110 110 108 103 103 107 105 104 107 110 111 111 112 105 100 103 105 102 90 82 79 81 76 76 78 81 76 74 76 76 74 73 71 73 81 85 93 94 99 95 105 117 100 94 104 135 162 189 198 201 201 201 205 207 210 212 213 214 215 214 214 214 213 213 213 213 211 210 208 207 208 208 209 210 210 210 210 208 208 207 207 207 208 207 207 206 204 202 201 199 197 195 191 188 185 182 179 176 172 167 158 148 141 138 130 108 91 88 82 87 87 81 78 76 73 73 73 71 71 71 71 69 67 69 71 71 73 79 79 78 73 73 71 71 71 71 71 74 76 84 87 93 95 90 84 84 76 73 73 73 73 63 59 59 61 59 59 57 59 59 59 61 63 67 71 73 74 76 78 79 82 88 94 104 117 122 124 139 165 168 167 179 166 168 182 177 166 157 173 192 192 183 176 177 179 185 180 173 181 174 153 140 129
109 107 105 110 107 105 107 108 112 115 115 109 103 100 99 98 99 102 100 100 99 97 109 114 105 97 109 134 143 143 141 145 148 143 141 140 135 130 126 129 132 132 132 132 125 114 112 111 104 99 98 102 107 107 104 103 104 110 112 111 104 100 102 98 90 82 78 79 82 76 74 81 81 81 73 74 74 73 71 71 74 79 85 93 100 108 115 117 111 97 95 116 153 190 201 198 201 203 203 205 207 209 211 213 214 214 214 214 213 212 212 212 211 210 208 208 207 208 208 210 211 211 211 210 208 207 207 207 206 206 206 206 205 204 202 201 200 198 196 193 190 186 184 181 178 174 168 158 148 141 138 130 108 88 82 84 87 85 76 74 73 73 73 71 71 67 65 67 67 71 73 73 74 73 73 73 73 73 73 74 78 88 93 90 97 99 102 102 102 94 88 84 79 74 73 73 73 73 63 59 61 67 67 61 59 59 61 61 59 59 59 63 73 73 73 74 81 82 79 78 78 79 82 82 95 123 135 139 148 142 135 142 138 122 111 131 153 174 177 166 155 166 185 183 171 177 168 147 136 131
107 104 104 110 105 103 103 104 109 111 108 104 100 104 100 98 99 99 98 98 97 98 104 108 103 97 103 126 136 141 144 147 149 150 150 150 141 137 134 135 135 133 130 126 124 120 116 111 102 100 98 98 102 102 100 100 105 114 112 109 102 98 93 87 79 76 76 78 82 78 74 78 79 76 73 74 74 73 73 71 74 79 87 97 111 117 122 120 110 116 122 147 183 201 204 201 206 206 206 206 207 208 210 212 213 213 214 213 212 211 211 211 210 208 208 207 208 208 210 211 211 211 211 210 208 207 208 206 205 205 205 205 204 203 203 201 201 199 198 195 191 188 185 183 180 177 170 161 148 143 141 127 105 88 82 87 85 79 76 74 73 73 73 71 69 65 63 65 69 73 74 73 76 73 74 87 93 99 102 95 97 103 103 93 95 91 90 90 87 76 73 73 71 67 71 71 67 67 63 59 59 61 61 61 61 61 61 67 63 59 57 59 61 69 71 71 73 73 73 78 79 81 84 87 94 107 126 129 126 122 118 116 110 103 95 95 118 138 148 146 139 139 150 168 163 157 147 137 123 121
105 105 104 104 104 103 100 100 107 108 105 104 102 104 102 97 99 99 98 98 98 99 98 102 100 97 94 108 123 125 132 139 144 148 151 148 143 137 134 130 128 126 124 118 121 118 112 112 110 107 100 98 102 102 103 108 111 114 112 108 99 94 82 79 76 76 76 78 81 81 78 76 76 76 74 74 73 71 71 73 76 79 91 107 118 117 117 124 131 139 153 175 190 200 204 206 206 207 208 208 208 209 210 211 212 213 213 212 211 211 211 210 209 208 208 207 207 208 210 211 211 211 211 210 208 207 207 207 205 205 205 204 203 203 203 202 201 200 199 197 193 190 186 184 183 181 174 164 155 149 137 123 107 98 87 84 81 78 74 73 73 73 73 71 67 67 71 71 67 73 85 93 104 104 100 107 109 109 104 91 88 91 90 82 79 79 85 82 79 74 73 73 73 73 71 71 71 71 65 61 59 59 61 63 63 61 63 65 69 69 59 57 59 61 63 67 67 67 67 71 71 73 73 78 87 95 107 115 117 122 112 105 107 102 95 94 97 124 133 135 135 124 127 147 143 132 126 123 103 107
108 110 108 104 107 104 99 99 105 108 105 102 98 99 98 97 97 99 99 98 98 95 95 98 100 98 90 93 99 97 109 122 132 142 148 150 145 138 131 127 126 127 122 118 120 118 114 116 116 109 102 103 109 108 110 111 110 111 111 105 91 79 76 81 81 78 78 76 81 78 78 76 76 76 74 73 73 71 71 74 81 88 103 121 125 128 124 123 140 162 179 185 192 198 202 206 208 208 207 207 208 210 211 211 211 212 212 211 211 211 211 210 208 207 207 207 208 209 210 212 213 212 211 210 208 207 208 207 206 205 204 203 203 203 203 203 202 201 200 197 194 190 187 185 184 182 173 164 153 148 137 121 110 104 82 79 79 81 74 71 71 71 71 69 69 71 73 73 76 91 109 117 117 115 104 105 98 94 91 82 82 90 93 93 90 93 98 95 97 102 95 91 90 91 88 81 78 78 73 69 61 61 61 63 63 63 63 65 69 69 61 57 57 57 59 63 69 67 67 69 71 67 71 73 76 79 88 97 99 103 104 109 110 108 103 98 102 117 126 127 123 108 121 138 130 117 110 108 99 103
110 111 105 104 107 105 104 103 107 108 103 100 99 98 99 100 100 102 99 98 98 97 97 99 97 95 88 88 90 90 90 91 102 122 134 141 139 134 128 130 133 132 127 121 120 120 119 117 110 108 110 112 112 110 114 111 105 103 103 95 79 74 76 82 82 81 78 78 76 74 73 73 74 74 73 73 71 71 73 76 87 99 114 124 130 142 159 141 139 168 184 192 198 196 200 206 208 208 208 207 208 210 211 211 211 211 211 211 211 211 211 210 208 208 208 208 209 210 212 213 213 212 211 210 209 208 208 208 207 205 205 204 204 204 204 203 203 201 200 198 194 190 187 184 182 176 168 158 148 147 138 114 94 88 79 82 78 78 76 73 71 67 67 71 67 73 85 95 103 105 104 103 95 93 94 93 88 88 94 104 118 116 109 107 109 114 119 118 117 117 110 100 91 90 87 78 74 73 71 69 61 61 63 63 61 61 63 65 65 69 61 59 59 57 57 61 69 73 73 73 71 71 73 74 74 73 76 79 76 82 97 107 110 109 105 105 105 107 109 109 100 93 112 125 118 110 104 97 94 99
111 112 107 107 105 104 105 105 110 111 105 104 100 99 100 105 108 107 100 98 100 99 98 99 93 91 90 88 88 88 88 88 90 93 109 127 133 130 128 133 137 137 131 124 122 122 122 118 107 107 109 114 115 111 111 115 105 97 94 87 76 74 76 81 81 78 81 81 76 71 71 74 78 76 73 73 73 73 78 84 91 108 118 127 139 160 190 190 152 167 188 195 205 202 203 206 208 208 208 208 208 209 210 210 211 211 211 211 211 211 210 210 208 208 208 210 211 212 213 214 214 213 212 211 210 209 208 208 207 206 205 205 205 205 205 205 203 201 200 198 194 190 186 183 178 169 158 154 151 145 131 103 85 85 87 87 78 74 73 73 73 69 67 73 74 87 94 99 102 95 88 79 82 82 82 90 94 109 120 128 134 126 117 112 124 124 121 112 99 95 91 79 74 73 73 71 67 69 63 59 59 59 59 61 61 63 63 63 65 63 63 69 61 59 57 59 63 71 71 73 73 73 78 82 78 76 73 73 71 73 87 98 97 93 93 97 94 91 91 91 90 95 108 112 116 108 97 94 95 105
111 115 114 112 109 107 103 103 110 112 110 109 100 98 98 104 110 107 100 98 99 100 94 93 93 90 90 93 91 91 91 88 88 88 91 114 128 129 131 134 135 134 132 129 128 125 124 121 112 109 115 117 114 112 116 116 111 99 87 81 76 73 74 76 74 74 76 79 78 74 76 79 78 73 71 73 73 73 81 85 94 114 127 141 155 168 186 188 159 175 194 202 206 206 206 210 210 211 211 210 210 208 208 209 210 210 211 211 210 210 208 207 207 207 208 210 213 213 213 214 214 214 213 212 211 210 209 208 208 207 206 206 206 206 206 206 205 203 201 199 196 191 186 182 174 165 155 151 148 138 120 100 93 93 88 87 74 73 76 76 74 73 76 81 84 85 88 87 87 82 76 76 85 94 104 121 130 135 141 141 130 118 108 98 102 102 90 82 73 73 71 67 67 67 67 65 65 61 57 55 55 57 57 57 59 61 63 63 61 63 63 69 67 59 57 57 59 63 67 73 73 73 81 82 82 81 74 73 71 71 73 82 85 79 82 88 87 85 85 85 91 100 110 117 115 110 108 119 125 126
114 115 112 111 108 107 99 98 103 110 112 109 104 103 102 103 110 108 103 102 100 98 93 91 94 90 90 93 94 95 94 88 88 88 88 97 122 130 134 135 131 127 130 131 131 129 129 130 127 122 119 119 116 115 117 111 107 91 78 78 73 71 73 73 74 73 73 73 76 78 78 79 74 73 71 73 74 73 78 82 95 118 133 153 175 177 176 164 159 185 205 206 209 210 210 211 211 213 213 211 208 206 205 207 207 207 210 210 207 206 205 205 205 206 208 210 212 213 214 214 214 214 214 213 212 211 210 209 208 208 208 207 207 208 208 207 206 205 203 201 198 193 188 182 174 165 156 149 139 126 118 116 105 95 85 78 74 76 78 81 82 81 81 79 74 74 74 73 73 73 79 91 111 127 132 138 138 135 132 121 100 91 85 74 71 73 71 71 67 67 63 61 61 61 63 61 59 57 55 55 55 55 55 55 57 59 63 63 61 61 63 63 61 59 57 57 59 59 65 73 73 73 76 79 84 81 78 74 73 71 71 71 74 74 73 82 88 94 103 105 108 121 133 138 137 134 134 139 141 135
108 111 107 105 102 102 99 98 100 108 108 108 110 108 105 107 109 107 104 103 100 97 91 90 94 91 91 94 98 95 94 93 91 90 85 88 109 126 124 116 109 109 116 127 131 130 132 138 141 134 127 125 123 119 115 100 94 79 76 74 73 69 71 73 73 73 71 73 74 74 73 73 71 71 71 74 79 74 76 85 100 120 133 157 183 181 179 175 179 200 209 210 211 212 211 211 212 213 213 211 208 205 205 206 205 203 206 206 204 202 200 200 201 204 206 209 211 212 213 214 214 215 214 214 213 212 211 210 210 209 208 208 207 207 208 207 207 206 204 201 200 196 190 183 176 167 159 147 137 123 121 121 110 95 79 76 81 81 85 85 81 78 74 73 71 67 67 73 85 103 115 126 138 138 136 128 121 107 97 79 73 73 73 67 69 69 67 69 67 63 61 57 57 59 59 59 59 57 55 55 55 57 55 55 57 59 63 61 63 61 61 61 57 57 57 57 57 57 61 65 69 71 73 79 81 84 82 78 74 73 73 71 73 71 71 73 76 95 123 135 138 147 165 159 157 149 143 144 141 134
97 103 104 103 100 98 99 100 103 104 105 110 109 107 108 107 103 102 99 99 99 98 90 87 90 93 94 99 99 94 93 94 94 87 79 79 100 116 99 94 97 97 97 100 115 123 127 139 143 143 139 135 128 121 111 91 79 74 73 73 73 71 69 71 71 67 67 73 73 73 71 65 63 63 67 73 79 76 76 82 99 119 129 147 175 186 192 198 203 209 210 212 213 213 212 212 212 212 213 210 206 205 206 206 201 197 199 200 198 196 196 197 199 201 206 210 212 213 214 214 215 216 216 215 214 213 213 212 211 210 209 208 208 208 208 208 208 206 205 203 201 198 191 183 177 168 153 144 138 126 121 117 99 82 76 84 87 88 87 82 76 73 71 71 74 85 93 116 128 131 131 131 130 123 105 90 73 73 71 67 67 69 67 67 65 69 67 65 63 61 59 57 55 57 57 57 57 55 55 55 57 57 57 57 57 61 63 69 65 63 63 61 57 57 57 57 57 57 59 59 61 65 71 73 76 82 82 82 76 73 74 74 73 67 71 69 73 73 105 130 138 152 171 171 156 151 149 147 140 130
97 99 99 99 98 97 100 103 104 103 105 105 104 104 104 103 98 97 97 97 99 95 90 87 90 93 98 95 91 88 88 91 88 85 79 88 99 103 91 94 97 91 82 82 93 100 110 130 138 139 141 138 131 122 103 82 76 73 71 73 73 71 67 67 67 67 71 73 73 71 65 59 57 59 65 73 74 78 81 84 91 115 129 142 170 191 200 206 206 210 211 212 213 213 213 213 213 211 209 206 203 203 203 201 197 194 195 196 194 194 196 199 201 206 210 213 214 214 214 215 216 216 216 216 215 214 214 213 212 211 210 210 210 210 210 209 208 207 206 203 201 198 190 182 177 165 152 144 138 130 120 99 82 79 85 91 88 79 74 74 71 73 74 90 115 121 122 126 128 126 117 102 93 85 73 71 67 63 61 63 65 67 69 61 61 67 61 61 61 59 57 57 55 55 55 52 55 55 55 55 57 57 57 57 59 61 63 69 65 69 69 61 57 57 57 57 57 55 55 57 57 61 71 71 71 73 73 76 74 73 74 78 81 73 71 71 71 71 71 71 79 109 132 153 149 152 153 154 155 141
100 99 97 95 97 97 99 103 103 104 104 99 98 98 97 98 98 97 98 99 98 93 90 88 91 95 95 91 85 79 79 79 82 82 88 95 99 91 85 87 88 85 82 82 88 90 93 116 129 135 137 135 131 117 88 73 73 73 71 73 73 71 73 73 71 73 73 73 73 71 65 59 59 61 69 73 74 76 81 84 79 100 126 143 171 192 205 206 208 210 210 210 211 213 213 214 213 210 206 203 200 198 198 195 191 190 192 191 190 192 196 199 204 209 213 215 215 215 216 216 216 216 216 216 216 216 215 214 213 212 211 211 211 211 211 210 208 208 206 204 200 194 188 182 176 167 158 145 141 132 111 94 95 99 91 87 78 73 71 71 76 88 91 105 121 121 115 103 97 94 87 74 73 71 65 63 61 59 57 59 67 69 61 59 59 59 59 59 59 59 57 57 57 55 55 52 52 52 55 55 57 57 57 57 57 59 61 61 63 65 69 61 59 57 59 59 59 57 57 55 55 59 69 71 73 71 67 71 71 71 71 74 81 81 76 74 73 73 71 67 67 71 79 109 127 137 145 163 171 152
104 102 98 95 98 99 99 102 102 102 100 100 99 97 97 98 98 99 99 99 97 94 91 91 95 97 95 90 85 79 81 84 85 91 95 95 90 87 84 82 87 90 93 94 93 88 90 116 128 133 135 129 122 97 73 73 73 71 67 73 73 73 73 74 74 73 73 76 73 73 69 61 61 65 71 73 78 78 79 78 78 88 110 137 164 187 202 205 206 206 208 208 209 211 213 213 212 210 206 201 196 194 194 190 184 184 188 189 190 192 195 200 206 211 215 216 216 216 216 216 217 217 217 217 217 216 216 215 214 213 212 212 211 211 211 210 210 208 206 202 198 192 186 186 182 177 173 165 141 126 108 108 111 99 87 78 73 73 76 79 94 104 107 109 104 98 91 82 76 73 71 65 63 61 59 59 59 57 57 57 59 61 59 57 57 55 57 57 57 57 57 57 57 57 55 52 52 55 55 55 57 55 55 55 57 57 59 59 59 61 61 59 57 57 59 59 59 57 57 55 55 57 61 67 73 73 67 71 67 65 65 71 73 78 81 78 74 74 73 73 73 73 71 73 93 127 158 177 177 152
104 104 103 99 99 98 98 99 99 98 95 98 94 94 95 95 98 98 98 98 95 95 91 93 95 97 97 91 88 84 84 88 88 88 88 85 82 82 82 88 93 95 95 95 90 90 104 126 133 134 131 124 107 78 71 71 71 67 69 71 73 71 73 73 73 71 71 76 73 71 65 61 63 71 73 76 88 85 79 78 78 79 90 125 146 170 186 195 201 206 206 208 208 209 211 213 212 210 206 200 195 193 192 184 177 179 184 186 192 196 198 204 206 213 215 216 216 216 217 217 217 217 217 217 217 217 216 216 215 214 213 213 212 211 211 210 208 207 205 201 196 192 192 192 190 181 171 149 131 119 118 111 103 88 73 73 74 82 88 91 100 102 99 90 74 73 73 71 67 65 61 59 57 57 57 57 59 57 57 57 57 59 59 57 57 55 55 57 57 57 57 57 59 57 55 52 55 57 57 57 57 55 52 52 55 57 57 57 57 57 57 57 57 57 57 57 57 57 57 57 55 55 59 67 73 73 73 73 71 63 61 67 71 73 74 76 79 81 79 78 82 82 74 71 73 88 115 137 155 145
104 105 104 103 99 99 98 99 100 97 93 91 91 93 98 97 98 98 99 99 97 95 91 94 97 95 94 91 88 87 84 87 88 88 85 85 82 87 85 90 93 93 91 91 95 109 123 132 135 135 130 119 91 73 71 67 67 67 69 71 71 71 71 73 73 73 73 73 71 67 63 63 67 71 76 81 88 87 74 76 78 78 79 102 134 157 171 182 194 202 206 206 208 209 211 213 211 210 206 201 195 193 187 175 171 178 182 190 197 199 202 206 210 213 216 216 217 217 217 217 217 218 218 218 218 217 217 216 216 215 214 213 212 211 210 208 208 206 204 200 197 197 196 196 189 171 147 131 123 121 118 102 88 76 73 73 82 90 90 93 93 87 79 73 67 65 63 63 61 61 59 57 57 55 57 57 59 59 57 57 57 57 59 57 57 55 55 57 57 57 57 57 57 57 55 52 55 57 57 57 57 52 50 50 52 55 57 57 55 55 55 57 57 57 57 57 57 57 57 57 55 57 61 67 71 73 73 73 71 67 63 67 71 71 71 73 74 78 76 79 79 84 84 76 74 73 71 90 123 127
102 103 105 103 100 100 99 100 98 98 95 94 95 97 100 102 99 100 100 99 99 99 95 95 98 98 94 91 91 90 88 90 90 93 93 90 93 95 94 97 103 108 114 120 126 130 131 131 130 126 117 97 73 67 65 65 65 67 67 71 71 71 73 73 73 73 73 73 71 63 61 63 71 73 76 79 87 85 74 74 76 81 81 82 107 134 149 167 184 196 199 206 209 210 211 211 210 208 206 202 195 190 180 167 165 179 188 192 199 203 206 208 212 214 215 216 217 217 217 218 218 218 218 218 218 218 217 217 216 215 214 213 211 210 208 207 207 206 203 201 199 199 198 194 181 144 130 126 119 111 98 85 78 78 78 84 87 78 74 76 76 73 67 65 61 59 59 57 57 59 59 57 57 57 57 57 57 57 57 55 57 57 57 57 57 55 55 55 57 57 55 57 57 55 55 52 55 55 57 57 55 52 47 50 52 55 55 55 55 52 52 55 55 55 55 55 55 57 57 55 55 57 61 69 73 73 74 76 73 71 71 71 71 71 71 71 71 71 71 73 74 81 84 81 82 81 76 71 67 79
103 102 104 100 98 98 97 97 94 94 95 97 99 99 102 102 100 99 98 94 94 95 95 95 103 107 107 102 102 105 104 103 103 102 103 107 111 112 120 128 132 135 141 141 141 136 130 122 115 105 94 74 71 65 63 63 69 69 67 71 71 67 71 71 71 71 73 73 65 61 61 69 73 73 74 78 85 82 79 81 79 81 81 78 79 94 121 140 160 177 187 196 205 209 210 210 207 206 206 202 194 185 174 162 162 179 191 195 204 206 208 210 213 214 214 215 216 217 217 218 218 218 218 218 218 218 217 217 216 216 214 212 210 208 206 205 206 206 202 200 201 202 199 185 158 134 124 117 103 91 87 82 79 84 84 81 73 71 71 71 71 67 63 59 59 57 55 57 57 57 59 59 57 57 57 57 57 57 55 55 55 55 55 55 55 55 55 55 55 55 55 55 57 55 52 52 52 55 57 55 55 52 50 50 52 55 55 55 55 52 52 52 55 52 55 55 55 57 57 55 52 55 61 71 73 73 73 78 74 73 74 74 74 71 71 67 67 69 71 71 71 74 84 82 82 84 84 78 73 67
102 102 100 99 98 99 99 95 94 94 95 98 98 99 102 99 99 99 97 95 97 100 102 109 118 122 121 118 116 116 117 119 122 124 123 127 130 132 135 141 141 141 138 139 135 126 115 103 93 82 73 71 69 67 65 65 69 69 67 65 67 69 71 71 71 71 73 73 63 59 61 67 76 78 78 78 84 84 85 84 79 79 84 81 78 78 88 105 124 139 153 174 198 205 205 205 205 202 204 202 187 166 152 150 159 178 188 200 206 213 212 212 214 214 214 214 214 216 217 218 218 218 218 218 218 218 217 217 216 216 214 211 208 206 205 205 206 204 200 201 205 203 179 148 138 127 112 95 88 84 84 82 76 76 76 73 67 67 65 65 65 63 61 59 57 57 55 55 55 57 59 59 57 57 55 55 55 55 52 52 52 55 55 55 55 55 55 55 52 52 52 55 55 55 52 52 55 55 57 57 55 55 52 50 52 52 55 55 55 52 52 52 52 50 52 52 55 57 55 52 52 55 59 71 71 67 71 74 78 74 78 78 78 73 73 71 71 71 71 71 71 71 73 74 78 81 84 84 76 73
97 99 99 99 99 102 102 99 97 98 98 98 98 98 99 97 99 99 102 108 115 118 118 117 121 122 118 114 112 111 115 118 123 124 122 122 126 127 126 128 131 126 118 109 104 97 90 73 73 71 69 67 71 71 69 63 65 67 69 67 67 71 73 73 73 73 71 69 61 57 61 67 74 76 81 82 82 87 93 93 85 79 87 87 79 82 90 88 88 100 118 132 150 168 189 194 191 192 198 196 169 139 136 145 161 177 188 200 209 215 216 215 216 216 214 214 215 216 217 218 218 218 218 218 218 218 217 217 216 216 214 210 206 203 206 206 206 203 201 206 205 185 141 132 125 105 93 82 84 84 82 78 74 71 67 67 65 65 61 61 61 61 59 57 57 57 57 57 57 57 57 57 55 52 52 52 52 52 52 50 52 55 55 55 55 55 55 52 50 52 52 55 55 55 52 52 55 57 57 57 57 57 55 52 52 52 55 55 55 55 55 52 52 50 50 52 57 57 57 55 52 52 57 63 67 67 67 73 79 78 76 76 74 76 74 74 74 73 73 73 73 73 73 73 74 78 81 81 81 79
97 103 103 99 102 104 104 103 98 97 97 99 99 98 98 98 97 102 111 118 118 117 112 108 109 105 99 100 103 100 99 102 108 110 109 108 109 109 104 105 105 103 95 94 90 87 76 71 71 67 67 65 67 71 63 61 63 69 69 69 71 71 73 73 73 71 65 61 59 59 63 71 74 74 76 84 84 87 95 99 91 82 84 87 85 88 95 95 90 91 93 100 117 127 146 160 159 171 179 174 144 127 136 148 162 176 188 201 214 216 216 216 216 216 216 216 216 216 216 217 217 217 218 218 218 218 218 217 216 215 213 208 203 201 202 203 203 201 204 205 199 158 128 119 105 85 79 85 84 76 74 73 71 65 65 67 69 63 61 59 59 59 59 57 57 57 57 57 57 57 55 52 50 47 47 50 50 52 52 50 52 55 55 55 55 55 55 52 50 50 52 55 57 55 55 52 55 57 57 57 57 55 55 52 52 52 55 55 55 55 55 55 52 50 50 52 57 59 57 55 52 52 57 61 67 71 67 73 81 81 76 73 73 76 76 76 76 76 73 73 74 78 79 76 81 78 76 78 81 82
99 104 104 104 104 104 102 98 94 97 98 100 102 98 95 95 99 107 115 114 108 102 99 102 98 90 93 97 95 95 99 98 97 100 102 99 98 98 93 97 98 94 93 94 90 78 73 71 71 67 69 69 65 65 65 63 61 63 69 67 69 69 71 71 71 69 63 61 59 61 67 73 76 76 79 82 85 88 94 99 99 93 85 82 85 91 95 94 93 93 88 88 88 88 104 119 125 133 137 136 124 122 134 149 163 175 186 198 213 216 217 217 217 217 216 216 216 216 216 216 216 217 218 218 218 218 218 218 216 214 213 207 204 201 200 203 203 202 196 182 158 134 110 93 85 78 76 79 76 71 71 67 65 63 61 63 69 61 59 57 57 59 59 59 57 57 57 57 57 55 52 50 47 45 45 45 47 50 50 52 55 57 57 55 57 57 57 55 50 52 52 57 57 57 55 55 55 55 55 55 55 55 55 52 52 55 55 55 55 57 55 55 55 52 47 50 57 57 59 57 55 55 59 63 67 71 71 67 74 82 81 74 74 81 84 82 79 82 84 81 78 76 81 81 82 82 78 76 79 79
103 104 103 103 103 102 98 95 94 99 100 100 102 100 95 97 109 110 105 103 100 97 93 95 93 88 91 94 97 97 100 95 93 94 94 90 93 93 88 91 91 90 88 91 90 73 67 67 69 65 69 63 65 69 71 69 61 63 65 67 65 67 69 71 67 65 63 61 59 63 71 74 76 79 84 84 87 91 95 100 103 102 87 82 85 82 87 91 91 91 88 90 88 85 82 82 88 93 95 102 95 105 124 138 149 171 181 196 205 213 216 216 216 216 216 216 215 215 214 214 216 216 217 218 218 218 218 218 217 215 213 206 204 200 201 205 205 200 172 142 131 118 93 82 82 74 71 71 73 71 73 69 63 61 61 61 59 59 59 59 59 59 59 59 57 57 57 57 55 52 52 50 45 42 45 45 45 47 50 52 57 57 57 57 57 59 57 55 55 55 55 57 57 57 57 55 55 55 55 55 55 55 52 52 52 55 55 55 55 55 55 55 52 50 47 50 55 57 57 55 55 57 61 65 69 71 71 67 73 82 87 79 84 85 85 85 82 85 85 82 76 76 78 79 79 84 82 81 82 78
100 102 100 99 98 93 91 95 98 98 98 98 97 98 97 108 119 111 97 97 98 95 90 88 87 82 87 94 102 100 95 90 87 85 85 85 90 88 85 87 87 88 87 84 74 71 67 69 65 63 61 63 63 69 71 69 63 63 65 63 65 65 69 69 65 63 69 65 63 67 73 74 74 84 87 87 90 93 97 102 103 98 90 91 93 82 82 87 91 91 93 93 90 88 90 85 78 74 74 79 78 88 95 108 125 141 152 173 185 194 205 205 209 214 214 213 213 213 209 213 215 216 216 217 217 217 217 217 216 214 210 206 200 198 200 202 190 163 139 125 108 94 82 81 76 67 71 71 73 76 73 71 63 59 59 59 57 59 59 59 59 59 59 57 55 55 55 55 52 52 50 47 45 42 45 47 47 50 52 55 57 57 57 57 59 59 59 57 55 55 55 55 57 57 57 55 55 55 55 55 55 55 52 50 52 52 55 55 55 55 55 55 52 50 47 50 52 57 57 55 55 59 69 67 67 67 71 71 71 76 85 88 88 82 79 84 82 84 84 81 78 76 81 81 81 84 81 84 82 78
94 97 98 95 90 85 85 94 99 98 97 97 97 97 102 118 119 109 94 93 93 90 87 85 82 79 87 95 102 100 91 82 79 79 82 87 87 82 79 82 87 88 87 74 71 67 65 69 63 61 59 61 65 67 69 65 65 69 63 63 63 69 65 69 61 61 69 69 67 71 73 74 78 88 88 90 94 99 103 103 100 98 99 93 94 99 90 82 82 88 91 94 94 90 88 87 84 79 78 78 76 74 74 74 82 97 110 122 131 139 153 162 170 183 184 188 194 196 199 205 209 213 215 215 215 214 214 214 213 210 206 199 194 194 190 179 152 127 111 95 88 85 78 73 71 71 71 73 78 78 73 69 61 59 57 59 59 61 69 67 61 59 57 55 55 55 52 52 50 50 50 50 45 42 45 47 52 55 55 57 57 57 57 57 59 59 59 57 57 57 57 55 57 57 57 55 55 55 55 55 55 55 52 50 50 52 55 55 52 52 55 57 57 52 47 50 52 55 57 55 55 57 61 69 65 65 67 69 69 73 87 90 87 82 79 84 84 84 81 82 82 81 81 81 84 84 81 79 79 78
94 95 98 95 90 87 87 94 99 98 98 98 98 97 105 117 118 108 95 94 93 87 82 84 79 79 85 94 99 99 88 78 78 79 85 91 88 79 79 81 84 88 87 73 65 61 61 63 63 61 61 63 67 71 67 65 63 69 63 61 61 63 63 61 59 59 63 69 67 71 76 74 84 91 94 93 98 104 104 100 97 100 100 93 98 100 100 93 90 88 90 93 94 88 85 82 85 85 84 81 82 81 76 74 73 73 79 79 88 95 115 121 126 132 135 138 146 150 166 179 185 194 203 203 205 205 203 205 205 205 199 189 187 182 161 138 126 104 91 87 81 81 73 71 71 73 73 73 71 71 69 63 59 57 59 59 59 61 63 61 59 55 55 55 52 52 50 50 50 52 52 50 50 47 50 50 55 57 59 57 57 57 59 57 59 59 59 59 59 57 57 55 57 57 57 55 52 55 55 55 55 55 52 52 52 55 55 55 52 52 55 57 57 55 50 50 52 55 55 55 55 57 59 63 63 63 65 69 71 73 87 90 85 84 81 79 81 84 81 79 78 78 78 81 84 79 79 79 82 82
94 98 100 100 94 90 85 90 95 97 98 97 98 97 105 116 118 111 99 95 91 85 82 84 84 79 82 93 99 94 88 85 87 79 87 93 88 84 79 79 79 84 74 67 61 59 59 61 63 63 63 65 71 71 71 69 63 61 63 63 63 63 61 59 59 59 59 63 67 73 76 76 91 95 97 94 94 102 99 95 94 99 99 93 99 99 99 103 107 105 102 95 90 82 79 79 81 84 84 84 84 82 82 81 82 81 81 81 79 79 82 85 82 88 91 94 99 103 118 126 130 134 140 144 163 177 167 169 183 179 171 160 158 141 127 109 97 82 81 76 73 73 73 73 74 73 71 71 67 65 63 61 61 59 59 59 59 59 59 57 57 55 52 52 52 52 50 50 47 50 52 52 52 52 52 55 57 59 61 59 57 59 67 59 57 59 59 59 59 57 55 55 57 59 57 55 52 52 55 55 57 55 52 52 52 55 57 55 52 55 55 57 57 55 55 52 55 55 55 55 55 55 57 61 65 67 67 69 69 71 73 76 76 78 82 81 82 84 81 81 78 76 78 79 81 81 84 85 91 87
97 99 100 100 97 90 85 88 91 99 100 97 97 97 105 116 117 116 108 102 97 88 82 82 82 79 79 93 95 93 91 91 93 90 94 93 90 88 82 82 84 81 67 63 59 57 57 61 69 69 65 69 73 73 71 65 61 61 63 65 69 69 61 59 59 61 61 65 71 78 78 85 94 97 95 97 97 94 94 93 93 95 95 99 99 95 95 99 104 111 111 102 95 87 81 76 76 76 81 84 79 79 81 84 85 90 84 84 84 84 87 90 82 82 82 79 78 79 79 85 88 85 82 85 104 118 115 110 122 123 121 116 114 99 93 73 73 74 73 73 71 71 74 73 73 71 67 67 65 65 65 69 67 59 57 57 57 57 57 55 55 52 52 52 52 52 50 47 50 52 55 55 57 57 57 57 59 61 61 59 57 59 67 59 57 59 59 59 59 57 55 55 57 59 57 55 50 52 55 55 55 55 52 52 55 57 57 57 55 55 55 57 57 57 57 55 55 52 55 55 55 55 57 61 65 69 69 67 65 67 71 71 73 73 73 76 78 81 81 82 82 74 76 78 79 84 84 85 91 88
91 98 98 97 98 94 88 88 90 95 100 99 99 97 95 104 108 115 116 114 108 99 93 88 87 85 82 90 94 94 98 102 102 100 100 94 94 94 91 93 93 84 67 61 59 59 61 63 65 69 65 67 71 71 67 65 61 63 63 69 69 65 61 59 61 69 71 69 71 78 85 91 93 95 98 98 98 94 91 90 93 94 94 98 95 91 90 95 98 104 104 103 100 93 85 79 81 82 85 84 79 79 81 84 87 90 87 88 91 88 88 94 93 93 90 88 85 84 87 82 85 85 79 76 76 79 79 79 78 79 76 76 78 76 73 71 73 73 71 71 73 73 73 71 67 67 67 69 71 73 73 69 61 57 55 52 52 52 55 52 52 52 52 52 52 50 50 52 52 55 55 57 59 61 61 61 63 61 59 57 57 59 59 59 59 61 61 61 59 57 55 55 57 59 57 55 50 52 52 55 55 55 52 52 55 57 57 57 55 55 55 55 57 55 55 55 52 52 55 55 55 55 59 61 69 71 71 65 63 65 71 71 67 67 67 71 71 73 74 81 79 73 73 78 81 79 82 87 87 85
78 87 95 98 97 95 93 93 93 94 97 97 98 94 91 93 93 99 108 111 112 112 105 99 98 98 98 97 100 102 105 108 111 111 102 94 93 90 90 90 88 74 67 61 59 67 69 65 65 65 63 65 67 71 69 69 69 65 65 65 65 63 61 59 61 71 73 73 74 79 90 91 90 94 98 94 95 94 90 90 95 94 93 90 88 88 91 95 97 98 97 100 98 90 82 88 88 94 99 90 88 87 79 79 85 87 88 90 91 90 88 93 95 95 91 87 87 91 91 88 88 90 85 81 81 82 84 84 82 78 76 76 73 71 73 73 71 71 73 78 73 71 67 65 65 67 71 73 73 73 71 59 57 52 50 47 50 52 52 52 55 55 55 52 50 50 52 55 57 57 57 59 63 69 67 69 71 61 59 57 57 59 59 59 61 69 69 61 59 57 57 55 57 57 57 52 50 52 55 55 55 52 52 55 57 57 59 57 55 55 55 55 57 55 55 52 52 52 55 55 55 57 59 63 65 67 65 63 61 63 67 69 67 65 63 65 65 65 67 71 73 71 73 79 84 84 88 91 87 82
74 74 85 93 95 99 97 95 98 95 94 94 97 95 97 97 93 95 99 99 103 104 102 103 107 110 115 115 118 122 121 120 123 121 114 108 104 100 95 94 88 74 67 61 59 63 69 69 65 63 63 65 69 71 65 65 69 69 63 61 61 61 61 59 61 67 71 73 76 82 91 88 91 95 93 91 95 91 90 98 100 97 94 90 82 85 93 100 100 98 97 98 99 91 87 88 88 91 99 93 102 100 88 87 91 88 87 87 87 87 87 85 88 91 88 85 85 90 91 90 90 90 87 85 82 82 81 84 84 81 81 76 71 71 71 71 73 76 78 74 71 67 63 63 65 73 73 73 71 65 59 55 50 45 45 45 45 50 52 55 57 57 55 52 47 50 52 57 59 57 57 59 69 69 67 71 71 61 57 55 57 59 59 59 67 69 63 61 59 59 57 55 57 57 55 52 52 55 55 52 52 52 52 55 57 57 57 57 55 55 55 55 57 57 55 52 52 52 55 55 57 57 59 63 65 65 65 63 61 61 67 71 71 67 65 65 65 63 63 65 65 69 71 73 78 84 91 91 85 76
74 74 76 85 94 99 98 100 102 99 99 97 99 103 105 105 107 107 102 100 100 99 98 99 102 107 111 114 119 122 122 123 126 128 131 132 134 135 135 128 110 79 71 61 59 63 67 69 65 63 61 65 69 65 63 61 63 65 61 59 59 59 59 59 61 65 73 74 79 88 93 90 94 98 90 94 95 91 91 100 98 95 94 87 82 88 95 102 103 99 97 95 95 91 90 90 88 91 93 95 102 100 93 95 100 95 90 87 87 88 88 85 85 85 85 82 79 84 84 85 87 88 85 81 76 76 78 78 76 76 81 73 67 67 67 73 76 76 71 71 69 63 61 63 69 73 73 69 63 59 55 50 45 45 47 47 47 50 52 55 57 57 55 52 47 50 55 57 59 59 59 59 63 67 69 71 69 59 55 55 59 59 59 59 63 65 63 59 59 59 57 55 55 55 55 52 52 55 55 52 50 50 52 52 55 57 57 55 55 52 55 57 59 57 55 52 52 55 55 57 57 57 61 63 65 67 69 69 63 63 69 73 73 71 67 71 71 69 65 65 69 69 67 71 71 73 82 90 87 81
76 78 78 78 88 98 98 99 102 100 98 99 107 111 111 110 111 111 111 111 109 104 100 100 99 104 109 110 112 116 117 119 121 123 126 130 135 135 134 131 111 76 69 63 61 63 65 65 65 63 63 63 69 67 61 59 61 63 59 59 57 57 59 61 63 67 71 73 81 90 91 93 100 94 88 93 93 90 94 95 98 94 91 87 87 91 95 103 100 99 94 91 93 88 88 90 93 93 93 94 94 100 94 98 100 97 94 93 90 88 93 97 90 88 90 90 84 79 79 85 85 85 82 79 76 76 81 76 73 73 73 73 67 67 73 76 76 73 69 67 65 63 63 69 69 67 67 63 59 55 52 47 47 50 52 52 50 52 55 55 57 55 55 52 52 52 55 57 59 57 59 59 63 67 73 69 63 57 55 57 59 61 59 59 63 69 61 59 59 59 57 55 52 55 52 52 52 55 55 50 47 50 52 52 52 55 55 55 55 55 55 57 61 61 57 55 52 52 55 55 55 57 59 69 69 67 69 69 63 63 69 71 74 73 73 76 76 73 69 69 73 71 71 71 69 71 73 76 78 82
82 81 79 78 85 94 95 93 93 94 93 91 97 102 104 104 104 109 114 117 117 110 109 110 111 110 109 107 109 112 115 117 115 115 118 119 118 118 121 115 91 73 67 63 61 63 63 61 63 65 69 61 59 59 59 61 61 61 59 57 57 57 61 63 67 67 73 74 84 87 85 93 100 90 85 87 85 88 97 94 98 95 91 87 85 87 90 91 91 93 90 88 90 87 87 88 91 91 93 94 100 100 94 95 95 100 93 90 88 88 93 99 91 94 95 95 87 82 85 90 87 87 91 87 85 82 76 78 73 71 67 67 71 73 76 73 73 71 69 67 65 63 65 69 65 63 67 59 57 52 52 50 50 52 55 55 55 55 55 55 55 55 55 55 55 55 57 59 59 57 59 59 65 71 73 71 61 57 55 57 59 61 61 61 63 69 61 59 59 57 55 55 55 55 57 57 57 57 55 52 55 55 55 55 52 55 55 57 55 55 57 59 63 61 59 55 52 52 55 57 55 55 57 61 69 67 67 65 63 65 67 71 78 74 73 74 74 73 71 69 73 71 71 73 67 71 73 74 73 71
84 84 84 84 82 87 88 88 90 93 91 88 90 93 94 93 98 102 103 103 104 104 104 105 111 111 105 108 110 109 114 112 111 111 115 116 116 121 117 104 84 71 67 63 65 63 61 61 61 69 69 61 57 57 59 61 61 61 59 59 59 59 63 65 67 71 73 74 82 85 85 93 97 87 84 85 84 90 94 97 98 91 87 84 84 85 85 85 82 87 82 85 87 87 87 94 98 94 91 94 105 102 102 102 103 100 95 91 93 91 99 99 93 94 94 90 87 87 87 90 87 90 91 88 88 74 71 74 71 67 67 69 73 73 74 71 71 71 71 71 67 65 65 65 61 59 59 57 55 52 50 50 52 55 55 55 55 57 57 57 55 55 57 57 57 59 59 61 59 59 61 63 67 71 73 65 59 57 55 57 59 59 59 61 69 69 61 59 59 59 59 59 59 61 61 67 59 57 57 57 59 67 59 57 55 55 55 55 55 57 61 63 65 63 61 57 52 52 55 55 55 52 55 59 63 65 69 69 65 65 65 71 74 82 79 78 76 76 73 71 73 73 73 74 73 73 74 76 73 67
84 84 84 84 79 82 84 85 90 91 88 85 87 90 88 88 88 90 91 94 97 98 94 95 97 97 99 102 100 99 100 102 99 97 98 98 100 98 94 88 74 67 67 69 69 63 61 61 61 63 61 59 57 57 61 61 61 61 61 61 61 63 65 71 71 71 73 73 78 84 85 90 87 79 82 84 85 94 94 94 91 85 82 81 82 84 87 82 78 79 78 84 85 84 88 98 100 100 94 95 105 91 100 100 103 102 95 93 94 93 102 102 93 95 91 85 85 85 85 90 87 82 79 84 79 71 67 73 69 65 69 69 67 71 71 71 71 73 73 71 69 65 63 61 59 59 57 55 52 50 45 47 52 55 55 55 55 57 57 57 57 57 57 57 57 59 61 61 61 61 65 71 71 67 67 63 61 57 57 57 59 59 59 61 63 63 61 61 63 67 67 71 71 69 71 69 63 61 59 61 63 67 61 59 57 57 55 55 57 61 69 73 69 63 59 57 55 52 55 55 52 52 52 57 59 63 69 69 63 63 63 67 71 84 85 82 78 76 74 74 74 73 76 79 76 73 76 78 71 67
84 84 84 81 79 84 84 84 87 87 87 85 87 88 85 85 87 82 82 90 95 95 91 93 91 91 95 93 90 88 90 90 90 87 85 87 87 85 82 79 73 67 63 69 63 63 61 61 61 63 61 59 57 59 61 63 63 61 61 63 63 65 69 71 71 71 71 73 78 79 82 88 85 82 79 82 88 94 94 94 90 82 81 84 85 84 87 82 81 78 78 81 81 84 87 91 93 100 91 98 98 91 95 93 100 95 93 91 94 88 93 100 93 95 93 85 82 84 87 90 87 82 82 76 71 69 67 69 67 69 71 69 69 67 71 73 74 73 71 69 69 63 61 59 57 57 57 55 50 47 45 47 50 55 55 55 55 55 57 57 57 57 57 57 57 61 61 61 61 63 71 73 73 71 63 61 67 59 57 57 59 57 57 59 67 65 65 67 71 73 73 73 73 71 67 65 63 61 61 63 63 61 61 59 59 59 57 57 59 63 73 73 71 61 59 57 55 52 52 50 50 50 52 55 57 59 59 61 63 63 61 61 67 78 85 82 78 76 78 81 76 73 76 82 78 73 78 78 71 67
85 85 85 84 81 81 79 79 79 84 87 87 87 85 82 82 87 87 87 88 93 88 85 84 84 85 87 85 79 79 84 84 84 84 84 84 85 87 85 81 71 65 61 61 61 61 61 61 61 61 59 59 57 59 61 65 65 63 61 61 61 63 65 69 71 69 67 73 79 78 81 85 87 87 84 79 91 93 91 90 87 82 81 85 85 84 84 82 81 78 78 78 79 79 82 85 88 91 79 90 91 98 95 90 90 88 90 91 90 82 88 95 98 93 88 88 84 79 88 90 90 81 81 71 65 65 69 71 67 67 71 67 67 73 76 73 73 71 67 63 61 59 57 55 55 55 55 55 52 50 47 47 50 55 55 55 55 55 57 57 57 55 57 59 59 61 61 59 61 63 67 71 71 69 63 61 67 61 59 59 59 57 57 59 65 67 71 76 87 87 73 71 73 71 65 63 63 63 63 63 63 61 59 59 61 63 61 61 63 69 69 67 63 59 57 57 57 55 52 47 47 47 50 52 55 57 57 57 59 59 59 59 65 74 87 84 84 84 79 81 78 76 78 82 81 78 81 78 73 67
84 85 84 81 81 81 76 79 81 84 87 87 85 84 84 82 85 88 88 88 91 84 78 78 78 78 79 84 84 79 81 81 82 82 84 85 85 87 87 82 71 65 61 59 61 59 61 59 59 59 59 59 59 59 61 65 69 65 63 61 59 61 63 65 71 67 67 73 78 74 78 79 82 85 82 85 91 88 88 82 81 81 81 84 82 82 81 82 82 78 78 76 76 78 79 84 88 85 79 85 90 98 93 90 90 88 88 90 85 82 87 90 95 88 85 88 85 79 85 88 79 76 73 67 63 65 71 73 71 69 71 71 73 78 76 71 67 69 65 61 59 57 55 55 55 55 57 57 55 55 52 50 52 55 57 55 55 55 57 57 57 57 57 59 61 61 61 59 61 69 69 69 69 69 63 61 61 61 59 59 59 57 59 63 71 74 78 82 82 76 71 71 73 71 67 65 65 65 65 65 65 61 59 59 61 71 71 65 69 67 65 63 61 57 57 57 57 55 52 45 45 45 45 50 52 55 55 55 57 59 59 57 61 73 88 88 87 87 87 85 81 79 79 82 84 81 78 78 73 71
85 84 81 81 76 76 76 81 85 87 87 82 82 84 84 85 85 88 87 87 90 82 78 81 79 78 78 81 82 79 78 82 82 79 84 85 84 87 85 82 73 65 61 59 61 61 61 59 59 59 61 59 59 59 61 63 65 69 63 61 59 59 61 65 65 65 67 73 78 74 82 84 82 85 85 87 88 87 85 82 81 84 79 84 84 87 81 78 76 74 78 76 76 76 79 85 88 79 82 88 90 98 93 91 93 88 88 87 79 84 87 87 91 85 79 88 84 79 84 81 74 73 71 67 65 67 73 73 71 67 71 73 78 73 71 67 65 63 63 61 59 57 55 52 55 57 57 57 57 57 55 52 52 55 57 57 57 57 57 59 59 59 59 61 61 61 59 59 61 69 69 69 69 69 63 63 63 63 63 61 61 61 63 73 79 82 78 76 73 73 71 71 71 71 71 69 71 71 67 71 69 69 61 59 61 65 69 65 69 69 63 61 57 55 57 57 57 52 50 45 42 42 42 47 50 52 52 52 55 57 57 59 61 71 84 90 88 88 94 91 85 84 87 90 94 84 73 73 67 67
85 81 78 76 74 76 78 81 88 84 84 79 79 81 84 85 84 81 79 79 87 85 81 82 82 79 79 81 79 79 78 78 78 78 81 79 79 84 81 76 71 65 59 59 61 61 61 61 59 61 61 61 59 59 59 61 63 63 63 61 61 61 63 69 65 63 65 73 79 76 82 84 84 84 79 84 85 79 81 81 84 82 79 85 87 84 78 76 73 73 76 73 73 73 76 88 91 85 90 90 90 95 93 93 93 88 88 85 79 85 88 88 88 78 82 88 78 74 81 79 73 67 71 67 71 73 71 67 67 71 73 73 67 67 65 65 61 61 63 61 59 55 52 52 55 57 57 57 57 57 55 52 52 55 57 59 57 57 59 59 59 59 61 61 63 61 59 59 59 63 65 65 63 65 65 65 69 65 69 69 63 65 71 79 82 78 74 73 71 71 73 74 73 73 71 71 69 67 67 71 69 69 63 61 61 63 63 63 63 63 63 59 57 52 52 55 55 52 50 45 42 39 42 47 47 50 50 47 52 55 57 59 61 67 78 93 90 91 93 95 91 88 93 97 100 84 71 65 63 69
85 82 78 76 74 78 78 84 88 79 79 78 79 81 81 81 79 79 78 78 84 84 81 79 84 81 79 84 81 81 81 78 78 78 78 79 79 81 79 74 71 63 59 61 61 65 63 63 63 63 65 63 61 59 59 59 61 61 63 63 63 65 65 69 65 63 67 73 79 76 81 81 81 81 76 81 82 79 82 81 79 78 76 82 85 79 73 78 74 73 74 73 73 71 76 91 91 87 90 90 88 95 93 95 91 88 88 87 78 79 87 85 79 78 84 81 73 73 76 73 67 67 67 67 73 73 69 65 67 73 73 71 65 63 65 65 61 61 61 61 59 55 52 52 55 57 57 55 55 55 55 52 52 57 59 59 59 59 59 59 61 61 61 61 63 61 59 59 61 63 61 59 59 61 63 69 69 65 63 69 65 71 78 79 74 73 73 73 71 73 74 74 73 71 71 67 67 65 65 67 69 67 65 63 63 63 63 61 61 59 59 57 52 47 50 52 52 52 50 45 42 39 42 45 45 47 47 47 50 52 57 59 59 63 73 93 93 90 94 100 100 93 97 102 102 82 67 61 61 69
87 87 84 78 76 76 78 79 84 79 81 78 78 82 84 78 81 81 78 78 79 79 78 79 81 82 79 85 84 81 81 79 82 81 79 84 81 84 84 76 71 65 63 63 65 65 69 69 65 65 65 63 61 59 59 59 61 61 63 63 65 71 67 67 69 67 67 73 79 76 81 78 81 78 76 78 79 79 82 81 81 74 73 78 81 78 73 78 74 73 73 71 71 71 74 87 85 84 87 82 88 94 93 95 91 85 87 84 79 78 84 79 78 84 84 76 73 73 71 69 69 71 71 69 69 69 67 65 67 67 69 63 61 63 69 71 61 59 59 57 57 55 52 55 55 57 55 55 52 52 52 52 52 57 59 59 61 59 59 59 59 61 61 61 61 59 59 59 61 61 59 57 57 59 61 65 65 63 63 65 69 73 76 73 71 73 73 74 76 73 71 71 67 69 67 67 65 65 65 65 67 67 69 69 67 65 65 63 61 59 55 52 50 45 45 50 52 52 52 47 45 39 42 45 45 47 50 47 50 52 57 57 57 59 67 88 90 87 90 95 95 93 97 102 100 74 67 61 63 67
85 85 85 79 79 81 81 78 81 84 85 81 78 81 82 78 81 81 79 78 81 79 78 81 81 79 79 84 85 82 79 79 84 79 84 84 84 82 79 73 67 67 69 69 67 69 69 69 63 63 63 61 61 59 61 61 61 63 65 65 67 71 65 65 69 69 71 73 74 76 76 73 73 73 73 78 78 81 82 76 78 74 73 76 81 78 73 73 71 71 71 67 67 67 73 81 79 81 82 76 84 87 87 90 85 79 84 84 79 82 82 79 81 82 82 74 73 73 67 67 69 69 71 69 67 69 67 71 71 63 61 61 59 61 71 71 61 57 57 57 55 55 55 55 55 57 55 52 52 52 52 52 52 57 59 59 59 57 59 59 61 61 61 61 61 59 57 59 61 61 59 57 55 57 61 63 65 63 65 71 71 71 71 67 67 73 78 79 76 71 69 69 67 67 67 69 71 67 67 67 69 67 69 67 67 67 69 69 61 57 52 47 47 45 42 47 52 55 55 50 47 45 45 47 47 50 50 50 50 52 55 57 55 55 63 74 84 84 82 87 90 90 95 99 91 74 67 65 67 71
84 82 81 81 81 81 78 78 85 87 87 82 78 78 79 79 79 81 81 81 81 81 82 82 81 79 79 85 91 85 82 81 84 81 81 81 76 73 71 71 67 69 69 65 65 69 69 63 61 61 61 61 61 61 59 61 61 63 69 69 69 65 63 65 69 71 73 73 73 74 74 71 71 71 76 82 79 81 81 74 74 73 73 79 81 78 76 73 71 71 65 63 63 67 73 78 74 76 76 76 81 81 84 84 78 78 82 76 78 82 81 74 76 76 74 73 71 67 67 67 67 67 71 67 67 69 67 69 63 61 61 61 61 61 63 61 59 55 55 55 55 55 55 55 55 55 55 52 50 50 50 50 52 55 57 57 55 55 57 59 61 61 61 59 57 55 55 57 59 61 59 57 57 57 59 63 65 67 67 71 71 71 71 71 73 76 79 74 71 69 67 69 71 67 69 69 67 71 71 71 73 71 71 71 67 67 69 61 57 52 47 45 45 45 42 45 52 55 55 52 50 47 47 50 50 52 52 50 50 52 55 55 55 55 59 73 76 81 78 79 81 84 88 88 88 78 71 69 71 71
79 84 81 81 81 79 78 82 93 91 90 87 79 82 82 79 79 85 82 79 79 81 79 81 79 79 84 88 91 88 84 84 81 84 81 76 71 67 67 67 71 71 67 65 63 65 63 59 57 59 59 61 61 59 59 59 59 63 69 67 67 65 63 65 71 69 71 73 73 74 74 73 73 73 78 82 81 81 81 73 73 73 74 79 74 73 73 71 67 69 61 59 61 67 76 79 74 73 73 73 76 74 78 78 73 74 79 73 73 82 78 73 76 74 71 71 67 65 65 69 71 71 71 67 69 65 65 63 63 65 69 67 63 59 59 59 57 55 52 52 52 52 52 52 55 52 52 50 50 50 47 47 47 52 52 52 52 52 55 57 59 59 59 59 55 55 55 57 59 59 57 57 57 59 61 65 71 71 71 69 69 71 73 74 78 76 73 71 69 67 67 71 73 67 67 71 73 76 76 73 73 73 73 71 69 69 61 57 52 47 45 45 45 45 42 45 50 52 55 55 52 50 50 50 52 52 52 50 47 47 52 55 55 57 59 69 73 73 73 74 73 74 79 82 84 76 71 73 73 73
79 84 84 81 81 81 79 88 100 100 97 94 93 93 90 90 90 91 90 82 84 82 79 82 79 79 87 88 90 88 82 82 82 81 81 73 67 63 65 71 71 71 65 63 61 61 61 59 59 61 61 61 61 59 59 57 59 61 63 67 67 69 65 65 65 67 71 73 73 71 73 74 73 73 74 78 81 81 76 73 73 78 76 74 73 71 71 69 67 63 59 59 61 67 74 79 76 73 71 67 71 71 73 78 73 74 78 71 74 81 76 73 76 73 67 65 63 63 65 67 71 71 71 67 65 63 63 65 65 71 71 71 69 59 57 57 55 52 52 55 55 52 52 50 52 52 52 50 47 47 47 47 45 50 50 50 47 52 55 57 59 59 59 57 52 52 55 57 57 57 55 55 59 61 65 69 73 73 71 69 71 71 76 78 76 73 71 71 71 69 67 73 73 73 73 73 74 76 74 73 71 73 73 67 67 61 57 52 45 39 42 45 47 45 42 42 47 50 52 52 52 52 52 52 52 52 50 47 45 47 52 55 55 57 59 65 71 73 73 73 74 74 76 81 81 76 71 73 71 71
79 81 82 82 76 76 87 100 110 111 105 102 105 110 103 100 103 104 99 93 95 93 90 91 93 91 90 91 91 91 90 88 87 82 78 71 65 61 63 65 67 69 69 61 61 59 59 61 63 69 69 63 61 59 59 59 59 61 63 69 69 69 65 63 63 65 67 71 71 69 67 71 73 73 74 76 78 76 76 73 73 78 78 76 73 73 71 67 63 61 61 59 63 71 73 74 73 71 71 67 71 71 71 73 71 73 73 71 74 76 74 71 73 71 65 63 63 63 63 65 67 67 67 69 65 63 65 71 71 71 71 69 63 59 57 55 52 52 52 55 55 52 50 50 52 55 52 50 47 47 47 47 47 47 50 50 50 50 55 57 59 59 57 55 52 52 55 55 55 55 55 55 59 69 67 71 73 73 67 71 73 73 76 78 73 76 74 73 71 71 71 73 73 73 73 73 73 74 71 71 67 71 71 69 61 57 52 47 42 39 42 45 45 45 42 42 45 45 50 52 52 55 55 55 52 50 45 42 42 50 52 55 55 57 57 61 67 71 73 74 79 78 79 82 88 78 73 74 73 71
79 81 78 78 79 79 95 111 114 110 104 104 109 110 107 100 104 104 100 99 100 100 97 104 110 105 103 108 110 103 100 103 98 93 84 71 67 61 63 63 63 61 61 59 59 59 61 63 69 71 71 65 63 61 63 63 63 63 63 67 67 65 63 63 63 65 65 69 71 65 65 67 74 76 74 74 74 76 74 73 73 73 74 74 73 67 69 65 63 63 63 63 65 71 73 73 71 67 69 71 71 67 71 71 71 73 73 67 73 74 73 71 71 69 63 61 63 63 61 61 63 63 67 69 67 67 71 73 71 67 65 61 59 59 57 55 52 52 52 52 52 52 50 52 55 55 55 52 50 50 52 50 50 50 52 50 50 52 55 59 59 59 55 52 50 50 52 52 52 52 52 55 59 69 65 65 71 69 69 71 73 73 74 78 74 74 74 74 73 73 74 73 73 67 67 67 71 71 71 71 67 69 71 61 57 55 52 50 45 39 42 45 45 45 42 39 39 39 47 47 52 55 55 57 52 50 45 42 45 52 55 55 55 55 57 59 65 73 74 76 81 81 82 85 93 81 73 74 74 71
79 82 78 79 84 93 110 117 116 117 115 110 111 109 103 100 104 102 100 97 97 99 102 105 110 109 108 115 115 114 107 107 105 99 88 73 71 65 63 63 61 59 59 59 61 61 61 69 71 69 67 65 69 69 65 69 69 65 65 69 69 69 63 63 69 65 63 65 69 71 63 63 71 73 76 74 73 73 73 71 67 73 73 73 71 69 67 65 65 67 69 67 71 71 71 73 71 67 69 71 71 71 73 73 71 71 71 67 73 73 73 71 71 65 61 61 63 63 61 61 61 63 65 67 67 73 73 73 67 63 59 59 59 59 59 55 52 52 52 52 52 52 52 52 55 55 55 52 50 52 52 52 50 52 52 52 52 52 57 59 59 59 55 50 47 47 50 50 52 52 52 57 59 63 65 63 65 65 67 73 73 71 73 76 73 73 73 78 78 78 73 71 67 65 63 63 65 69 71 71 63 59 59 57 52 50 52 52 50 45 42 45 45 45 42 42 39 35 42 47 52 55 55 55 52 50 47 47 50 52 55 55 52 52 55 55 61 73 79 78 79 84 87 91 93 81 71 73 73 71
79 84 84 82 90 104 116 117 118 119 119 112 110 111 111 110 108 105 103 99 97 103 104 107 107 107 109 112 115 110 103 107 103 99 90 73 71 67 69 69 61 59 59 59 61 61 63 65 69 71 65 65 69 69 69 67 69 67 69 69 67 65 63 63 65 69 63 65 69 65 63 63 67 67 73 71 73 71 71 69 67 73 76 74 71 69 71 69 71 71 69 69 71 71 67 71 71 71 71 69 69 69 71 71 71 71 71 71 73 71 69 67 65 63 59 61 63 69 61 63 61 63 67 71 73 73 71 71 63 61 59 59 59 59 59 57 55 52 52 52 50 50 52 52 55 55 52 52 52 55 55 52 50 50 52 50 52 55 57 59 59 59 55 50 47 45 47 50 52 52 52 57 61 71 63 61 61 63 67 73 73 67 71 73 73 73 73 76 76 73 71 67 63 63 63 63 63 61 63 59 57 55 52 50 50 50 52 52 50 45 42 42 45 45 45 45 42 35 39 47 52 55 55 55 55 52 52 50 52 52 52 52 52 52 52 52 59 71 78 79 79 85 87 91 91 81 73 67 67 71
79 84 82 82 95 110 115 118 118 119 119 119 117 120 120 115 114 116 112 109 109 109 108 107 107 109 115 119 116 110 104 104 104 100 87 73 71 67 69 63 61 61 59 61 61 61 63 65 67 69 65 63 67 67 67 67 65 65 67 67 67 65 65 65 65 69 63 63 69 65 65 69 69 71 71 71 71 71 69 69 71 78 78 73 71 69 71 69 71 67 67 71 71 67 67 67 69 71 71 67 67 67 69 69 67 67 69 67 71 67 67 65 63 61 61 61 63 69 65 65 65 67 71 74 73 73 67 63 59 59 59 59 59 59 59 57 57 55 52 52 52 52 52 55 55 55 52 50 52 55 55 55 52 50 52 50 52 55 57 59 59 57 55 50 47 45 45 50 52 55 55 59 71 69 63 61 61 65 67 71 71 67 67 71 73 71 71 73 73 71 69 65 63 63 69 69 59 57 57 55 52 50 47 45 47 52 55 52 52 45 39 42 42 45 47 47 45 39 39 47 55 57 57 57 57 55 52 52 52 52 52 52 52 52 52 52 57 65 79 84 84 85 87 87 88 85 79 73 71 73
85 84 82 90 105 114 118 117 118 120 121 122 124 124 122 116 120 121 115 115 116 117 114 111 110 111 120 122 120 115 110 109 103 95 85 73 71 63 61 61 61 63 61 59 59 59 63 69 65 65 63 63 67 71 71 65 63 63 65 69 69 65 65 63 63 63 61 61 63 65 71 71 73 73 73 71 73 73 67 67 67 76 78 73 67 69 69 67 67 67 67 73 73 67 65 69 69 71 69 67 69 69 65 69 65 65 65 67 71 67 65 61 63 63 63 63 63 63 65 69 69 71 73 74 71 67 65 61 59 61 61 61 59 59 59 57 57 57 55 52 52 55 55 55 55 55 52 52 52 52 55 52 52 50 50 50 52 52 55 57 57 57 55 50 47 45 47 52 52 55 57 59 61 63 63 63 65 69 69 69 71 71 71 71 71 71 71 73 73 69 71 65 63 63 61 59 55 52 50 45 45 42 42 42 47 52 55 52 50 45 39 39 39 45 47 47 45 35 35 45 52 57 57 57 57 55 55 52 50 47 47 50 52 52 52 52 55 63 81 90 88 87 87 87 90 91 88 87 76 71
84 85 85 102 117 120 122 121 120 123 124 123 122 122 120 116 120 121 117 117 120 120 118 116 115 114 122 121 122 122 116 114 105 95 88 73 65 59 57 59 61 63 61 61 59 61 61 69 65 63 63 63 65 71 71 65 61 61 63 67 67 65 65 63 63 63 61 61 63 65 65 67 71 73 73 71 73 73 71 67 71 73 73 71 67 67 69 69 65 69 71 73 73 67 69 69 69 65 63 63 67 63 63 69 63 63 65 69 69 65 65 63 65 65 69 63 63 63 65 67 71 73 73 71 67 65 63 61 61 63 69 61 59 59 59 59 57 57 55 55 55 57 57 57 57 55 55 52 52 52 52 52 50 47 50 50 52 52 52 55 55 55 52 50 47 47 50 52 52 55 57 59 61 61 63 69 69 67 67 67 71 73 73 74 71 71 71 73 73 71 69 65 63 59 57 52 50 45 42 35 39 39 39 42 47 52 52 52 50 45 39 35 35 42 42 42 42 35 35 39 50 55 55 55 55 55 52 52 47 45 47 50 52 52 52 52 55 61 74 90 90 87 87 90 94 94 99 99 87 73
82 82 93 112 122 124 124 123 122 124 124 121 116 117 117 118 120 120 116 119 121 120 118 119 118 117 120 119 120 121 112 109 105 102 91 73 63 59 59 59 61 61 61 61 61 61 63 63 65 65 63 61 61 65 69 65 61 59 61 69 69 69 63 63 65 63 61 59 61 63 63 63 65 71 73 71 73 73 67 67 71 73 71 71 69 69 69 65 65 71 73 73 71 69 67 67 65 65 61 61 59 61 61 61 63 65 69 69 67 65 65 65 67 69 69 63 61 61 65 71 73 71 67 65 63 63 63 65 63 65 69 61 59 59 61 59 59 57 55 55 57 59 59 57 57 55 55 57 57 55 52 52 50 50 50 50 52 52 52 52 52 55 52 50 47 50 52 52 52 55 57 59 59 61 65 69 69 67 67 67 67 73 78 78 71 67 67 71 73 71 67 69 59 55 50 45 42 39 42 39 39 39 39 42 47 50 50 50 47 45 39 35 35 39 42 39 39 31 31 35 45 52 55 55 52 52 52 50 47 42 45 50 52 52 52 52 55 61 71 84 90 90 87 93 99 97 99 99 91 73
87 90 104 116 122 124 123 123 123 123 122 119 116 119 120 120 120 118 116 121 121 120 114 115 119 120 118 118 120 115 110 110 112 104 81 71 63 59 59 61 61 59 59 61 63 63 63 63 69 69 63 61 59 63 69 69 61 59 59 61 61 63 63 65 69 69 61 59 61 61 63 63 65 67 73 71 73 71 67 69 71 73 73 73 71 69 65 63 63 67 71 73 73 71 69 67 65 69 63 59 59 59 59 61 63 65 69 69 63 63 65 71 71 71 67 65 63 63 69 73 69 65 63 61 61 61 63 69 69 65 67 59 59 59 61 59 57 57 57 57 59 59 59 57 57 55 57 59 59 57 55 52 52 52 52 52 52 52 52 52 52 55 52 50 50 50 52 52 55 57 59 59 59 61 65 67 67 67 69 71 73 73 73 73 71 65 65 67 73 71 69 59 55 50 42 39 39 39 42 42 42 42 39 45 47 47 47 47 47 45 39 39 39 42 42 42 42 39 35 31 39 50 52 52 52 52 52 50 47 45 47 50 50 50 50 52 55 59 71 79 88 88 90 94 99 94 97 99 95 82
93 98 111 115 119 122 123 123 124 124 124 122 121 121 121 120 120 118 115 118 120 120 115 117 124 126 126 123 118 114 112 115 112 98 73 67 61 61 59 61 61 59 59 59 61 63 61 61 61 65 67 61 59 61 63 63 61 59 59 59 61 63 63 65 65 65 61 59 59 61 61 61 63 69 73 73 73 71 69 67 73 73 73 73 71 69 63 61 61 67 71 73 73 71 71 67 69 69 69 63 61 59 61 61 63 65 65 63 61 59 63 69 69 69 69 65 65 65 65 65 65 63 61 61 61 63 65 69 65 63 59 59 59 59 59 57 57 57 57 57 59 59 57 57 55 55 57 59 59 59 57 55 52 52 55 55 52 52 52 52 52 52 52 52 52 52 52 55 57 59 59 59 59 61 63 69 69 69 67 71 73 71 67 69 69 65 65 65 69 63 59 55 52 45 39 39 39 42 45 45 42 42 42 42 45 45 45 47 47 45 42 42 42 45 45 42 42 42 39 35 31 47 52 55 52 52 52 52 47 45 47 50 47 47 50 52 55 59 67 78 85 88 93 98 95 91 97 99 99 91
95 105 114 115 118 119 119 120 121 124 124 122 121 120 118 119 120 117 114 116 117 120 117 120 125 126 126 122 115 108 108 115 112 90 71 63 61 61 61 61 59 59 59 59 61 63 63 63 63 65 61 61 59 59 61 61 61 59 61 59 61 63 69 67 67 69 63 59 59 59 59 59 63 71 73 71 71 71 71 67 71 73 71 69 71 63 61 61 63 67 69 71 71 69 71 67 67 69 69 69 61 59 61 61 65 65 65 61 59 61 63 65 69 69 69 67 65 65 65 65 63 63 63 61 61 63 69 67 63 59 57 57 59 59 59 57 57 55 57 59 59 57 57 55 55 57 57 57 59 59 57 55 52 55 55 55 52 52 52 52 52 52 52 50 50 50 52 57 59 67 61 59 61 61 63 69 71 71 69 69 71 71 67 65 65 69 67 65 61 57 55 52 50 45 42 39 42 42 42 45 45 42 42 42 45 45 47 47 47 47 42 45 45 47 47 45 45 42 42 35 27 45 55 57 55 52 52 50 50 47 47 47 45 47 50 52 57 59 67 76 88 90 94 99 95 91 98 104 103 90
105 112 116 116 117 118 117 120 119 119 120 117 116 116 115 120 120 117 112 114 116 118 118 120 121 119 120 117 115 111 112 115 104 74 67 61 61 61 63 61 59 59 57 59 61 65 67 69 69 63 61 59 59 59 59 59 59 59 61 61 65 65 69 67 69 69 69 61 59 59 59 59 63 67 69 69 67 71 67 69 71 71 67 65 61 59 59 61 65 69 69 71 67 67 65 69 65 65 65 63 61 59 59 61 65 69 63 61 61 63 69 67 69 69 69 69 65 65 69 69 63 63 61 63 65 69 67 69 61 59 57 57 59 59 59 59 57 57 57 57 57 57 57 55 55 57 57 57 57 57 57 55 52 55 55 55 52 50 52 52 52 52 52 50 47 50 52 57 59 67 61 61 61 61 61 63 65 69 67 69 67 71 71 65 67 71 71 71 57 55 52 52 52 50 45 45 45 45 42 42 45 42 39 42 45 47 50 47 47 45 42 45 50 50 50 45 42 39 39 31 27 45 55 59 57 55 52 50 50 50 47 45 45 45 50 52 55 57 63 73 93 93 94 100 99 94 98 104 104 90
112 112 116 116 117 116 115 119 117 114 114 114 112 114 116 119 119 115 111 115 119 120 117 118 119 114 114 111 109 108 108 103 84 71 65 61 61 61 63 63 61 59 59 61 69 71 71 71 71 65 61 59 57 59 59 59 59 59 61 69 69 67 67 71 69 67 65 63 63 63 61 61 63 69 69 67 69 69 67 69 69 67 71 63 59 59 59 61 65 69 71 71 67 65 65 63 63 61 63 63 63 61 61 63 69 69 65 61 63 69 71 67 67 69 67 65 65 65 69 65 63 61 61 63 69 67 65 63 59 57 57 59 59 59 59 59 59 59 57 57 57 57 55 55 55 57 57 57 57 55 55 52 52 55 55 55 52 50 50 50 52 52 50 47 45 47 52 57 59 61 63 65 65 65 61 61 63 65 65 65 65 69 69 71 71 69 69 59 55 52 52 52 52 50 50 47 45 45 42 42 45 42 39 42 47 50 50 47 45 42 42 47 52 55 52 47 42 42 42 35 27 42 55 59 59 57 52 50 50 47 47 47 45 42 50 52 55 55 59 71 82 87 91 99 100 99 99 100 100 90
110 111 116 115 114 111 111 117 116 114 112 112 114 115 114 114 112 109 105 109 118 119 115 116 118 109 102 103 102 98 93 87 73 67 65 69 65 63 63 61 61 59 61 69 71 73 73 73 73 65 59 57 57 57 59 59 61 59 63 69 69 65 67 69 71 67 67 65 69 69 65 63 65 69 69 67 71 71 69 67 65 65 63 61 59 59 61 65 67 71 71 71 67 67 65 63 61 61 61 69 65 63 63 63 69 69 65 63 61 69 71 71 65 65 65 65 65 65 69 61 59 59 61 69 69 65 63 61 59 57 57 59 59 57 59 59 59 59 59 59 57 55 55 55 55 57 55 55 52 52 52 52 52 55 55 55 52 50 47 47 47 50 50 50 50 50 52 55 57 59 69 73 71 69 63 61 61 61 67 67 61 61 61 63 63 61 59 55 52 52 52 52 52 50 50 47 47 45 42 42 42 39 35 39 45 50 50 45 39 39 39 47 52 55 52 50 45 45 45 42 31 39 52 57 57 57 52 50 50 47 45 45 42 42 45 50 52 52 57 63 76 84 88 91 93 91 91 93 94 88
105 107 105 104 102 102 100 102 104 105 104 102 103 102 99 99 100 102 95 94 102 105 103 103 105 98 93 91 93 88 78 73 67 65 63 65 69 69 61 61 59 61 63 73 73 73 73 74 74 67 61 59 59 57 57 59 61 61 61 63 63 65 67 69 69 71 69 67 69 69 69 65 63 65 69 65 65 65 65 65 69 65 63 61 59 59 61 65 67 69 67 67 67 69 67 65 63 63 65 67 69 65 65 65 69 67 69 61 61 63 65 69 65 65 65 65 69 65 61 59 59 59 63 65 65 63 63 61 59 57 57 57 57 57 57 57 59 59 59 59 57 55 55 55 55 55 52 50 47 50 50 52 52 55 57 55 52 52 47 45 47 47 52 52 52 50 50 52 57 63 73 73 71 69 63 61 59 59 59 59 59 57 57 57 57 57 55 52 50 52 52 50 47 45 47 47 45 42 39 39 39 35 35 35 45 47 47 42 39 35 35 45 50 52 52 47 45 47 50 47 35 35 47 55 57 55 52 47 45 45 42 42 42 42 45 50 52 52 55 61 71 74 78 81 82 78 74 74 73 73
97 94 91 90 90 91 90 88 90 91 91 90 90 88 87 87 90 88 85 85 88 88 82 85 88 87 85 84 81 74 71 69 65 63 63 65 69 69 63 61 61 61 63 71 71 71 73 73 73 65 61 59 59 57 59 59 61 61 61 61 63 65 69 67 69 69 65 65 65 65 69 63 61 63 63 63 61 61 63 69 69 65 61 59 59 59 63 65 67 67 67 65 65 67 69 69 65 65 67 69 71 69 65 65 69 63 61 61 59 61 61 63 65 65 67 69 65 63 61 59 59 61 69 65 63 61 61 61 59 57 55 55 55 55 55 57 57 59 59 57 57 55 55 55 55 55 52 47 42 45 50 52 52 55 55 55 52 50 47 45 47 47 52 55 55 52 50 52 57 69 73 71 65 61 61 59 59 57 55 55 55 52 52 52 52 52 52 50 50 50 50 47 45 45 47 47 45 39 35 35 35 35 31 31 39 42 45 39 35 31 31 39 45 45 47 45 45 47 50 45 35 27 42 52 55 52 47 42 39 42 42 45 45 45 45 47 52 52 55 57 61 67 73 73 73 73 71 71 67 73
90 87 85 84 82 84 82 82 82 84 82 82 84 82 79 79 84 82 79 82 84 79 76 76 79 76 81 78 73 71 67 63 63 63 63 63 65 65 63 67 63 61 63 65 65 65 69 67 67 63 61 61 59 59 59 61 63 61 61 61 63 69 69 67 69 67 67 65 63 63 63 63 61 61 61 61 59 61 63 63 63 63 61 61 61 61 63 65 67 69 67 65 63 65 69 65 65 65 67 69 71 65 61 59 59 59 57 59 59 59 61 63 65 65 69 69 61 61 61 61 63 65 69 63 61 59 59 59 57 55 55 52 52 52 57 57 59 59 59 57 57 55 55 55 55 52 50 47 45 47 50 52 55 55 55 55 52 50 50 50 47 47 52 55 55 52 52 55 59 69 69 63 59 59 57 57 57 55 52 52 52 47 50 47 50 50 50 47 47 50 47 45 45 42 47 47 45 42 35 35 31 31 27 27 35 35 42 35 31 27 31 31 35 35 42 42 42 45 45 42 27 27 42 52 52 50 42 35 39 42 45 45 45 42 45 47 50 52 52 55 59 65 71 71 69 67 67 67 67 71
88 87 84 81 79 81 82 85 85 84 81 82 85 85 79 81 85 84 84 79 84 82 78 78 76 76 78 73 67 63 61 61 61 63 63 63 63 63 65 69 65 61 61 59 61 61 63 65 65 63 61 61 61 61 63 65 65 63 63 63 63 65 69 67 67 67 69 67 65 63 63 63 63 63 61 59 59 61 63 63 61 61 61 61 63 65 65 65 69 67 67 65 63 63 63 63 65 69 69 69 65 59 57 57 57 57 57 57 57 57 59 61 65 65 63 61 59 61 63 71 65 65 63 61 59 59 59 59 57 55 55 52 55 55 57 59 59 59 57 57 55 55 55 55 55 52 50 47 50 52 52 55 55 55 55 52 50 50 52 50 47 47 50 52 52 52 55 57 59 61 61 59 57 57 57 57 55 52 50 50 52 50 47 45 45 47 47 47 47 50 47 45 42 45 47 45 45 42 39 39 35 31 31 27 31 35 39 35 31 31 27 31 31 31 39 39 39 39 39 39 27 27 42 50 52 50 39 31 39 42 45 45 42 42 42 45 47 50 52 55 57 63 71 71 69 65 65 71 71 67
85 85 81 79 79 79 85 85 82 82 84 79 85 85 82 81 84 85 81 79 84 82 76 76 76 74 74 71 63 61 63 63 63 63 63 65 65 65 69 69 65 61 59 59 59 59 61 69 69 63 61 61 63 69 67 67 67 65 65 63 63 63 65 71 69 71 71 71 69 65 63 65 69 69 61 59 59 59 61 63 63 63 63 63 65 69 67 65 65 69 67 65 63 63 63 63 63 63 63 61 61 57 55 55 57 57 57 57 55 55 57 59 63 63 61 59 59 63 69 71 65 63 63 61 59 59 59 57 55 55 55 55 55 57 57 59 57 57 57 55 55 52 52 52 52 50 47 50 50 52 52 52 55 55 55 52 50 52 50 50 45 45 50 52 52 55 57 61 63 61 59 57 57 55 55 55 52 50 47 50 50 50 45 42 39 42 45 50 52 52 47 42 39 42 45 45 42 42 42 42 35 35 31 27 31 35 35 31 31 31 27 27 31 35 39 39 35 35 39 35 27 27 35 47 52 50 42 35 39 42 42 39 39 39 39 42 47 52 52 55 57 61 69 71 65 65 67 71 71 71
82 81 81 81 79 81 85 82 82 85 84 79 85 85 84 84 82 84 82 81 84 81 73 73 74 73 71 65 61 61 69 69 65 63 63 65 65 65 65 69 65 61 59 59 59 61 63 65 69 63 61 61 65 69 69 69 67 63 65 69 61 61 61 71 69 69 67 69 71 65 63 65 69 69 65 61 61 61 61 63 63 65 65 65 67 69 69 65 63 63 65 63 63 63 63 63 61 59 59 59 59 55 55 57 57 57 57 57 55 55 57 59 61 61 59 61 61 65 71 67 65 65 65 63 61 59 59 57 55 55 55 55 57 57 57 57 57 57 55 55 52 52 52 47 47 47 47 50 52 52 52 52 55 55 55 52 50 50 50 50 45 47 50 52 52 55 59 69 69 63 59 59 57 57 55 52 52 47 45 50 50 50 45 39 35 39 42 47 52 52 50 39 39 42 42 42 39 39 35 35 35 35 31 31 31 31 35 31 27 27 22 27 31 35 35 35 31 31 35 35 31 22 31 45 50 47 42 35 35 39 39 35 35 35 39 42 50 52 55 57 59 61 65 69 69 67 71 71 71 71
82 81 79 79 81 81 84 84 84 85 85 81 81 84 85 82 84 84 84 84 84 78 73 73 74 73 67 61 59 61 65 67 69 65 63 63 63 63 63 63 63 61 61 59 59 61 65 65 63 61 59 61 69 67 69 69 69 63 63 69 61 59 61 63 63 63 65 69 69 65 65 65 65 67 69 69 65 63 63 63 65 69 71 67 65 65 65 63 61 61 63 63 63 61 61 61 59 57 57 57 57 55 55 57 57 59 59 57 55 55 57 59 59 59 61 63 69 69 69 63 63 69 69 65 63 61 59 57 55 52 52 55 57 57 57 57 55 55 55 52 52 52 50 45 42 42 45 50 52 52 52 50 52 52 52 52 50 50 47 47 47 50 52 52 55 57 57 63 69 63 63 59 57 55 55 52 50 42 42 47 50 47 42 31 31 35 39 45 50 52 47 39 35 39 39 39 35 35 31 31 31 31 31 31 31 31 31 31 27 22 15 27 31 35 35 31 31 31 35 35 31 22 27 42 45 45 39 31 35 39 39 39 39 39 42 47 52 55 57 57 59 61 65 71 71 71 73 71 69 71
87 84 81 79 84 82 84 84 79 84 84 81 79 79 84 82 84 84 79 79 84 81 73 73 73 71 63 59 59 61 65 67 69 69 65 65 65 65 63 61 61 61 61 61 63 65 71 69 63 61 59 61 63 65 65 69 65 61 61 61 61 59 59 61 61 61 63 69 67 67 65 65 65 69 69 69 63 69 69 61 63 69 71 65 63 63 61 61 61 61 63 61 59 59 59 59 59 57 57 57 55 55 55 55 57 57 57 57 55 55 55 57 59 59 61 69 65 63 63 61 61 63 65 65 61 59 57 55 55 52 55 55 57 57 57 57 57 55 55 52 52 52 50 47 45 45 45 50 50 52 52 50 50 52 52 52 52 50 47 47 50 50 52 52 52 55 57 61 63 63 63 59 57 55 52 52 47 42 39 39 42 42 35 27 27 35 39 45 47 50 45 39 35 35 35 35 31 31 31 31 31 31 31 27 27 27 31 31 27 22 15 27 31 31 31 27 31 31 35 35 31 22 27 39 45 45 35 31 35 39 42 45 45 45 47 52 52 55 57 59 59 63 69 73 71 71 71 71 67 71
85 87 85 84 87 85 84 81 79 81 84 79 79 79 81 84 84 79 79 79 84 82 73 73 71 67 61 59 59 61 69 67 69 69 67 65 65 69 65 63 61 59 61 63 67 71 69 65 63 61 61 61 61 61 63 65 63 61 61 61 59 59 61 63 63 61 61 65 69 67 65 65 69 63 63 61 61 63 61 61 61 69 69 65 63 61 61 61 61 61 63 61 59 57 57 59 59 57 57 55 55 55 52 55 57 57 57 55 55 55 55 57 57 59 59 63 63 59 59 59 61 65 69 63 59 57 57 55 52 55 57 57 57 57 57 57 55 55 55 55 52 52 52 50 47 47 47 50 50 52 50 47 45 50 50 52 50 47 47 47 47 50 50 52 52 55 57 61 63 63 61 59 55 52 50 50 45 39 31 31 39 39 31 27 22 35 42 45 47 47 42 39 35 35 35 31 31 31 31 31 31 27 27 22 22 27 35 35 31 27 15 22 31 35 39 39 35 31 35 35 27 22 27 39 45 47 42 39 39 42 45 47 47 50 52 52 55 55 55 59 61 67 71 73 71 71 71 71 67 69
84 87 87 87 87 84 79 84 84 84 84 81 82 78 79 81 81 79 81 81 81 78 73 71 67 65 61 59 59 61 69 69 67 69 69 67 67 69 67 65 63 61 63 69 71 71 69 65 63 63 63 61 59 61 61 63 63 63 61 61 61 61 63 65 63 61 61 65 67 69 65 63 63 63 59 59 59 61 61 61 61 63 65 69 63 61 61 61 61 61 61 59 57 55 57 59 61 59 57 57 55 55 52 55 57 57 55 55 55 52 55 57 57 59 59 59 59 57 57 57 61 69 69 61 57 55 55 52 52 55 57 59 59 57 57 57 55 55 55 52 52 52 52 52 52 50 47 50 50 50 47 45 45 47 47 47 45 42 45 45 47 47 50 50 52 55 59 63 65 63 59 57 52 47 45 45 39 35 27 22 27 31 31 27 27 35 42 47 45 45 42 39 35 35 35 35 31 31 31 35 35 31 22 15 22 27 31 35 35 27 15 22 31 39 42 42 39 39 35 35 31 22 22 45 52 52 50 42 39 39 42 45 45 47 50 52 52 52 55 59 69 69 71 73 71 71 71 71 67 69
79 87 87 85 84 79 79 84 84 84 82 84 82 79 78 76 78 81 81 84 82 76 71 67 69 69 63 59 59 61 65 69 67 69 69 65 65 67 69 69 69 65 65 69 73 73 71 65 69 69 63 59 59 59 59 61 61 61 63 63 63 65 65 69 63 63 63 69 69 69 61 61 61 63 61 59 59 61 61 61 61 63 63 69 63 61 61 59 59 61 61 59 55 52 55 59 59 59 57 57 55 55 55 55 57 57 55 55 55 55 55 57 57 57 57 57 57 57 57 57 59 61 67 59 55 52 52 52 52 55 57 59 57 57 57 57 55 55 55 52 52 52 52 55 52 52 47 50 47 47 45 42 42 45 45 42 39 39 42 42 45 45 50 50 52 57 59 69 65 61 57 55 47 42 39 39 35 35 27 15 22 31 35 35 35 39 42 45 45 45 42 39 39 35 35 35 35 35 35 42 42 39 27 22 31 35 35 35 27 27 15 22 31 42 47 47 42 39 35 35 31 22 22 45 52 55 50 39 35 35 35 39 39 42 45 50 52 52 55 59 61 67 71 73 73 67 71 71 67 71
78 81 79 81 84 81 81 84 85 85 84 79 81 81 76 76 78 82 82 82 74 71 65 65 65 69 65 61 61 63 65 65 65 69 67 67 67 67 69 65 67 69 69 67 71 71 65 65 65 65 61 59 57 59 59 59 61 63 65 69 69 65 65 69 65 65 65 67 69 65 61 61 61 63 61 61 61 61 61 63 63 63 63 63 63 61 59 57 57 59 59 57 55 55 55 57 59 57 57 57 57 55 55 55 57 57 55 55 57 57 57 57 57 57 57 57 57 59 59 59 57 59 59 57 52 52 50 52 52 55 57 57 57 57 57 57 55 55 55 52 52 52 52 52 52 52 47 47 45 42 42 42 42 42 42 42 39 39 39 39 39 42 47 50 55 57 61 63 67 59 57 52 42 31 27 27 27 27 22 15 22 31 39 39 42 39 39 42 42 42 42 39 39 39 39 39 39 39 42 45 47 42 35 31 39 39 39 31 22 22 22 22 35 45 47 47 42 35 35 31 27 15 22 42 52 52 50 39 31 31 31 35 35 35 39 45 47 50 55 59 61 67 71 73 73 71 73 73 73 71
78 78 78 81 82 82 79 79 84 85 84 79 81 79 76 76 78 81 78 73 71 67 63 63 65 69 65 65 63 65 65 65 63 65 69 71 69 67 67 65 65 71 71 69 71 69 65 65 63 69 61 59 59 59 59 59 61 63 65 65 65 65 65 67 69 69 65 67 69 65 61 63 63 63 63 61 61 61 61 63 63 61 61 61 63 63 61 57 57 57 59 57 55 52 55 55 55 55 57 57 57 57 55 55 55 55 55 55 59 59 59 59 59 59 57 57 59 67 67 59 57 57 57 55 52 52 50 52 52 52 55 55 55 55 55 55 55 55 55 55 52 52 52 52 52 52 50 47 45 45 42 42 42 42 42 42 39 39 39 39 39 39 45 50 55 59 59 61 59 57 55 47 39 31 27 27 27 22 27 22 31 35 42 42 42 42 39 39 39 42 39 35 35 35 39 39 42 45 47 50 50 47 45 42 45 45 39 31 22 22 27 35 45 47 47 45 39 35 35 35 27 15 22 35 45 47 45 35 31 27 31 31 35 35 39 42 45 50 55 57 59 63 69 73 73 73 76 74 76 74
79 79 79 81 79 78 78 78 79 84 84 79 81 84 82 82 74 71 67 67 65 63 61 65 67 69 69 67 65 67 69 65 63 63 65 69 71 73 69 65 65 69 69 69 71 69 69 63 65 69 63 61 61 61 59 59 61 61 63 63 63 65 65 67 67 65 65 69 69 65 69 65 69 63 61 59 61 61 61 61 61 59 59 61 69 69 61 59 57 57 57 57 55 55 52 52 55 52 55 57 57 57 55 55 55 57 57 59 61 69 63 61 59 59 59 59 61 67 61 57 55 55 55 55 52 52 52 52 52 52 55 55 55 55 57 57 57 55 52 52 55 55 55 55 52 52 52 50 47 45 45 42 39 39 39 42 42 42 42 42 42 42 45 50 57 59 59 59 57 57 55 47 39 31 27 27 22 22 27 31 35 35 39 42 42 39 39 42 42 42 39 35 35 35 35 42 45 47 47 50 50 50 50 50 50 47 42 35 27 27 27 39 47 52 52 47 35 35 39 39 31 15 22 31 39 45 42 35 31 27 31 31 35 39 42 45 47 47 52 55 57 59 63 71 73 73 76 78 78 78
82 84 84 82 76 76 78 81 78 79 85 85 84 84 81 76 71 65 63 63 61 61 63 69 69 67 67 67 71 71 65 63 61 63 67 67 71 73 69 67 65 65 65 63 65 65 65 65 65 65 65 65 63 61 61 59 59 61 61 61 63 65 65 69 69 65 65 69 67 65 69 69 65 61 61 59 59 61 61 61 61 59 59 59 63 63 63 59 57 57 57 57 55 55 52 52 52 52 55 55 55 55 55 55 55 57 57 59 63 69 65 63 61 61 63 67 61 59 57 55 52 52 52 55 55 52 52 52 52 52 55 55 55 57 57 59 57 55 52 52 55 55 55 55 55 55 52 50 47 47 47 45 39 35 39 42 45 45 45 45 42 42 45 52 57 59 59 57 57 55 52 47 42 35 31 27 27 27 27 31 35 35 39 42 42 42 45 45 45 45 39 31 35 35 35 42 45 47 47 50 52 52 52 52 52 50 47 42 35 27 31 39 50 52 52 47 39 35 42 39 31 15 22 31 35 42 39 35 31 31 31 35 35 39 45 47 50 47 50 52 52 55 59 63 71 71 73 76 78 74
87 87 84 84 81 84 85 85 87 87 87 87 85 81 73 71 63 59 59 59 59 61 63 69 65 65 65 67 71 69 63 61 63 63 69 69 65 67 69 69 69 69 65 63 65 65 69 67 69 65 65 65 63 61 59 59 59 59 59 61 69 65 65 65 65 65 65 69 67 65 65 65 65 63 61 59 61 61 61 61 59 59 59 61 61 63 61 61 61 61 59 59 57 55 52 52 52 50 52 55 55 55 52 52 55 57 59 61 65 69 65 63 63 63 63 67 59 57 55 52 52 50 52 52 55 52 52 52 52 55 55 57 57 57 57 59 57 52 52 52 55 55 55 55 52 52 52 50 50 50 47 45 39 39 39 42 45 45 45 42 42 42 47 52 57 57 57 57 55 55 50 47 39 35 31 31 31 27 27 31 31 35 42 45 45 47 47 50 47 42 39 35 35 39 39 39 42 45 47 52 55 55 55 52 52 52 47 45 35 31 27 35 45 50 50 45 39 35 42 42 35 27 27 31 35 39 39 35 31 31 35 39 39 42 47 50 52 50 50 50 50 52 57 61 71 71 73 74 78 73
87 85 79 82 85 90 91 88 93 93 87 85 82 74 71 65 59 57 57 59 59 61 67 63 63 63 65 65 65 63 61 61 61 61 63 61 61 63 69 67 67 69 67 71 71 69 69 69 67 67 65 65 65 63 61 59 59 59 59 63 69 69 65 63 63 65 69 71 71 65 65 65 65 65 63 63 65 69 65 65 69 61 61 61 63 65 63 65 65 69 69 61 57 55 55 52 52 52 52 55 55 55 52 52 57 59 61 61 63 63 65 63 63 63 61 59 57 55 55 52 50 50 52 52 55 55 52 52 52 55 57 57 57 57 57 57 55 52 52 52 55 55 52 52 52 52 50 50 52 52 50 45 39 39 39 39 42 42 42 39 35 42 50 55 57 57 55 55 52 50 45 39 35 31 27 27 31 31 27 22 27 35 39 45 47 50 52 50 47 45 39 35 39 39 39 35 35 42 47 52 55 55 52 52 52 52 50 45 35 27 15 22 31 39 42 39 31 31 39 39 39 27 27 31 35 42 39 35 27 31 35 39 35 39 45 47 50 50 47 50 50 52 55 59 71 71 67 73 74 73
85 84 79 82 85 88 91 90 93 93 88 81 74 73 67 61 59 57 57 59 61 63 63 61 63 65 71 69 67 65 63 61 61 61 59 59 59 61 61 63 65 71 67 69 69 67 67 69 67 69 67 67 67 67 65 63 61 61 61 63 67 67 65 63 63 65 65 67 69 65 65 65 69 69 63 69 69 67 69 67 69 65 61 63 65 69 69 67 69 69 67 65 61 57 55 55 55 55 55 57 57 55 55 55 59 59 61 59 61 63 61 63 63 63 59 55 52 52 52 52 50 50 52 55 55 55 55 55 55 55 55 57 57 57 57 57 55 52 52 52 52 52 52 50 50 47 50 50 52 52 50 45 39 39 39 39 39 39 39 39 39 45 52 55 57 55 55 52 47 42 35 35 31 27 22 22 27 22 22 15 15 27 35 45 50 52 52 50 47 45 42 39 39 39 35 31 31 35 45 50 55 52 52 52 52 52 50 45 35 27 15 15 22 27 27 27 22 27 35 35 35 31 27 31 39 45 42 35 27 27 31 39 35 39 42 45 50 50 47 47 50 52 55 59 69 69 67 73 73 73
87 87 88 85 85 87 91 90 88 91 91 76 71 65 63 61 59 57 57 59 69 63 63 63 65 67 69 71 71 71 65 63 59 59 59 61 61 61 61 61 63 71 69 69 71 69 67 69 71 73 71 71 71 73 73 69 63 61 61 63 65 69 65 63 63 63 65 67 67 65 63 63 63 63 63 65 69 71 71 67 65 63 61 61 63 69 69 69 69 67 67 69 67 57 57 57 57 57 57 57 57 57 57 57 59 59 61 61 61 61 61 61 61 59 57 55 52 52 52 52 52 50 52 55 55 55 55 55 55 55 55 57 57 57 57 57 57 55 52 52 50 50 47 45 45 47 50 50 52 50 47 42 39 39 42 39 39 39 35 35 45 52 55 57 57 55 52 50 45 35 35 35 31 27 22 15 22 15 15 0 15 22 31 39 47 52 52 50 47 45 42 39 35 35 31 27 22 31 39 45 50 47 47 47 52 52 50 45 35 27 22 22 27 27 22 22 22 22 31 35 35 31 27 35 42 45 42 35 27 22 27 35 35 39 39 42 47 47 45 50 52 52 55 57 63 67 71 73 73 67
85 88 88 87 85 87 90 87 87 87 81 73 67 63 61 61 61 59 59 61 63 69 63 65 73 71 67 71 71 71 71 61 59 59 59 63 63 61 61 59 59 61 63 69 71 71 67 71 73 73 71 67 69 67 71 69 65 63 63 63 65 69 67 65 63 63 63 71 71 65 63 63 63 61 61 63 67 69 71 67 65 63 61 59 63 65 65 65 65 65 69 65 61 57 57 57 59 57 57 57 57 57 57 59 59 59 59 59 61 63 61 61 59 57 55 55 52 52 52 52 52 50 52 55 55 55 55 57 57 55 55 55 55 55 55 57 55 55 52 50 47 45 42 39 42 47 50 52 52 50 47 42 39 42 42 45 45 42 39 39 50 55 57 57 57 55 52 47 42 35 35 35 35 31 27 22 15 15 0 0 0 15 22 35 45 50 50 47 45 45 42 39 35 31 27 22 22 27 31 35 39 39 39 42 47 50 50 47 39 31 22 27 31 31 31 27 27 22 31 31 31 27 27 35 42 45 42 35 27 22 27 35 35 39 39 39 45 47 47 50 52 55 55 57 67 67 71 73 73 67
82 85 85 85 85 85 88 85 84 78 73 67 63 61 61 61 61 59 59 61 63 65 65 71 73 71 71 71 71 67 63 59 59 61 63 65 63 63 61 59 59 59 59 61 63 63 65 67 69 67 65 63 63 63 65 65 65 63 61 61 65 71 69 65 61 61 63 63 63 65 63 65 65 69 63 63 67 67 69 65 63 63 61 61 61 63 63 61 61 61 63 63 59 57 57 57 59 57 59 59 59 59 57 59 59 57 59 59 61 59 59 57 57 55 55 55 55 55 55 55 52 52 52 55 55 55 55 57 57 55 55 55 52 52 52 55 55 52 50 45 42 42 39 39 42 50 52 52 52 50 45 39 39 42 45 47 47 45 42 42 52 57 59 57 55 52 52 47 45 42 42 39 39 35 31 27 22 15 15 0 15 15 22 35 42 47 47 45 42 45 42 35 31 31 27 27 22 27 31 31 27 27 27 31 39 42 45 45 39 31 27 31 35 39 35 31 31 27 35 35 35 27 31 35 42 42 39 35 31 27 27 35 35 35 35 39 42 47 47 52 52 55 55 59 63 69 71 74 74 71
82 91 85 84 84 82 84 84 78 73 67 63 61 61 61 61 59 59 59 61 63 63 63 71 71 69 67 71 69 65 61 59 61 63 69 67 65 63 61 59 59 59 59 59 59 61 63 65 69 65 61 59 59 59 61 63 69 63 63 65 69 71 69 63 61 61 61 61 63 63 63 65 65 69 65 65 69 69 69 65 63 63 63 61 63 63 63 61 59 59 59 61 61 57 57 57 59 57 59 61 61 61 59 59 59 59 59 59 59 59 59 57 55 55 55 55 55 55 57 55 55 52 52 55 55 55 55 55 57 57 55 55 52 52 52 52 52 50 47 45 42 42 39 42 47 52 55 52 52 50 45 39 39 42 45 47 47 47 42 45 52 57 57 57 52 50 47 45 45 45 45 42 39 39 31 27 22 15 15 15 15 27 31 35 42 45 47 45 45 45 39 35 31 31 31 31 31 35 35 31 22 22 15 22 31 35 39 39 35 31 31 35 39 39 35 31 27 27 31 31 31 27 31 35 39 39 35 35 31 27 27 31 35 35 35 35 42 45 47 52 52 55 55 57 61 67 73 78 81 73
87 91 84 79 82 85 87 82 73 67 65 61 59 59 61 59 59 57 59 61 61 61 63 65 67 65 63 65 65 69 61 61 65 71 73 73 65 63 61 61 59 59 59 57 57 59 61 63 69 63 59 59 59 59 61 63 69 65 69 65 67 69 67 63 63 63 63 63 61 61 61 63 65 65 67 69 69 67 65 65 65 65 63 63 65 65 63 59 57 57 59 63 71 59 59 57 57 57 59 69 65 63 61 61 61 61 59 57 57 57 57 57 57 55 55 55 55 55 57 57 55 55 55 55 55 55 55 55 55 55 55 55 55 55 55 52 52 47 50 47 45 45 42 45 50 55 55 55 52 50 45 42 39 42 42 45 45 45 42 45 52 55 57 55 50 45 42 39 42 45 42 42 42 39 35 31 27 22 15 15 27 31 35 39 42 45 47 47 47 45 39 35 31 35 31 31 31 35 35 31 27 22 15 22 27 35 35 31 27 31 31 35 39 39 35 31 27 27 31 27 27 22 27 31 35 35 35 31 31 31 27 31 31 35 39 39 42 45 47 52 52 55 55 57 59 65 71 78 82 73
87 87 79 79 82 87 90 76 71 67 67 59 57 59 61 61 61 59 59 61 61 61 63 65 65 65 63 65 69 69 63 61 69 71 73 73 65 61 61 59 59 61 61 59 59 59 59 61 61 61 59 59 59 59 61 63 63 63 69 69 65 69 69 65 65 69 69 65 63 61 61 61 63 69 65 69 65 65 65 65 65 65 65 65 65 71 63 59 57 59 61 65 71 61 59 59 57 57 59 69 65 65 69 63 63 61 59 57 55 57 57 59 57 57 55 55 55 55 57 57 55 55 55 57 55 55 55 55 52 52 55 55 55 55 55 52 52 50 50 50 47 47 47 52 52 55 55 55 52 50 47 42 39 39 39 42 42 42 42 47 52 55 55 52 45 39 35 35 35 39 39 39 39 35 31 31 27 22 15 22 27 31 35 39 42 45 45 47 47 47 42 39 35 39 35 31 35 35 39 35 27 22 15 22 27 31 31 27 27 27 31 35 39 35 31 27 22 22 22 22 15 15 22 27 31 31 31 27 27 31 31 31 31 35 39 42 45 45 47 52 52 55 55 57 59 65 73 81 82 73
87 87 87 82 85 90 88 73 71 67 63 59 57 59 61 63 69 69 63 63 63 63 63 65 65 65 69 69 67 65 63 61 65 67 71 67 65 63 61 59 61 61 63 63 63 61 59 59 61 61 59 59 59 61 63 63 63 63 63 63 63 65 69 65 67 71 71 67 63 61 59 59 61 69 63 63 63 63 63 65 65 65 65 65 67 71 63 59 59 59 61 65 65 61 59 59 57 57 61 65 67 67 69 67 61 59 57 55 55 57 57 59 57 57 57 55 57 57 57 57 55 55 57 57 57 55 55 52 52 52 52 55 55 55 55 52 50 50 50 50 50 52 52 52 55 55 55 55 52 50 47 42 39 39 39 39 42 45 47 50 52 52 52 47 39 35 31 31 31 35 39 35 31 31 27 27 27 22 22 22 31 31 35 35 39 42 45 45 45 45 42 42 39 39 35 31 35 35 39 35 31 27 22 22 27 31 31 27 27 27 31 35 35 35 27 22 22 22 22 15 15 15 15 22 22 22 22 15 22 27 31 35 35 39 45 47 50 50 50 52 55 55 55 57 59 65 73 78 82 74
87 90 90 87 88 90 78 67 67 65 63 61 59 59 61 65 67 69 69 67 69 69 65 65 65 69 69 69 67 65 63 61 65 67 69 65 65 71 63 61 61 61 69 71 71 63 63 63 65 63 63 63 63 63 63 65 65 69 63 61 61 61 63 63 67 69 71 67 67 61 59 59 59 61 63 63 63 65 65 67 65 65 65 65 65 69 61 59 59 61 63 65 63 59 59 59 59 59 63 69 71 71 63 59 59 57 55 52 52 55 57 59 57 57 57 57 57 57 57 57 57 57 57 59 59 57 57 55 52 52 52 52 55 55 55 52 50 45 47 50 52 52 52 52 52 55 55 52 50 47 45 45 42 42 42 45 45 47 50 52 55 52 50 45 39 35 31 31 35 39 39 39 31 27 27 27 27 15 22 22 27 27 31 31 35 39 39 42 42 45 42 42 39 39 35 35 35 39 39 39 35 31 27 22 22 27 27 27 27 22 27 31 31 31 27 22 22 15 15 15 15 15 15 15 15 15 15 15 22 27 31 39 39 45 47 50 52 52 52 52 55 55 57 57 61 67 73 76 78 73
87 87 88 88 90 90 74 69 65 65 63 61 59 61 63 69 69 69 69 67 69 69 65 63 65 67 69 69 67 65 65 65 63 69 69 65 65 71 69 61 61 63 67 67 69 65 63 71 71 69 63 63 65 65 65 65 69 65 63 59 61 61 61 63 65 69 69 67 63 61 57 57 59 59 59 61 61 65 69 69 67 65 65 63 65 69 61 59 59 61 63 63 61 59 59 59 59 61 65 69 71 65 59 57 55 52 52 50 52 55 57 57 57 57 59 57 57 57 57 57 57 57 59 59 59 57 57 55 52 52 52 52 52 52 52 50 47 45 45 47 52 52 52 52 52 55 55 52 50 47 45 45 42 42 45 45 47 47 52 55 55 55 47 45 35 35 31 31 35 42 42 39 31 22 22 22 22 22 22 22 27 27 27 27 35 39 39 39 39 42 42 42 42 39 35 35 35 39 39 39 39 35 27 22 22 22 27 27 27 22 27 31 31 31 27 22 22 15 15 15 15 15 15 15 15 15 15 15 27 31 35 42 45 47 50 52 52 52 52 55 55 55 57 59 61 67 71 73 74 73
88 90 90 91 91 85 73 67 67 71 71 65 61 61 69 67 69 67 69 69 69 67 65 65 67 67 67 67 65 65 63 61 63 65 65 65 65 67 67 63 61 61 63 65 65 65 65 67 69 69 67 65 67 67 67 65 65 63 61 61 61 61 61 63 65 67 67 67 69 69 61 59 61 63 63 65 65 67 67 67 65 63 63 61 61 61 59 57 57 59 59 59 59 57 57 57 59 61 65 65 65 61 57 57 55 52 52 50 52 55 57 57 57 57 57 55 57 57 57 59 67 67 63 63 65 61 59 55 55 52 52 52 52 52 52 52 50 47 47 50 52 52 52 52 52 52 52 52 50 45 45 45 45 47 50 52 50 52 52 55 55 52 45 39 35 35 35 39 42 45 45 42 35 35 31 27 22 22 22 22 27 22 27 27 35 35 39 35 39 42 45 45 45 42 42 39 39 39 39 39 35 35 27 22 22 22 27 22 22 22 22 27 27 27 22 22 22 15 15 15 15 15 0 0 0 0 22 22 31 39 39 47 50 52 52 52 52 52 55 55 55 57 57 59 63 65 69 73 74 76
93 93 91 91 90 79 73 67 65 67 67 63 59 59 61 63 63 65 67 69 67 63 63 63 63 65 65 65 65 63 61 59 59 61 63 65 67 65 65 69 71 71 71 71 71 71 71 71 71 69 67 65 65 65 65 65 65 63 63 63 63 63 63 69 69 65 65 67 69 69 65 63 65 65 63 63 61 63 63 63 61 59 59 59 59 57 55 55 55 55 57 57 59 57 59 61 61 61 61 61 61 59 59 57 57 55 52 52 52 52 55 57 57 57 57 55 57 55 57 61 63 67 65 63 63 59 57 55 52 52 50 52 52 52 52 52 52 52 52 52 52 52 52 52 52 50 52 50 47 45 42 42 45 50 52 55 55 55 55 57 55 50 42 35 35 35 35 35 42 45 47 47 45 42 39 31 22 22 27 27 31 31 31 31 35 39 39 35 39 39 39 42 45 45 42 35 31 31 31 31 31 31 27 27 22 27 27 22 27 27 22 27 27 27 22 22 22 22 22 15 15 0 0 0 0 0 22 27 31 45 47 52 55 55 55 55 52 52 55 55 57 57 59 61 61 61 67 76 79 79
93 93 90 88 84 76 73 69 63 61 63 61 59 59 57 59 59 61 65 65 65 63 61 59 61 63 69 73 73 67 61 57 59 67 71 71 71 73 73 73 73 73 73 73 71 71 71 71 71 67 69 63 61 63 65 65 63 61 61 63 63 63 65 69 67 69 69 65 65 65 63 63 65 65 61 61 59 59 59 61 59 59 57 57 57 57 57 57 57 57 57 57 59 59 61 69 69 63 61 59 59 61 59 57 55 55 55 52 52 52 52 57 59 59 57 55 57 55 57 59 61 63 63 61 59 57 57 55 52 52 50 52 52 52 52 52 55 55 55 55 55 55 52 52 50 50 50 50 47 45 42 39 39 47 52 55 55 57 57 57 55 50 39 35 35 31 27 27 35 42 45 45 45 42 39 31 27 27 27 31 35 35 35 35 39 39 42 39 39 35 35 31 35 35 35 31 27 27 31 31 31 27 27 27 27 31 31 31 31 31 31 31 27 27 31 35 35 35 31 22 15 0 0 0 0 0 15 27 31 47 52 55 55 55 55 55 55 55 55 55 57 57 57 59 59 61 67 73 79 79
88 88 87 85 81 76 74 71 65 61 61 61 61 59 57 59 61 69 69 69 67 63 61 61 63 71 73 73 69 65 63 71 73 76 76 73 73 73 73 67 67 67 69 69 67 67 69 67 67 71 71 65 67 67 65 63 61 59 61 61 63 63 69 69 67 71 71 67 63 61 59 61 63 63 61 61 59 61 63 61 61 59 57 57 57 59 61 63 59 59 57 57 57 57 59 61 65 63 61 59 59 61 59 57 57 55 55 55 55 55 57 59 61 61 59 57 57 55 57 57 59 59 59 59 59 57 57 55 55 55 52 52 52 52 55 55 55 55 55 55 55 52 50 47 47 47 47 45 45 45 42 39 39 45 50 55 55 57 57 57 52 45 39 35 35 31 27 27 35 42 45 45 42 42 42 42 39 35 35 39 42 42 39 39 39 42 42 42 42 39 35 27 27 27 27 31 35 35 39 39 35 31 27 27 31 31 31 31 31 31 31 31 31 31 35 39 39 35 27 22 22 0 0 0 0 0 15 22 27 42 50 55 55 55 57 57 57 57 55 55 55 55 55 57 59 61 67 71 76 78
88 91 91 82 79 81 78 73 69 65 63 63 61 59 59 61 63 69 69 67 67 63 61 61 65 73 71 67 71 69 71 73 78 81 81 74 71 71 67 67 67 71 71 71 73 73 73 71 69 69 67 67 71 71 71 65 63 61 61 59 59 59 63 67 67 67 67 65 61 59 59 61 63 61 59 59 61 63 65 63 63 59 59 59 59 61 61 61 61 59 57 57 57 57 57 59 63 69 69 63 61 61 61 59 59 57 57 57 57 59 59 61 59 59 57 55 55 52 55 55 55 57 57 57 57 57 55 55 55 55 52 52 50 52 55 55 55 55 52 52 52 50 47 45 45 42 42 39 42 45 45 42 39 42 50 52 55 55 55 52 47 42 39 39 39 35 35 35 39 42 45 45 45 42 45 47 50 47 47 47 50 50 45 42 42 42 45 45 45 45 45 42 39 39 39 35 39 39 39 35 35 35 31 27 22 31 31 27 27 22 27 31 31 31 31 31 31 27 27 27 22 15 0 0 0 15 15 22 22 35 42 47 50 52 55 57 59 57 55 52 52 52 55 57 59 61 65 71 73 74
88 91 91 85 79 79 79 74 69 65 61 61 61 61 61 61 63 67 69 69 65 63 61 63 69 73 73 73 71 73 74 87 87 76 73 71 67 69 73 73 73 78 79 79 82 82 82 78 73 71 69 67 67 67 67 67 65 63 61 57 57 57 61 63 65 65 63 61 59 59 61 63 61 61 59 59 61 63 63 63 63 61 63 71 71 67 67 61 59 59 59 59 61 61 61 63 69 69 69 67 65 63 61 61 61 59 57 57 57 59 59 59 57 57 55 52 52 50 50 52 52 55 57 57 57 55 55 55 52 50 50 50 52 52 55 55 55 55 55 52 52 52 50 45 42 42 42 39 39 42 45 45 42 39 45 50 52 52 52 50 45 42 42 42 42 39 39 39 42 42 45 42 39 39 45 50 52 52 52 52 52 52 47 42 42 45 47 47 50 52 52 52 50 50 50 47 45 42 39 35 35 35 35 31 27 27 31 27 22 22 22 22 27 31 31 31 31 27 27 27 27 15 0 15 15 22 27 39 39 42 45 45 45 47 52 52 55 52 47 45 47 50 52 57 59 69 69 69 71 71
88 90 90 87 76 76 81 74 71 63 59 61 61 63 63 63 63 65 69 69 69 63 63 71 73 73 73 71 71 74 82 84 74 73 73 73 78 78 84 84 82 82 82 76 73 73 73 76 78 74 73 73 73 73 71 71 71 63 61 57 57 57 57 61 63 63 61 61 61 59 59 59 59 59 59 61 63 65 65 65 65 65 71 73 73 67 67 63 61 59 59 59 61 63 65 65 67 65 65 63 63 61 59 59 61 59 57 55 55 57 55 55 55 55 55 52 50 50 50 52 55 57 57 57 55 55 52 52 50 47 47 50 52 52 55 55 57 57 55 55 55 52 52 45 42 42 42 42 42 39 42 42 39 39 39 45 50 52 50 47 42 45 45 45 42 35 35 35 39 42 42 39 35 35 42 47 52 55 55 55 52 52 47 42 45 47 52 52 52 52 52 52 52 55 55 55 52 50 45 42 39 39 39 35 35 35 35 35 27 22 15 15 15 22 27 31 31 35 31 27 22 15 22 22 31 31 35 45 50 50 50 45 45 45 50 50 50 45 42 39 39 42 45 52 59 69 69 67 67 73
88 88 87 82 74 74 78 74 67 65 61 61 63 65 67 69 69 67 67 69 69 69 67 73 74 73 71 71 84 84 74 73 73 81 88 88 87 81 81 79 78 73 73 71 69 67 69 67 71 71 73 78 84 84 79 79 74 71 63 59 59 57 57 59 63 65 63 61 61 59 59 57 57 59 61 63 63 63 65 65 69 71 71 73 73 71 71 71 71 71 63 59 59 59 61 61 61 61 61 61 61 61 59 59 59 59 59 57 55 55 55 55 55 55 55 52 52 52 52 55 57 59 57 57 55 52 52 50 45 47 47 50 50 50 52 55 57 57 57 57 57 55 52 47 45 45 45 45 42 42 39 39 39 39 42 45 47 50 50 47 45 45 45 42 35 31 31 35 42 42 42 42 39 39 42 50 52 52 55 55 52 52 52 52 55 55 57 57 55 52 52 52 52 52 55 52 52 50 45 42 39 39 39 39 42 42 45 39 31 27 27 27 27 27 27 27 31 31 31 27 15 15 22 31 35 35 39 42 50 50 50 50 47 47 47 47 47 45 39 35 39 39 42 50 57 63 65 65 61 69
88 88 84 76 73 73 76 74 71 69 65 65 63 65 65 65 65 61 65 69 69 69 71 73 73 67 67 78 84 78 73 81 91 91 85 87 87 79 78 76 71 71 67 63 61 59 63 69 69 71 73 81 88 88 85 85 84 73 71 71 63 61 61 61 63 63 61 61 61 61 61 59 59 61 63 63 61 61 63 69 67 73 73 73 73 73 73 73 73 71 69 69 69 69 67 59 59 59 61 61 63 61 59 59 61 69 69 59 57 55 57 57 55 55 52 52 52 52 52 55 55 55 55 55 52 52 52 47 45 45 50 50 50 50 52 52 55 55 57 57 57 55 55 52 50 47 45 45 42 42 39 39 39 42 47 47 50 50 47 47 47 47 47 42 35 35 35 35 42 45 45 42 39 42 45 47 50 50 52 52 52 55 55 57 59 59 59 57 55 52 52 50 50 50 50 47 45 42 42 42 42 42 39 39 42 45 42 39 35 31 31 35 35 31 27 27 22 22 27 22 22 15 15 22 27 31 42 42 47 50 52 52 52 50 50 47 45 42 39 39 39 39 45 50 55 59 61 61 59 65
88 88 81 73 73 73 74 73 69 69 67 65 65 63 63 61 59 59 61 65 67 67 73 74 73 71 74 79 81 79 84 91 88 85 85 85 82 78 73 67 67 61 59 59 61 71 73 73 74 74 78 84 88 85 78 78 76 73 71 71 69 63 63 63 63 61 61 63 63 65 63 63 63 65 69 69 61 61 69 69 67 71 73 78 78 74 74 73 73 71 71 71 69 67 63 59 57 59 59 59 59 61 61 61 63 69 69 59 55 55 55 55 55 52 52 52 52 52 55 55 55 52 52 52 52 52 52 50 47 50 52 52 52 52 52 52 52 55 55 57 57 57 57 55 52 50 45 39 39 42 42 42 42 42 47 50 50 47 47 47 47 47 45 42 42 39 35 35 39 42 45 42 39 39 42 42 45 45 50 52 52 55 55 57 57 57 57 55 52 50 50 50 47 45 42 35 35 39 42 47 47 45 42 42 45 47 50 45 42 35 31 35 35 31 27 22 15 15 22 22 22 15 15 15 22 31 35 42 42 50 52 55 55 52 50 45 45 42 39 39 39 42 45 50 55 59 61 63 61 67
81 81 73 71 71 73 73 67 69 65 65 63 63 63 63 61 59 59 61 63 67 71 74 74 71 73 84 87 87 81 79 79 79 84 90 90 76 73 67 67 63 63 63 73 73 78 81 82 82 76 76 74 73 71 71 71 71 67 67 67 69 65 63 65 69 69 65 65 69 69 65 63 65 67 67 69 63 63 69 69 67 67 71 74 78 76 74 74 73 71 71 71 69 65 59 59 59 59 59 59 59 61 61 63 63 63 61 57 52 52 52 52 52 50 50 50 52 55 55 55 52 52 50 52 52 55 55 52 52 52 52 55 55 55 55 52 52 52 55 57 59 57 57 55 52 50 45 42 39 45 47 45 42 42 45 50 47 47 47 47 47 45 45 42 42 39 39 39 39 42 45 45 45 42 42 42 45 47 50 52 55 52 55 55 55 55 55 52 50 50 47 47 45 45 42 39 39 42 45 50 47 45 42 42 45 50 52 52 47 39 35 31 31 31 27 22 27 27 27 27 27 27 27 31 31 39 39 39 35 42 47 52 52 50 47 47 47 45 45 45 45 47 50 52 55 57 61 63 63 67
78 76 71 69 69 71 71 67 63 61 59 59 61 63 69 69 63 61 63 69 71 73 73 67 67 74 84 87 85 76 73 73 78 88 90 85 73 67 67 65 69 73 74 79 82 82 81 79 74 73 71 71 71 67 67 67 71 71 67 65 65 63 63 65 67 67 67 67 69 69 65 65 63 65 65 69 69 65 67 65 61 59 65 67 73 74 74 73 71 71 73 71 67 63 59 59 61 63 69 69 63 65 65 63 61 59 57 55 52 52 50 47 47 50 47 50 47 52 52 55 52 50 50 52 55 55 57 55 55 55 55 55 55 55 55 55 55 55 55 57 57 57 57 55 55 52 50 47 47 50 47 45 45 45 47 47 47 47 45 45 42 42 42 42 39 35 39 42 45 47 50 50 47 45 45 47 50 52 52 52 52 52 52 52 52 55 55 55 52 47 45 45 45 42 45 45 47 47 47 47 47 45 42 39 45 50 52 52 50 42 39 35 31 31 31 31 31 31 31 31 31 31 31 31 39 42 45 42 39 42 45 50 50 47 45 47 47 47 47 47 50 50 50 52 52 55 59 61 63 67
78 76 71 69 73 73 71 69 63 59 59 59 59 63 69 67 63 63 69 67 71 73 73 67 73 81 82 85 81 73 73 73 78 87 85 76 71 67 65 71 73 79 88 90 90 76 71 71 71 74 74 73 73 74 74 73 73 73 67 69 69 69 69 65 63 65 65 65 67 69 67 65 63 61 63 69 69 67 65 61 61 59 61 65 67 71 71 67 67 67 67 69 65 61 61 63 63 65 67 69 67 67 65 63 59 57 55 52 52 50 47 45 47 47 47 47 47 47 50 50 50 47 50 52 55 57 57 57 55 55 55 55 57 57 57 55 55 57 57 55 55 55 57 57 57 55 52 52 50 50 47 45 42 45 47 47 45 42 42 39 39 39 42 42 39 39 39 42 45 50 50 52 50 47 45 50 52 55 52 52 50 50 50 50 52 52 55 55 52 50 45 45 45 47 50 50 50 50 50 47 45 42 39 42 47 50 50 50 47 45 39 39 35 35 31 31 35 35 39 31 27 22 27 27 35 39 45 45 47 47 47 50 47 47 45 45 45 45 47 47 50 52 50 50 50 52 57 59 63 67
78 73 71 71 73 71 69 69 69 69 61 61 61 63 69 65 63 63 69 69 71 73 73 73 79 81 82 85 81 73 73 76 82 85 78 71 69 65 73 81 85 95 98 97 84 73 73 78 93 93 82 78 82 82 81 74 73 71 73 74 74 74 74 73 71 71 65 65 65 65 65 63 63 61 63 69 67 65 63 61 61 65 69 69 65 65 67 67 65 65 65 61 61 59 59 61 61 61 63 63 63 63 61 59 57 55 50 47 47 47 45 45 47 47 47 47 50 50 50 47 50 52 55 55 55 57 57 57 57 57 55 55 55 57 57 57 57 57 57 55 55 55 55 57 57 55 52 52 52 50 45 42 42 45 45 45 42 39 39 39 42 42 42 42 42 42 42 45 47 50 50 50 50 47 47 50 52 52 50 47 47 47 47 50 52 55 55 55 52 50 45 47 47 50 52 52 52 52 52 50 47 45 45 50 52 52 52 50 47 42 42 42 42 39 35 31 35 35 35 31 27 15 22 27 35 35 42 45 47 47 45 47 47 47 45 45 45 47 52 52 52 52 50 50 47 52 55 59 61 67
76 71 71 71 71 69 67 69 69 69 69 69 65 69 65 65 63 63 65 67 73 73 73 74 81 79 81 84 82 78 76 82 85 81 73 71 71 76 90 94 100 100 97 90 82 78 81 84 88 82 82 87 87 87 73 73 74 87 87 87 82 84 87 87 74 71 69 69 65 63 61 59 59 61 61 63 63 61 61 61 63 63 65 65 63 63 63 63 61 59 59 59 59 57 57 59 59 59 59 57 57 57 55 55 52 50 47 45 47 45 45 45 45 45 47 47 50 52 52 52 55 55 57 57 57 57 57 57 57 57 57 57 57 57 57 57 57 57 55 55 55 55 57 57 57 55 52 52 52 52 47 47 45 47 45 42 39 39 39 42 42 42 42 42 42 42 42 45 45 47 47 50 47 45 45 47 47 47 47 47 47 47 50 52 55 55 55 55 52 50 47 45 45 47 52 50 50 50 50 50 50 50 52 52 55 55 55 52 50 47 45 45 39 35 35 35 31 31 31 27 22 15 22 27 31 35 39 39 39 39 42 42 47 50 50 50 50 50 52 55 52 52 52 52 50 52 55 59 61 67
73 67 67 67 71 69 65 67 67 67 71 71 67 63 61 61 61 61 61 65 73 73 73 79 81 79 84 84 84 81 82 85 84 78 74 78 88 88 95 117 117 97 79 74 73 73 73 73 76 87 94 94 88 79 79 90 91 91 79 79 88 91 91 82 73 67 67 71 71 69 61 59 59 71 73 74 84 87 87 87 78 73 73 71 61 59 57 57 57 55 55 57 57 55 55 57 57 57 57 55 55 52 50 47 47 45 45 45 45 45 45 45 45 45 47 47 50 52 52 55 55 57 57 57 59 57 59 59 59 57 57 57 57 59 59 59 57 57 55 55 55 57 57 57 57 55 55 52 52 52 52 52 50 50 47 45 39 39 39 42 42 45 45 45 45 45 42 45 45 50 47 47 45 42 42 39 42 42 45 47 47 50 52 55 55 55 55 55 55 52 47 42 42 42 50 50 50 50 50 50 52 52 52 52 52 52 55 55 52 50 45 42 39 35 35 39 39 35 27 27 27 27 27 27 35 39 39 35 35 35 42 45 50 52 52 52 50 47 50 52 52 52 52 55 55 55 55 59 63 69
69 67 67 67 69 69 69 69 69 69 69 71 63 59 59 59 59 59 61 71 73 71 71 79 78 78 82 82 81 82 85 85 84 81 88 93 93 99 121 121 111 79 71 71 67 69 71 78 85 94 94 90 88 93 94 94 94 76 76 90 95 95 78 71 67 67 71 73 73 71 71 87 109 117 118 128 134 134 130 126 121 110 104 95 84 73 71 59 55 55 55 55 55 55 55 55 55 55 55 55 52 50 50 47 45 45 45 47 45 45 47 45 45 45 47 50 52 52 52 55 57 57 59 59 59 59 61 59 59 57 57 57 57 59 59 59 57 57 55 55 55 55 55 55 55 55 52 52 52 52 52 52 52 52 52 50 47 45 45 47 47 50 50 50 47 47 47 50 52 52 52 50 47 45 42 39 42 42 47 50 52 52 55 57 57 55 55 57 55 52 47 42 45 45 50 50 50 50 50 52 52 52 50 45 45 47 50 50 50 47 45 42 39 39 35 42 42 39 35 31 31 35 39 42 45 45 47 45 39 39 42 45 45 47 50 50 50 45 45 47 47 50 52 55 55 55 57 61 63 65
65 63 63 63 67 69 69 71 71 67 69 65 65 69 67 61 59 59 65 73 73 71 73 79 76 76 81 81 81 82 91 91 91 94 94 93 105 124 124 107 88 73 69 65 69 73 78 87 94 94 90 88 93 93 94 94 74 74 93 100 100 79 71 67 69 73 78 78 73 78 104 130 139 141 141 145 149 149 144 139 135 128 124 121 110 103 95 79 73 59 57 55 55 55 52 55 55 55 55 52 52 52 50 47 45 45 45 47 50 50 47 42 45 47 47 50 50 52 52 52 55 57 57 59 59 59 61 59 59 57 57 57 57 59 59 59 57 55 55 55 55 55 52 52 52 52 52 52 52 52 55 55 55 55 55 52 52 50 52 52 52 52 52 52 50 50 50 52 52 52 52 52 50 47 45 45 47 47 50 52 55 55 55 55 55 55 55 55 55 52 50 47 50 50 50 50 50 47 47 50 50 47 45 39 42 45 50 50 45 45 42 42 39 35 35 42 47 47 45 35 35 39 42 47 50 50 50 47 45 42 42 42 39 42 45 50 50 47 47 47 47 47 50 52 55 57 59 59 63 61
59 59 59 61 63 67 69 69 71 67 63 63 63 67 69 69 63 63 69 73 73 73 78 76 74 74 82 84 81 88 94 94 94 95 97 108 124 123 103 79 73 71 67 71 73 78 87 93 91 90 98 98 90 90 94 79 74 90 107 107 82 71 67 71 76 82 82 76 102 127 135 142 150 152 153 153 154 154 153 152 148 141 136 131 124 121 117 109 95 84 73 71 57 55 52 55 55 55 55 55 52 52 50 47 47 42 42 45 47 47 45 45 47 47 50 47 47 50 52 52 55 55 57 59 59 59 59 57 57 55 55 57 59 59 59 57 55 55 55 55 55 55 52 50 52 52 52 55 52 52 55 55 57 57 55 55 52 52 52 52 55 55 55 52 47 47 50 52 50 47 50 50 50 50 52 52 52 52 50 50 52 52 52 52 52 55 55 55 55 55 52 50 50 52 52 52 50 47 45 45 47 42 39 35 42 45 50 50 47 47 45 42 39 31 39 45 50 52 50 45 42 39 42 47 50 50 50 45 45 45 47 45 42 42 47 50 52 52 52 50 52 52 52 52 52 55 59 59 61 59
59 59 69 69 71 71 69 71 71 65 61 61 63 65 67 67 67 67 71 73 73 76 74 73 73 74 76 79 84 90 94 91 90 90 95 104 108 93 79 73 71 69 69 73 76 85 93 93 90 91 93 90 90 93 87 74 82 109 109 90 71 67 73 79 91 91 76 109 134 142 147 149 152 153 153 154 155 156 155 153 151 148 144 137 131 127 123 121 115 103 95 93 84 73 59 57 57 57 55 55 52 50 50 47 47 47 45 47 45 47 47 47 50 50 50 50 52 52 52 55 55 55 57 59 59 59 57 55 55 55 57 57 59 59 57 57 57 55 55 52 55 52 52 50 50 52 52 52 52 52 52 55 55 55 55 52 52 52 52 52 55 52 52 50 45 42 45 50 50 52 52 52 52 55 57 57 55 52 47 47 47 47 50 52 55 55 55 52 55 52 52 50 52 52 52 52 52 50 47 45 45 42 39 39 39 42 45 47 50 50 47 42 39 35 42 50 50 50 47 45 39 35 39 45 47 47 47 47 50 52 52 50 47 47 50 50 52 50 50 52 52 55 52 50 50 52 55 59 61 61
59 63 69 71 73 73 73 71 67 67 63 63 63 65 65 65 65 67 69 67 71 76 73 73 73 76 78 81 88 93 93 82 82 91 91 79 79 79 74 71 71 71 78 81 88 102 102 90 85 82 76 76 94 94 74 78 104 104 90 73 67 71 87 94 94 79 100 135 145 147 151 153 154 155 155 156 157 157 155 153 151 149 146 141 134 130 127 125 122 117 109 109 105 95 87 74 73 59 57 55 52 47 50 50 50 50 45 47 47 52 50 50 50 50 50 50 52 52 52 52 55 55 57 57 57 57 57 55 55 55 57 57 57 59 59 59 57 55 52 52 55 52 52 47 50 52 52 52 52 52 52 52 52 52 55 52 52 52 52 52 55 52 52 50 47 47 47 52 52 55 55 55 57 57 57 59 55 52 50 47 47 50 52 52 55 55 55 55 55 55 52 52 52 52 52 52 52 52 52 50 52 47 45 39 42 45 47 50 50 50 45 42 39 42 47 52 50 50 47 42 39 35 39 42 45 45 47 50 52 52 52 50 47 47 47 47 47 47 45 52 55 57 57 55 50 50 55 57 61 61
59 61 65 69 73 73 71 69 69 69 71 71 65 65 63 65 65 65 65 67 71 73 71 67 67 73 78 87 90 93 87 82 85 91 82 79 79 76 73 69 69 78 88 94 107 107 90 74 73 73 73 97 97 76 74 95 104 88 71 67 67 74 102 102 85 95 130 141 146 146 149 153 154 154 156 157 157 157 156 153 153 151 146 141 137 135 134 131 128 123 119 118 118 112 103 97 93 81 78 73 57 50 50 52 52 50 47 47 50 52 55 55 55 55 52 52 52 52 52 52 55 55 55 55 55 55 55 55 55 55 55 55 57 57 59 59 57 57 52 52 55 55 52 50 50 52 52 52 52 52 52 52 55 55 55 55 55 52 52 55 55 52 52 52 50 52 50 55 55 57 57 55 55 52 55 57 55 55 50 50 50 52 55 55 55 55 57 57 57 57 57 57 57 55 55 52 55 55 55 55 55 50 47 42 45 47 50 52 50 47 45 45 45 47 50 50 50 47 47 45 42 39 39 42 42 42 47 47 52 52 50 50 47 47 47 47 47 47 47 52 55 61 59 57 52 50 55 57 61 61
61 61 63 67 71 73 73 71 69 71 71 71 65 63 65 65 65 63 65 67 71 71 67 67 67 67 74 84 87 90 82 82 97 97 73 73 79 73 71 67 71 78 91 110 110 91 73 73 71 71 95 97 82 74 74 90 90 73 71 67 71 85 102 97 85 119 141 143 149 150 151 153 153 154 155 156 156 157 156 155 154 153 151 149 143 141 138 137 135 130 126 126 126 122 117 111 104 99 99 94 79 73 67 57 55 52 50 50 50 52 55 57 57 57 55 55 55 55 55 55 55 55 55 55 55 55 55 55 52 52 52 52 52 55 57 57 57 55 55 55 55 55 52 52 52 50 50 50 50 52 52 52 55 55 57 57 55 52 52 55 55 55 52 52 50 52 52 52 55 55 55 55 52 52 52 55 55 55 52 52 55 55 55 55 57 59 67 67 59 59 59 59 57 55 52 52 55 55 55 55 52 50 47 45 45 47 50 50 47 47 47 47 47 47 47 47 47 45 45 45 39 42 42 45 42 39 45 45 45 42 45 50 47 47 47 50 50 47 47 52 55 57 59 57 55 52 52 57 61 61
59 61 63 67 71 73 73 71 67 71 71 67 65 63 63 65 65 65 65 67 71 71 69 63 63 71 78 84 87 85 82 90 97 87 73 73 79 73 71 73 76 94 110 110 90 73 71 65 69 91 97 95 73 73 76 74 78 71 71 71 73 93 93 85 94 130 141 143 149 152 152 153 153 154 155 156 155 155 154 154 154 153 153 152 150 143 141 137 136 133 131 131 131 127 124 122 116 115 116 116 112 107 100 95 90 73 71 55 52 52 52 55 55 55 55 55 55 55 55 55 55 55 55 55 55 52 52 52 52 50 47 47 50 52 55 55 55 55 52 52 52 50 52 52 52 50 50 47 47 50 52 52 55 55 55 55 52 52 55 55 55 52 52 52 50 50 50 52 55 55 55 55 52 52 50 52 55 57 57 57 57 57 57 55 55 59 63 69 61 57 57 57 57 55 52 52 55 55 55 52 52 50 50 45 45 45 47 50 47 47 45 47 47 47 47 47 47 45 45 39 39 47 50 52 50 42 45 42 42 42 47 50 47 47 50 50 50 47 47 52 52 55 55 57 55 52 52 55 59 61
59 61 63 67 67 67 67 69 69 67 69 65 61 61 63 65 65 63 61 65 67 71 67 63 65 71 78 81 85 85 82 99 99 73 73 73 78 73 71 76 90 110 110 94 74 67 63 63 73 99 99 71 71 76 73 73 73 67 67 71 82 93 87 85 115 136 140 141 147 151 151 151 152 153 154 154 154 154 153 152 152 152 152 151 148 143 140 136 135 135 135 135 134 130 126 124 120 120 122 122 126 126 123 123 119 112 99 74 67 55 52 52 52 52 52 52 52 52 52 52 52 55 55 55 55 52 52 50 50 47 47 50 52 55 55 55 52 52 52 52 50 50 50 52 52 52 50 50 47 50 52 52 52 52 50 50 47 52 52 55 55 55 55 52 50 47 47 52 55 55 55 55 52 52 52 55 57 57 57 57 59 57 55 55 55 59 61 65 69 67 59 57 57 55 55 55 55 55 55 55 52 50 47 42 45 45 47 47 47 47 47 47 47 45 45 45 45 45 45 42 47 52 57 55 52 47 47 47 45 47 50 50 47 47 52 52 55 52 50 50 52 52 55 55 55 52 50 55 57 59
61 61 67 67 67 65 65 65 63 65 69 63 61 61 63 65 63 61 59 59 63 65 63 63 65 71 74 76 78 79 90 99 85 73 71 73 78 71 71 87 91 91 85 76 73 69 65 71 95 99 73 71 76 76 73 73 73 67 67 71 88 93 85 85 119 135 140 141 144 147 148 148 148 151 152 153 153 153 152 152 151 151 152 152 151 144 141 138 138 139 139 138 136 133 128 123 123 124 124 125 130 130 129 128 126 124 117 103 91 78 59 52 50 50 50 50 50 50 50 52 52 52 55 55 55 52 52 52 50 47 45 50 55 57 57 55 52 52 52 52 52 50 50 50 52 52 52 52 52 50 52 50 50 45 42 45 47 52 55 55 55 55 55 52 47 47 50 52 55 55 57 57 55 57 57 57 57 57 55 57 57 57 57 57 57 59 59 63 69 65 61 59 57 57 57 57 57 57 57 55 55 52 50 50 50 52 52 50 47 47 47 47 47 42 42 42 42 45 45 45 50 52 55 55 52 50 50 50 50 47 52 50 50 50 52 57 57 55 52 50 50 52 52 55 52 52 52 55 57 59
63 67 65 65 65 63 63 61 59 63 69 63 61 61 61 63 61 61 59 59 59 61 61 61 65 73 74 76 81 84 87 87 73 69 67 78 76 71 76 91 79 76 76 73 71 67 71 82 97 78 71 71 76 74 73 73 73 71 67 73 91 90 85 91 122 133 137 140 141 141 140 140 145 151 152 153 152 152 152 151 151 151 151 151 151 148 144 141 143 144 144 141 137 135 130 126 125 126 127 128 129 131 131 130 129 126 123 118 105 94 76 67 55 52 47 42 42 45 47 47 47 50 52 55 55 52 52 50 47 47 47 47 52 55 57 55 55 55 55 55 52 52 50 50 52 52 52 52 52 52 50 47 45 45 47 50 52 55 55 55 55 55 55 52 50 50 52 52 55 57 59 57 57 57 59 59 57 55 52 52 55 57 57 59 59 59 59 59 61 61 59 59 59 61 59 57 57 57 57 55 55 55 52 52 55 55 52 52 50 52 52 50 47 45 39 42 45 47 47 47 47 50 52 52 52 52 50 47 47 47 50 50 50 52 55 59 59 57 55 52 47 47 50 52 52 52 52 55 57 59
65 67 63 61 61 69 69 61 61 61 61 63 61 59 61 63 63 61 61 61 61 61 61 61 67 73 74 76 82 85 87 73 71 67 71 78 74 73 88 88 73 73 74 71 67 67 74 91 84 71 71 73 76 71 71 73 73 71 67 73 91 90 85 98 123 131 135 136 139 138 138 141 147 151 153 152 151 151 151 151 151 151 151 151 151 149 146 143 143 144 144 143 139 136 132 128 127 127 127 127 127 128 129 129 129 128 125 120 109 97 91 79 71 55 45 39 39 39 42 42 42 47 50 55 55 55 52 50 47 47 50 50 52 55 55 55 55 55 55 52 52 50 50 50 50 52 52 52 52 50 45 42 47 50 52 55 55 55 57 55 55 55 57 55 52 52 52 52 55 57 59 57 57 57 57 57 55 52 52 52 57 59 59 61 59 59 57 57 59 57 57 59 61 61 61 59 57 57 55 55 52 52 52 55 55 55 55 52 52 52 52 52 50 45 42 45 50 52 50 47 42 47 50 55 55 52 52 50 47 45 47 50 52 55 57 57 57 55 52 50 47 45 45 50 50 50 52 57 59 61
61 63 61 61 63 69 67 63 61 59 59 59 59 61 61 63 63 63 63 63 63 63 61 61 67 71 73 73 81 81 76 67 65 67 73 78 76 81 88 78 73 73 74 73 67 67 74 81 74 67 67 73 73 71 71 73 73 71 67 74 91 79 79 103 124 134 133 133 135 137 137 140 144 147 148 145 145 145 144 144 145 151 151 151 151 148 148 144 143 143 143 143 140 137 133 131 129 128 127 125 125 125 126 128 129 128 125 120 114 104 95 90 76 59 52 47 42 42 42 42 42 45 50 52 52 52 52 50 50 50 50 50 52 52 55 55 55 55 52 50 47 47 47 50 52 52 52 52 50 47 45 47 52 55 55 55 55 55 57 57 59 59 59 59 55 55 52 52 52 55 55 55 55 55 55 57 55 52 55 55 59 61 61 61 59 59 57 57 57 57 57 57 59 61 61 61 57 57 52 52 52 52 55 55 55 55 57 57 57 57 55 55 52 47 45 45 50 52 52 47 42 50 52 57 57 55 52 52 50 45 47 52 52 55 57 57 57 57 52 47 47 47 47 50 47 47 50 55 59 61
59 59 59 61 63 67 69 69 69 63 61 61 61 61 61 63 63 63 63 65 63 61 61 59 63 65 71 71 76 78 71 71 71 67 73 76 76 87 88 73 73 73 74 71 67 67 73 73 73 67 67 73 73 71 69 73 73 71 67 78 90 73 73 103 123 131 131 131 131 132 133 134 136 139 139 138 138 139 138 138 139 145 148 148 148 148 148 146 144 143 143 143 141 139 136 134 133 130 130 128 127 127 127 128 129 127 123 119 115 107 99 95 87 73 71 71 55 50 47 45 45 45 45 50 50 50 50 50 50 50 52 52 52 52 52 55 52 52 50 47 47 50 47 52 52 55 55 52 52 50 50 50 52 52 55 55 55 55 57 57 59 61 59 59 57 55 50 50 52 52 52 52 52 52 55 57 57 55 57 57 57 57 57 59 59 59 59 59 59 57 57 57 59 61 63 61 59 57 55 52 52 52 52 52 52 55 57 57 57 57 57 55 52 50 45 45 47 50 52 45 39 42 52 55 55 55 52 50 47 47 50 52 55 57 57 57 59 57 55 50 47 50 50 50 47 47 47 52 57 59
57 59 61 63 65 67 71 71 69 67 67 65 69 69 65 69 69 69 69 65 63 61 59 57 59 61 65 71 76 73 71 71 71 71 73 76 76 82 74 71 71 73 73 71 67 69 73 73 71 67 73 73 73 65 65 71 73 67 67 74 88 73 74 105 123 129 128 128 128 129 129 128 128 131 133 135 135 134 133 133 134 136 141 142 146 146 148 148 148 144 144 144 142 140 137 136 134 133 132 130 129 129 128 128 127 125 123 117 112 105 102 100 91 79 78 78 74 74 73 57 52 47 47 50 47 47 47 47 50 50 52 52 52 52 52 52 52 52 52 52 52 52 50 50 50 52 52 52 52 52 50 47 50 52 55 55 55 55 57 57 57 57 57 57 55 52 50 52 52 52 55 52 52 52 55 57 59 59 59 57 57 57 55 55 57 57 59 59 59 59 57 57 57 59 61 61 59 57 57 52 52 52 52 52 52 52 52 52 55 55 57 55 52 50 47 47 47 50 47 42 39 35 42 47 50 50 47 47 45 47 50 55 57 57 57 55 55 55 52 50 50 50 50 50 50 47 47 55 57 59
57 59 59 63 65 69 69 69 67 67 67 67 67 65 65 67 67 67 67 65 65 63 61 59 59 59 63 67 73 67 69 67 67 71 73 74 76 79 71 67 67 73 73 71 69 71 73 73 73 71 81 81 73 63 63 67 73 71 67 74 81 73 74 105 122 125 125 125 127 128 128 128 128 129 130 131 131 129 129 129 129 131 135 138 140 143 146 146 145 142 142 141 140 137 136 136 133 132 130 130 130 128 127 127 125 124 121 119 117 110 108 107 102 94 90 85 81 93 95 95 73 57 52 52 50 47 45 45 47 47 47 50 50 52 52 52 52 52 52 52 52 50 50 50 50 50 52 52 52 52 50 50 50 52 55 55 55 55 55 57 57 57 57 57 55 55 55 55 55 55 55 55 55 55 57 59 61 61 59 57 57 55 52 52 52 55 57 57 57 57 57 59 59 61 61 61 61 59 57 55 55 52 52 52 52 52 52 52 52 52 55 52 52 50 50 52 52 50 47 47 45 42 39 39 42 42 42 45 47 47 52 52 55 55 55 55 55 52 52 52 52 52 52 52 52 50 50 55 59 61
57 57 57 59 61 63 63 61 61 63 65 67 69 69 65 63 63 63 65 65 63 61 59 59 59 61 63 67 69 67 63 63 65 67 73 76 76 76 71 67 67 73 73 69 71 73 73 73 73 73 82 82 74 67 67 71 73 73 67 73 78 73 78 104 118 119 121 124 126 125 125 125 126 128 129 129 128 127 127 126 126 127 132 135 135 140 143 141 140 138 138 138 138 137 137 137 133 131 129 129 130 129 128 127 125 125 124 122 122 122 122 122 119 108 107 104 95 94 98 105 105 91 74 73 57 52 47 45 42 42 42 45 45 50 52 52 50 50 50 50 50 50 50 50 50 52 55 52 52 52 52 52 52 52 52 55 55 55 57 57 59 59 57 57 57 57 59 57 57 57 57 55 55 55 57 59 59 57 55 55 55 52 52 50 52 55 57 57 57 57 57 57 59 59 59 59 57 55 55 52 50 47 47 52 52 57 57 57 55 52 52 52 52 50 50 50 52 50 50 50 47 45 39 39 35 35 42 42 50 50 50 50 50 52 52 52 52 50 52 52 55 52 50 52 52 52 50 55 57 59
57 57 59 59 59 59 59 57 59 61 65 67 71 71 65 61 61 59 61 63 61 61 61 67 69 65 63 65 63 61 61 69 69 67 73 79 81 74 71 67 67 71 71 69 71 73 73 73 73 73 76 76 73 67 67 71 73 73 67 73 78 73 76 103 117 117 117 123 125 126 124 122 122 124 128 128 125 125 125 124 124 124 129 133 136 137 140 138 137 136 136 136 137 137 138 138 136 133 131 130 129 129 129 129 128 127 127 125 125 126 126 126 125 120 124 124 121 115 103 99 107 107 104 95 76 71 57 50 45 42 39 39 35 45 52 52 50 45 45 47 50 50 50 47 50 52 52 52 52 52 52 52 50 52 52 52 55 55 57 57 57 57 57 55 55 57 59 59 57 57 57 55 52 52 55 55 55 52 52 52 52 52 52 52 55 55 57 55 55 55 55 55 55 57 57 55 55 55 52 50 45 42 45 50 52 57 59 61 59 55 55 52 52 52 52 50 50 50 52 50 47 42 39 39 35 35 39 45 52 52 50 47 42 42 47 47 47 45 47 50 50 50 50 50 50 50 45 50 55 59
57 59 59 61 63 71 71 69 69 63 63 67 69 71 71 71 69 61 61 63 69 69 69 67 67 65 63 61 61 61 63 69 67 67 71 74 78 73 67 69 69 71 71 69 73 73 71 71 74 76 74 73 71 67 67 71 73 73 67 73 76 71 71 94 108 111 112 117 123 123 118 115 115 119 121 119 119 123 125 123 123 125 128 128 131 131 135 134 133 135 135 135 136 136 137 137 136 134 133 132 129 130 130 129 129 130 130 128 125 127 128 127 126 127 132 132 132 131 123 108 100 104 116 116 105 91 73 57 52 45 42 39 39 42 47 50 47 45 45 47 50 50 47 47 47 50 52 52 52 55 52 52 50 50 52 52 55 55 57 57 57 55 52 52 52 55 55 55 57 57 57 55 52 52 52 52 52 52 50 52 52 55 55 55 55 57 57 57 57 55 55 55 55 57 55 55 55 55 52 47 47 42 42 42 47 52 55 57 57 57 55 52 52 52 50 50 50 50 50 45 39 35 35 35 35 35 35 42 50 50 52 50 45 42 47 47 45 42 42 45 47 47 47 50 52 50 45 50 55 59
61 61 61 61 65 67 71 67 65 63 63 63 65 69 71 71 67 65 61 61 65 69 67 67 67 65 63 61 61 63 65 65 67 69 67 71 73 71 67 65 67 71 73 71 73 73 67 67 73 76 71 67 67 67 67 67 73 73 67 67 73 71 71 87 97 103 107 109 112 112 108 108 110 112 107 107 110 118 124 121 121 125 127 127 128 128 130 131 132 133 132 132 134 135 135 135 136 134 133 130 129 130 130 129 129 129 130 128 125 125 128 129 130 134 138 138 136 135 130 123 116 105 105 107 115 115 97 79 73 67 55 52 50 50 52 50 50 45 47 47 50 47 47 47 47 50 50 52 52 52 50 50 50 52 52 52 55 55 57 57 55 55 52 50 47 50 50 50 52 52 55 55 55 57 57 59 57 55 52 52 52 52 52 52 52 55 57 59 59 57 57 57 57 57 55 55 52 52 50 47 45 42 39 39 42 47 50 52 52 52 52 52 52 52 50 52 52 50 47 35 27 27 31 35 31 31 31 35 42 47 50 50 45 45 47 47 47 45 42 42 45 47 47 50 50 47 45 47 52 57
59 59 59 61 63 65 67 65 61 61 61 63 63 65 67 67 65 63 71 71 69 67 67 65 65 63 63 61 63 69 69 65 65 67 67 69 71 71 63 61 65 69 71 71 73 73 67 67 67 71 69 67 65 67 65 67 71 71 67 69 73 71 73 81 88 93 97 103 104 104 100 100 100 100 95 95 104 110 114 115 115 120 123 123 128 129 128 128 128 130 131 132 131 131 131 132 134 133 131 129 130 131 131 129 127 127 129 129 128 128 129 130 133 136 137 137 136 133 130 129 128 126 117 104 103 102 99 95 87 78 78 73 67 67 57 55 52 47 50 50 50 50 47 50 47 52 50 50 50 47 47 47 52 52 55 55 55 55 57 57 55 52 52 50 50 52 55 55 57 57 57 57 57 59 61 63 63 59 57 57 57 55 55 50 52 52 55 55 57 57 57 57 57 57 55 55 50 50 47 45 45 42 42 45 45 50 52 52 52 52 52 52 52 52 52 55 57 55 52 42 35 31 35 35 31 27 31 31 35 42 45 47 45 45 47 47 47 45 39 42 45 47 50 50 50 47 42 45 52 55
57 57 59 61 63 65 63 61 61 63 69 69 69 69 65 65 63 65 71 71 71 69 65 63 63 63 63 69 69 67 67 65 63 61 63 65 67 69 63 61 63 67 71 73 73 71 69 65 65 65 63 63 63 65 65 67 71 71 71 73 71 67 67 74 78 85 91 93 95 93 90 88 88 88 90 93 98 99 104 108 109 112 119 119 125 128 126 125 126 130 130 131 129 129 128 128 132 131 129 130 132 132 132 129 128 128 130 130 130 130 129 129 132 134 133 132 132 133 135 137 138 138 136 127 110 94 90 88 87 84 82 76 71 69 61 57 52 47 50 50 50 50 50 50 50 50 50 50 47 47 47 50 52 55 55 55 55 55 55 55 55 57 67 71 73 74 81 84 88 90 90 88 74 71 71 65 63 61 59 59 61 59 59 57 55 55 52 52 55 55 57 57 57 57 57 55 52 50 47 47 47 45 45 50 52 55 55 52 52 52 52 52 52 52 55 57 57 57 52 52 47 39 35 35 31 31 31 35 35 39 42 42 42 42 45 45 45 39 39 42 50 52 52 52 52 50 45 47 52 57
57 57 59 61 63 63 61 61 61 63 67 67 69 67 65 63 63 69 69 69 69 69 61 61 63 71 71 71 67 65 65 63 61 61 59 61 65 63 63 61 65 67 71 73 73 71 65 63 61 61 61 61 69 69 61 61 65 67 71 73 69 67 67 71 74 85 88 88 88 87 79 78 78 84 87 90 93 97 103 104 105 108 115 118 123 125 123 123 125 129 129 129 128 128 129 130 131 130 133 133 132 133 133 133 133 131 133 133 133 133 130 129 129 131 131 130 131 132 136 141 144 144 143 138 130 117 94 78 73 73 81 74 67 67 61 55 50 47 47 50 50 50 50 47 50 52 50 47 45 47 47 50 52 55 55 55 52 55 55 59 71 73 81 81 81 87 87 87 90 91 94 94 90 84 84 76 74 73 61 61 61 61 61 67 69 61 59 57 57 57 55 55 55 55 55 55 52 52 52 52 52 50 47 52 55 57 57 57 52 52 50 50 47 47 52 52 55 55 55 52 50 39 35 35 31 35 39 35 35 35 35 35 39 42 45 42 39 35 35 42 50 52 52 52 50 47 42 45 52 57
57 59 59 61 65 69 69 63 61 61 63 63 65 65 65 69 69 69 69 69 69 69 61 61 65 71 71 69 67 65 69 69 69 69 69 61 61 61 61 61 63 67 67 67 71 67 63 61 61 59 61 63 71 71 69 67 63 65 67 73 71 63 61 67 73 78 84 85 87 87 84 79 81 81 82 82 85 91 98 98 100 105 112 112 119 123 123 123 123 124 125 125 125 126 128 130 132 130 131 132 129 129 131 132 132 132 133 133 133 133 130 128 126 124 124 124 128 129 135 140 142 143 143 142 141 132 124 104 78 71 71 71 67 61 57 52 50 45 45 50 50 52 52 52 52 57 71 71 71 73 73 67 57 59 57 57 55 55 59 63 73 74 87 87 85 87 79 79 85 85 82 76 73 73 76 81 88 88 81 74 73 69 63 65 65 67 71 71 69 59 57 52 52 52 52 52 50 50 50 52 55 55 55 55 55 57 59 57 55 50 50 45 45 42 42 50 50 52 52 50 45 35 35 35 31 31 35 35 35 39 39 39 39 42 42 45 42 39 39 42 45 50 50 52 52 50 45 42 50 55
57 57 59 61 65 69 69 65 61 61 59 59 59 61 63 71 71 67 67 69 69 69 61 59 61 67 67 67 65 65 67 67 69 67 67 63 61 61 61 63 63 63 65 65 63 61 59 61 59 57 59 65 71 71 69 65 61 61 65 71 69 63 61 63 67 71 78 85 87 85 82 81 79 81 81 81 82 90 95 98 100 108 111 112 114 118 121 123 123 123 123 125 125 125 125 127 128 128 127 127 127 126 126 126 128 130 132 132 132 132 128 124 122 118 118 118 122 126 133 137 142 144 145 145 143 141 136 128 107 73 71 69 69 59 57 52 52 50 50 50 52 55 57 71 81 88 88 91 94 100 100 95 95 90 78 73 71 71 61 63 67 67 71 73 84 85 84 85 85 84 78 74 73 71 71 73 71 74 81 87 88 88 74 71 67 67 67 69 67 61 57 52 50 47 45 47 47 45 47 50 52 55 55 55 55 57 57 55 55 52 50 47 45 45 42 45 47 50 52 50 47 39 39 39 35 31 35 35 35 42 45 47 45 45 45 47 47 47 45 45 45 47 50 52 57 55 50 42 50 55
57 57 59 59 63 65 69 65 63 61 59 59 59 59 63 65 67 65 67 67 67 63 59 57 57 61 61 65 63 65 67 69 67 67 65 63 63 63 69 69 69 63 59 59 59 59 59 61 67 67 61 63 71 71 69 63 59 61 63 69 69 63 61 61 65 71 71 78 79 74 74 73 73 73 73 78 85 90 98 98 100 107 111 114 115 117 119 119 120 120 122 126 126 126 125 124 124 126 125 124 124 125 123 122 122 127 127 127 127 128 125 119 117 110 107 107 110 118 129 136 139 142 144 147 147 144 142 136 126 102 81 73 73 73 73 73 73 73 73 73 59 61 69 74 94 100 100 93 91 90 90 91 97 103 103 97 79 73 73 65 67 67 73 73 73 73 79 88 91 91 82 74 71 69 69 67 67 71 71 73 76 85 84 81 78 73 73 73 71 61 57 55 52 47 42 39 42 45 47 47 52 52 55 55 57 57 57 57 55 52 52 50 47 47 45 45 45 47 52 50 50 47 45 42 39 39 42 42 39 45 45 50 50 50 47 47 50 50 50 50 50 52 52 55 57 55 50 39 47 52
57 59 59 59 61 61 63 61 61 61 59 59 59 61 61 61 63 63 63 65 65 61 57 55 55 57 61 63 63 65 65 69 69 65 63 63 63 69 69 69 67 63 59 59 61 69 69 69 71 71 63 63 67 67 69 63 59 59 63 69 67 65 61 61 63 65 69 67 73 71 71 71 71 71 71 73 85 90 95 98 100 107 112 112 114 114 115 114 115 118 121 123 124 124 125 125 125 125 126 123 122 122 120 119 119 122 121 121 124 124 121 115 112 100 94 94 95 102 116 128 134 138 142 144 146 146 142 138 132 122 103 78 74 79 84 84 81 87 95 95 95 91 73 71 74 99 107 107 94 88 88 85 85 88 95 100 98 97 93 78 73 71 71 73 73 73 76 76 79 93 93 88 73 71 71 71 69 65 67 67 67 71 73 73 78 81 79 79 73 71 63 57 57 52 47 42 39 39 42 45 50 52 52 55 59 67 67 59 55 55 55 55 52 52 50 47 50 47 50 50 50 50 50 47 45 47 50 50 47 50 50 52 52 52 50 50 47 50 50 50 50 50 52 55 55 52 45 35 45 52
57 57 57 59 59 59 59 61 61 61 61 59 61 61 61 61 63 63 63 63 63 61 59 55 55 57 59 61 63 63 65 65 65 65 63 61 65 69 67 67 65 63 63 69 69 69 69 71 71 71 65 63 65 69 65 61 59 61 63 69 65 63 61 61 61 61 63 65 67 67 67 67 65 65 65 67 76 87 95 99 103 104 109 111 111 114 116 116 114 114 120 121 122 122 126 126 125 125 125 122 117 116 116 120 122 122 120 120 123 123 120 111 107 93 88 87 85 85 97 117 124 131 136 141 143 143 142 140 135 130 118 93 81 74 78 88 88 85 85 90 99 99 95 76 78 88 100 107 104 95 91 94 94 76 76 82 95 105 105 97 88 81 73 71 71 73 74 76 76 78 93 93 93 81 73 71 71 71 71 69 67 67 69 71 67 73 73 73 73 71 65 61 59 55 50 42 39 39 39 39 45 47 50 52 57 61 61 59 55 55 55 57 55 52 50 50 52 50 47 47 50 52 52 52 52 50 52 52 52 52 52 52 52 52 52 52 50 50 47 47 47 47 47 52 52 50 47 39 47 52
57 57 57 57 59 59 61 63 71 71 63 59 59 59 61 63 65 65 63 61 61 59 57 57 57 57 59 59 61 61 63 63 65 63 61 61 63 69 67 65 63 63 67 69 71 71 69 71 71 69 69 63 65 69 61 59 59 61 65 65 65 63 61 59 61 61 61 61 63 65 65 69 69 65 69 73 78 87 98 100 103 103 103 109 111 114 114 116 115 119 121 117 117 120 123 125 124 124 124 119 114 114 114 116 122 123 121 124 124 122 115 108 98 91 85 79 73 73 82 93 103 116 124 131 136 139 138 136 132 129 126 117 102 87 76 84 87 79 76 76 79 90 91 90 103 103 95 95 103 104 94 91 94 93 84 73 73 90 97 95 94 94 91 79 76 73 73 73 76 78 78 78 88 90 87 78 73 73 71 73 73 71 69 65 65 67 67 67 67 65 65 63 61 57 52 47 42 42 39 39 39 42 45 47 52 55 57 57 57 57 57 55 55 52 50 50 52 50 47 45 47 47 52 52 52 52 50 52 52 52 52 52 52 52 55 55 55 50 45 42 45 47 50 50 50 47 45 42 52 55
57 57 57 57 59 59 59 65 67 69 63 59 59 59 61 65 65 65 65 61 59 57 57 57 57 59 59 61 61 61 61 63 63 63 61 61 63 69 67 65 63 65 67 69 69 71 69 71 69 69 69 69 65 63 61 57 59 61 69 69 65 65 63 69 69 69 65 63 65 67 67 67 71 73 90 94 94 90 93 99 102 103 103 107 110 112 112 115 117 118 120 117 120 121 122 125 124 124 124 120 115 115 115 114 119 123 122 125 125 122 117 111 104 98 88 78 73 73 74 74 82 94 105 118 128 132 132 131 129 128 126 124 112 99 85 81 79 79 78 84 84 79 74 74 88 102 103 103 105 105 104 88 85 85 93 87 71 71 79 85 90 88 85 84 84 81 73 73 73 76 78 78 78 78 88 87 76 73 71 71 73 74 73 71 63 61 61 61 61 69 69 65 61 59 55 50 50 47 45 39 39 42 45 47 52 55 57 59 59 57 57 55 55 52 52 50 52 50 50 45 39 39 45 50 50 50 50 50 52 52 52 52 52 52 55 55 55 52 50 45 47 50 50 50 47 42 42 42 50 55
59 57 57 57 59 57 57 59 61 63 61 61 59 61 63 65 65 65 65 63 59 57 57 57 57 59 59 61 61 61 61 61 63 63 61 59 61 65 67 69 69 67 65 67 69 69 69 71 67 67 69 69 67 65 61 59 59 63 69 69 65 65 65 69 69 67 65 63 63 65 71 78 93 97 99 99 98 91 90 91 94 102 104 105 108 109 109 111 115 116 117 117 118 119 119 121 121 120 120 119 119 119 118 114 116 120 120 123 125 125 123 123 118 109 100 88 78 73 71 71 71 73 88 97 111 122 123 124 127 127 124 121 114 107 95 85 81 81 87 87 87 84 78 73 73 73 79 94 99 100 100 93 82 82 85 91 78 74 76 79 85 82 82 81 78 78 76 76 76 76 76 76 81 81 84 85 84 74 73 71 71 73 73 73 71 69 61 61 63 69 69 67 67 59 55 52 50 47 45 39 39 42 45 47 52 55 57 57 59 59 57 57 57 55 55 52 52 52 50 45 39 39 42 45 47 47 50 50 52 55 55 55 55 55 55 55 55 52 50 47 50 50 50 50 45 42 42 39 45 52
57 57 57 59 59 59 57 57 57 59 61 61 61 63 63 63 63 63 63 65 61 59 57 57 57 59 59 59 61 59 61 61 63 63 63 63 69 69 69 69 69 67 65 67 67 67 67 71 69 67 69 69 69 65 63 59 59 61 65 67 69 69 65 65 65 67 65 69 73 87 93 102 107 107 104 104 99 94 88 88 90 99 105 105 103 103 105 108 109 110 115 115 115 115 114 114 112 112 117 117 118 119 116 115 115 116 119 121 123 126 126 126 125 119 118 109 93 74 71 69 67 71 73 76 93 104 108 112 118 122 123 119 114 109 100 94 87 82 85 87 87 87 81 78 74 73 73 73 76 79 90 88 85 84 79 78 81 81 76 76 84 84 78 73 67 67 67 73 81 88 88 78 78 88 88 87 85 82 76 73 71 71 71 71 73 71 69 71 71 71 67 67 67 61 57 52 52 50 47 45 39 35 39 47 50 55 55 57 57 57 57 57 57 57 55 55 55 52 52 47 39 42 42 45 45 45 47 50 52 55 55 57 57 57 57 55 55 52 50 47 47 47 45 47 47 47 47 45 47 55
59 57 59 59 61 61 59 57 57 57 59 59 61 61 61 61 61 61 63 65 63 61 59 57 57 57 59 59 61 61 63 65 69 69 67 67 67 71 71 69 67 67 69 69 67 67 67 69 67 65 65 67 69 69 65 63 61 61 63 65 69 67 65 63 65 73 88 100 107 110 110 109 117 117 114 111 103 95 90 87 87 95 104 103 99 99 103 105 103 104 109 111 112 111 110 110 110 110 110 110 114 115 115 112 112 109 109 115 118 122 123 125 126 126 126 126 111 97 76 67 65 65 69 67 73 85 94 104 109 111 117 112 108 102 98 98 93 82 79 79 88 88 85 79 79 78 73 71 71 71 76 84 85 85 82 73 73 76 79 74 74 82 81 71 67 65 67 67 73 82 88 85 81 84 90 91 91 91 82 78 73 69 67 69 67 73 73 73 73 67 67 65 65 61 59 57 55 55 52 47 39 39 42 50 52 55 57 57 57 57 57 57 55 57 55 55 55 52 52 50 45 42 42 42 42 39 45 47 52 55 57 57 59 59 57 55 52 50 50 47 45 45 42 47 50 52 50 50 52 55
61 59 61 61 63 63 61 59 57 57 57 57 59 61 61 61 61 61 63 63 63 59 59 59 59 59 59 61 61 61 63 65 69 67 65 63 67 69 69 69 69 67 69 69 69 69 67 69 67 65 63 65 67 69 65 65 65 63 63 65 65 67 71 81 95 104 115 118 118 112 112 114 120 123 123 117 109 104 91 87 87 91 94 95 97 98 99 100 97 97 104 105 107 108 111 111 108 105 105 110 111 114 114 108 105 99 97 97 104 109 116 123 127 130 131 131 128 123 104 74 69 65 63 65 69 71 73 91 97 97 102 100 99 99 98 97 93 88 81 79 79 88 88 87 78 76 78 71 65 67 71 73 79 84 84 76 74 73 78 81 79 81 82 79 71 69 73 73 71 71 74 79 84 85 90 91 93 93 87 81 78 73 69 67 67 71 71 73 71 67 63 63 61 59 59 57 57 57 55 50 45 42 45 52 55 57 57 57 57 57 57 57 57 57 55 55 55 55 52 50 47 47 47 50 47 42 45 47 50 55 55 57 59 57 57 55 55 52 52 47 47 50 50 52 52 52 52 52 52 57
65 63 63 63 61 61 61 61 61 59 57 57 57 59 61 63 61 61 63 65 63 61 59 59 61 63 65 65 69 69 69 65 65 65 61 61 63 69 69 69 67 67 67 69 69 69 67 67 69 69 65 63 63 67 69 65 65 65 65 69 73 81 102 121 121 118 115 112 112 112 115 124 128 130 130 128 118 115 103 88 85 85 88 93 97 98 99 100 97 97 98 100 102 105 109 108 102 102 105 111 114 111 107 104 100 93 85 85 90 94 104 118 123 128 133 134 134 130 121 102 81 71 63 61 61 65 71 73 78 88 93 94 97 99 97 97 94 94 93 90 79 82 93 93 81 76 78 78 73 65 67 71 76 81 79 78 78 74 74 78 81 81 81 82 78 73 71 73 73 71 67 67 74 78 82 88 90 88 82 79 81 78 73 69 69 67 69 67 65 65 63 63 59 59 57 57 57 57 55 52 47 42 45 50 55 57 59 57 57 57 57 57 57 57 55 55 55 55 55 52 52 52 52 52 52 47 45 42 47 52 55 57 57 57 55 57 57 55 52 47 50 52 52 55 55 52 50 50 52 57
65 63 63 69 69 63 61 69 69 61 59 57 57 57 61 63 69 69 69 69 69 63 59 59 63 65 69 69 69 69 69 69 67 65 63 63 69 69 67 67 65 65 65 67 69 67 65 67 67 69 69 69 69 65 65 65 63 65 73 90 103 107 118 123 123 118 115 111 111 114 120 130 135 135 135 134 124 116 109 95 87 85 85 91 95 97 97 97 97 97 97 97 99 100 102 104 102 102 107 114 114 112 109 104 98 90 82 82 82 88 97 112 120 125 130 134 134 131 127 122 109 84 71 63 61 61 63 65 73 73 85 90 91 97 95 94 97 99 99 94 90 90 87 88 85 78 76 76 78 71 65 67 73 78 81 81 79 79 74 74 78 81 81 84 82 79 73 71 73 73 73 67 67 71 73 79 85 85 85 84 82 79 73 69 67 65 63 61 61 61 63 63 63 69 67 59 59 57 55 52 50 45 42 45 52 57 59 59 59 59 59 59 59 57 57 57 57 55 55 57 55 55 52 52 52 50 47 45 47 52 55 57 55 55 55 52 52 50 47 47 50 52 55 55 55 52 47 42 50 57
63 63 65 69 65 61 61 63 63 61 59 57 57 57 61 63 69 69 69 69 65 61 59 59 61 65 69 69 69 67 67 69 67 65 65 65 69 67 65 65 63 63 63 69 69 65 63 63 65 67 69 71 71 71 65 67 67 78 103 115 116 117 121 121 116 111 111 107 107 111 124 132 137 137 136 130 123 117 110 100 88 79 79 87 93 90 90 90 93 97 97 97 98 98 99 99 99 103 110 115 116 117 117 116 109 99 84 74 74 76 90 103 115 122 126 131 134 133 130 127 123 110 88 73 63 61 61 61 65 71 73 79 82 88 90 90 91 98 97 94 94 91 82 82 84 85 81 76 76 78 73 67 71 73 81 81 79 81 79 74 74 78 81 81 84 82 79 71 71 74 74 73 69 67 71 73 73 81 82 82 84 81 74 73 71 65 61 59 59 61 63 63 65 67 69 69 61 57 57 55 50 45 42 45 52 57 59 59 59 59 59 59 59 59 59 57 57 57 57 57 57 55 52 52 52 50 50 50 50 52 55 55 52 52 52 52 50 47 47 47 50 52 55 55 55 52 45 39 47 55
63 63 63 63 61 59 59 59 61 61 61 61 59 59 59 63 67 67 67 67 65 61 59 57 59 63 67 67 67 67 65 67 71 71 69 67 65 65 63 61 61 61 65 67 65 63 61 61 65 69 67 67 71 69 69 71 79 104 117 118 120 120 118 109 103 102 97 95 95 109 127 133 136 136 133 127 121 116 109 100 91 84 79 79 87 87 88 88 91 94 97 97 97 97 99 99 99 102 110 116 120 122 122 122 121 115 99 81 71 71 78 93 100 107 118 123 127 130 130 129 128 124 112 95 73 65 63 69 69 67 67 71 73 78 87 87 87 93 98 97 97 93 82 78 78 85 84 78 76 76 73 71 67 67 74 78 79 81 81 81 78 74 78 82 81 85 85 76 73 71 74 74 71 65 65 65 71 71 73 81 84 82 81 76 71 67 61 61 59 59 61 63 65 67 69 65 61 59 57 55 50 45 45 47 55 57 59 59 59 61 59 59 59 59 59 59 57 57 57 57 57 55 55 52 52 52 52 52 52 52 52 52 50 50 47 47 50 47 50 50 52 52 52 55 55 52 47 42 45 55
63 63 61 59 59 59 59 59 59 63 61 59 59 57 59 61 63 65 67 67 65 61 59 59 59 61 63 65 63 63 63 69 69 69 67 65 63 61 63 63 63 63 63 65 65 63 61 61 65 69 67 67 69 69 67 78 99 115 118 118 119 112 107 100 95 93 88 88 91 111 130 133 133 133 132 128 123 119 112 108 103 93 84 74 74 82 85 87 87 90 91 94 93 93 95 99 99 100 107 117 121 123 124 124 124 122 116 103 76 71 71 76 85 94 104 111 121 127 129 129 128 127 123 112 93 73 67 65 69 67 71 67 67 73 81 84 84 88 93 95 97 94 87 82 78 78 81 82 74 73 73 71 67 69 71 76 82 84 84 84 82 74 74 82 82 82 81 81 76 71 71 73 78 78 71 63 63 67 73 78 84 84 84 79 73 67 63 61 59 61 61 63 63 65 65 65 63 61 59 55 52 50 50 47 52 57 59 59 61 61 61 61 59 59 57 57 57 57 57 57 57 55 55 52 52 52 55 52 52 52 50 47 47 47 47 47 47 47 50 50 52 50 52 55 55 52 47 45 42 52
61 61 61 59 59 61 61 61 61 59 59 57 59 59 59 61 61 63 65 67 67 65 61 59 59 61 61 63 63 63 69 71 71 69 67 63 61 61 61 61 63 63 63 65 71 71 65 63 69 69 67 65 65 67 73 102 111 114 112 108 97 94 94 95 91 82 79 79 100 124 132 133 133 131 130 128 128 128 123 114 109 104 93 78 73 73 78 82 82 85 90 94 91 91 91 97 100 102 103 110 116 119 124 124 124 125 124 123 107 84 73 71 73 82 94 103 111 121 127 128 128 128 127 123 112 95 73 67 65 67 71 71 67 71 73 76 82 87 91 94 97 95 94 91 81 78 79 82 76 73 73 73 69 65 69 73 81 85 85 84 81 78 78 78 84 84 81 78 79 76 73 73 78 78 78 73 69 67 71 74 78 84 81 78 73 67 63 59 59 63 69 69 69 69 65 65 65 63 61 57 55 52 50 50 52 57 61 67 69 63 63 63 59 59 57 57 57 57 55 57 57 55 52 52 52 52 55 52 52 52 50 47 50 50 52 50 50 45 50 52 52 52 52 52 52 52 50 47 50 55
59 61 61 63 65 63 63 61 59 59 59 59 59 61 65 71 71 65 65 65 65 63 61 59 59 61 65 69 69 69 67 71 71 67 65 63 63 61 63 61 61 61 63 65 69 67 65 65 69 67 65 63 63 67 79 102 104 100 97 94 82 82 87 90 91 84 79 91 122 132 133 133 132 129 128 128 132 132 128 118 114 111 102 88 74 73 73 81 84 82 88 94 90 90 93 99 100 102 102 102 107 112 119 123 124 126 130 130 130 119 97 73 71 73 85 95 100 110 120 123 125 128 128 125 121 110 91 73 63 65 69 71 71 71 71 71 73 84 88 91 94 95 93 93 87 78 81 81 78 73 73 73 71 65 65 71 78 81 82 79 78 81 81 79 78 88 88 79 81 81 74 73 76 82 82 79 73 69 69 67 73 78 78 74 73 67 63 61 63 69 69 69 69 69 67 67 65 65 61 57 57 55 52 52 52 57 59 63 61 61 61 63 61 59 57 57 57 57 57 57 57 55 55 52 55 55 55 55 55 55 55 52 52 52 52 52 52 50 52 55 55 55 55 52 52 52 52 52 52 55
59 59 61 63 63 63 61 61 61 61 61 63 65 69 69 69 69 71 67 65 65 63 61 59 61 63 67 69 69 69 67 71 69 67 69 69 65 65 65 65 63 63 63 65 65 65 65 65 69 67 65 65 65 67 82 95 95 93 90 87 79 79 85 91 91 90 100 119 130 130 130 127 127 127 128 132 138 138 135 127 120 112 105 99 84 74 73 73 73 79 87 93 91 90 93 98 95 95 98 100 102 105 109 118 122 124 129 133 132 131 121 94 74 71 73 79 91 102 110 115 121 125 127 125 123 117 102 88 73 65 65 69 73 73 73 67 67 73 78 85 90 91 91 93 93 76 76 81 78 73 73 73 71 65 61 67 76 78 76 73 73 78 81 81 78 82 88 87 81 81 81 73 73 78 84 82 81 73 67 67 71 73 74 74 73 67 61 61 63 67 71 71 67 67 67 69 69 65 61 59 57 55 52 52 55 57 57 59 61 61 61 61 61 61 61 61 59 59 57 57 57 55 55 57 57 55 55 52 55 55 57 55 55 55 55 55 52 52 52 55 55 57 55 55 52 52 52 52 52 55
59 59 59 61 61 59 59 61 61 63 65 65 69 69 69 67 67 71 67 65 63 61 61 61 61 63 65 69 69 67 67 67 67 67 69 67 63 65 63 63 63 63 65 63 63 61 63 69 69 67 65 65 67 71 84 95 93 87 85 79 79 79 84 88 90 110 127 130 130 128 125 122 122 125 129 138 141 141 141 131 122 112 108 104 94 85 79 73 73 76 82 88 90 91 94 91 85 85 90 91 94 97 100 111 112 118 124 129 133 133 132 123 107 81 71 71 76 90 94 107 114 117 119 118 118 112 107 104 88 71 65 65 67 67 67 71 71 71 71 73 79 82 85 88 90 79 76 78 78 71 67 67 67 63 63 67 73 73 74 73 73 76 79 81 81 81 84 87 84 84 82 76 73 73 76 84 82 76 73 71 69 67 71 73 73 71 61 61 61 65 69 67 67 65 63 63 63 63 59 57 57 55 52 52 55 57 57 59 61 61 61 61 61 63 67 69 69 61 59 57 57 57 57 57 57 55 55 52 52 55 55 55 55 55 55 55 52 52 52 52 55 55 55 55 52 52 52 52 52 55
63 71 71 61 59 61 59 59 61 61 63 65 67 71 71 67 67 69 67 63 61 61 61 61 63 63 65 69 69 69 67 65 67 69 69 63 61 61 61 61 61 65 65 65 63 63 65 69 69 65 65 65 65 71 79 94 91 82 79 84 82 81 82 85 104 126 130 129 127 124 122 118 118 125 131 141 141 141 136 130 124 119 114 108 99 90 84 76 73 73 78 85 87 88 91 88 79 79 82 82 85 90 93 97 104 108 117 124 130 134 134 134 126 103 74 71 73 74 82 94 102 105 109 108 108 108 107 107 104 87 73 63 63 65 67 71 71 69 67 69 71 73 76 79 84 81 76 78 76 71 67 63 63 67 63 67 73 74 74 73 73 73 74 78 82 84 84 84 84 84 84 81 73 71 71 78 84 84 81 73 67 67 67 67 71 71 69 61 59 59 63 65 63 61 59 59 59 59 57 57 55 52 52 52 57 59 59 61 61 63 63 63 63 65 67 69 69 63 59 59 59 57 59 57 59 57 57 55 52 52 55 55 55 55 52 52 55 52 52 52 52 55 52 52 52 55 55 55 55 57
65 67 69 63 59 59 59 57 59 67 69 65 67 71 71 69 69 69 67 65 63 61 61 63 65 67 69 69 69 69 67 65 67 69 69 63 61 59 59 61 69 69 67 65 63 63 63 65 67 67 65 65 65 67 82 94 87 79 79 87 87 84 85 102 124 126 125 124 118 111 108 108 116 126 134 141 141 137 130 124 121 121 118 111 102 94 87 81 74 73 73 78 84 87 88 90 87 84 81 81 76 76 79 85 91 99 108 115 124 129 133 134 131 121 104 76 69 67 73 82 85 93 94 97 97 97 100 109 109 103 91 73 67 69 71 71 67 65 63 69 67 71 71 73 74 73 73 73 73 67 61 59 61 69 69 67 74 74 73 71 71 73 73 74 79 81 82 82 84 85 85 82 76 73 71 71 79 84 84 76 71 65 65 69 67 71 71 63 61 61 61 61 61 61 59 59 57 57 57 57 55 55 55 55 57 59 61 61 63 65 63 65 65 67 67 69 65 61 59 59 61 61 61 63 63 61 59 57 55 52 55 55 57 55 55 52 55 55 55 55 55 55 55 55 57 57 57 57 55 57
63 65 63 61 57 57 59 59 61 65 67 67 67 69 69 69 69 67 67 65 63 61 61 63 65 67 69 69 67 65 67 67 67 67 67 65 61 61 59 61 65 69 67 69 69 69 63 63 63 63 65 63 67 71 87 94 87 79 82 88 88 85 102 126 126 122 118 115 108 104 102 103 116 129 137 138 135 131 128 121 120 120 118 112 100 98 93 88 82 76 73 73 79 82 87 90 90 87 79 78 76 74 74 74 79 91 98 103 112 121 128 133 132 127 118 97 74 71 71 73 73 82 82 88 90 93 99 107 109 108 104 91 73 67 69 71 65 65 65 69 65 65 67 69 71 71 71 71 71 65 61 63 71 71 67 67 73 74 73 71 71 73 73 73 73 73 76 81 85 85 85 84 78 78 71 71 74 81 84 81 73 73 69 67 67 69 71 65 63 63 69 69 69 69 63 63 61 59 59 57 55 55 55 55 57 57 59 61 61 61 63 65 63 65 67 69 65 63 61 61 61 61 63 63 63 61 59 57 57 55 55 55 57 57 57 57 57 55 57 55 57 57 57 57 57 57 57 55 55 57
59 61 61 59 59 57 59 61 63 63 63 65 67 69 69 69 69 67 67 69 69 65 63 61 63 65 69 69 69 65 67 67 67 69 69 67 65 61 61 61 65 67 67 67 69 69 69 65 63 63 63 63 67 71 87 94 88 79 79 84 85 91 117 126 125 120 111 103 97 95 95 100 121 131 134 134 131 127 125 121 120 120 118 114 107 102 95 91 87 84 78 76 74 74 82 90 87 82 78 76 78 78 73 73 73 79 91 95 104 112 123 128 132 131 125 117 94 74 71 71 71 74 81 82 82 90 98 109 108 107 108 102 81 71 67 67 67 65 65 65 65 69 69 65 67 69 67 71 67 67 65 67 71 71 67 71 73 74 73 71 69 69 73 71 71 71 73 76 81 82 82 79 78 76 73 71 73 74 74 78 78 78 73 67 65 65 67 63 61 63 65 67 67 69 67 65 63 61 57 57 57 55 57 57 57 57 59 61 61 61 61 59 61 61 63 65 65 63 61 59 59 59 59 59 59 61 61 59 59 57 57 55 57 57 57 57 57 57 57 57 59 59 57 57 57 57 57 55 55 57
59 59 59 59 59 59 59 59 59 59 59 59 63 65 67 69 67 65 65 67 67 65 61 61 61 65 69 69 69 69 69 69 67 69 69 69 67 65 63 63 63 65 65 67 69 69 67 67 69 69 65 63 67 73 87 87 85 79 78 78 87 109 121 123 120 115 105 94 91 91 93 105 124 129 129 130 129 127 125 123 121 121 119 112 105 104 98 93 87 84 82 78 73 73 74 84 82 79 76 76 78 78 73 71 71 73 82 90 94 107 118 124 129 130 129 127 112 94 84 71 69 71 74 76 81 85 95 107 107 107 107 105 93 81 73 67 65 63 65 65 71 71 67 69 63 63 63 63 63 65 67 67 67 67 67 67 76 76 71 69 65 67 67 67 67 67 71 73 76 78 78 78 78 76 74 73 71 73 73 74 81 81 73 71 65 63 63 63 63 63 63 65 65 65 67 69 69 61 59 57 57 57 57 57 57 59 61 61 61 63 59 59 61 61 61 63 63 61 61 61 59 59 57 57 59 59 59 59 59 59 57 55 55 55 57 57 57 57 57 57 57 59 59 57 57 57 55 52 52 57
61 61 61 59 59 59 59 57 57 57 57 59 59 63 69 65 65 63 65 65 63 61 59 59 61 63 67 67 69 67 67 67 67 67 69 69 67 67 65 65 69 69 65 67 67 69 69 67 69 67 65 65 67 76 87 84 79 78 78 82 100 116 120 115 111 109 102 91 87 87 95 116 126 125 126 127 129 128 127 126 124 119 115 107 102 98 98 95 87 84 81 78 73 71 71 74 79 81 81 84 84 82 78 76 74 73 73 79 90 97 108 120 122 124 125 123 115 104 91 73 67 67 71 73 76 79 90 94 97 97 99 103 99 95 88 71 63 61 65 67 69 69 67 65 61 59 59 59 59 61 65 69 69 65 65 67 73 73 67 61 59 61 61 61 61 65 69 69 71 73 73 74 76 76 76 73 71 71 71 73 76 76 73 71 67 63 61 63 63 65 65 63 61 61 65 67 69 63 61 59 57 57 57 57 59 59 61 63 61 61 61 61 63 61 61 59 61 61 61 61 59 57 55 55 57 59 59 59 59 59 57 55 55 55 57 57 59 57 57 57 57 57 57 59 59 57 57 55 55 57
63 63 61 59 59 59 59 59 59 59 59 59 59 63 69 65 63 63 63 63 61 59 57 59 59 61 63 67 67 67 65 65 65 67 69 69 69 71 71 69 67 67 65 65 67 67 69 69 67 69 67 67 71 76 90 90 81 78 79 98 111 112 109 104 97 95 94 85 79 79 102 121 124 123 123 125 128 129 130 130 126 118 112 105 102 98 98 95 88 84 79 78 76 73 71 71 73 81 85 85 85 84 81 81 81 78 74 73 74 85 93 108 112 118 119 115 110 104 90 76 71 65 65 71 71 73 79 85 90 90 90 94 95 100 100 87 73 69 63 65 65 65 63 63 61 59 59 67 69 65 69 69 67 67 71 71 73 71 65 59 59 59 61 61 63 63 65 65 67 69 67 67 73 74 76 73 73 67 67 71 73 73 71 71 67 63 59 61 63 65 65 65 63 63 63 65 69 65 61 57 57 57 59 59 59 59 61 63 63 61 61 61 63 61 59 57 59 59 61 59 57 52 55 55 57 57 59 59 59 57 57 57 55 57 57 57 59 57 57 57 57 57 57 57 59 57 55 52 52 57
61 61 59 59 59 59 59 59 59 59 59 59 59 61 63 63 61 61 61 63 61 59 57 57 59 61 63 65 65 65 63 63 65 69 69 69 69 71 69 67 67 65 65 63 65 67 69 67 69 69 67 69 71 74 85 85 81 79 94 110 112 111 104 98 90 82 82 78 78 90 117 123 122 119 119 122 128 134 134 131 126 118 114 105 95 95 95 95 90 82 79 78 76 73 73 73 71 74 79 84 84 84 84 81 81 81 79 73 73 73 87 95 102 107 108 108 104 97 88 82 73 71 69 67 69 71 73 81 84 84 85 87 91 99 100 97 88 73 67 67 61 63 63 63 61 61 61 65 71 71 71 69 67 65 69 71 71 67 63 59 59 59 59 61 63 63 63 61 61 63 63 65 69 73 73 71 69 67 65 67 69 67 69 67 63 61 59 61 61 65 65 65 65 65 63 61 63 63 67 67 59 57 59 59 59 59 61 63 61 61 61 61 59 59 57 57 57 57 57 57 55 52 55 55 57 57 59 59 57 57 57 57 57 57 57 57 57 59 59 61 59 59 59 59 61 59 57 55 55 57
59 59 59 59 59 59 59 57 57 59 59 59 57 59 61 61 61 59 61 61 61 59 57 59 59 61 65 65 65 65 65 65 67 69 69 69 69 69 67 67 65 65 65 65 65 65 67 67 69 67 67 71 71 74 84 85 81 79 98 109 107 102 95 91 82 78 76 76 82 103 121 120 116 116 118 124 129 134 133 126 121 111 107 97 93 91 90 90 87 79 79 79 78 73 73 73 71 71 73 82 81 81 84 79 79 84 84 74 73 73 76 82 93 93 94 97 94 90 85 84 78 73 73 69 67 67 71 73 74 81 84 84 90 99 99 99 94 79 71 69 65 63 63 65 63 61 59 63 71 71 71 69 67 65 65 67 71 65 61 59 59 59 59 59 61 61 61 61 61 59 59 61 65 69 67 67 63 61 61 61 61 61 63 63 61 61 59 61 63 65 65 65 63 61 61 59 59 61 67 63 59 57 57 57 59 59 61 61 59 59 61 61 59 59 57 57 55 55 55 55 55 55 57 57 57 57 57 57 55 55 57 57 57 57 59 57 57 57 59 61 61 59 59 61 63 61 59 57 57 59
61 61 59 59 59 59 57 57 57 59 59 59 59 59 61 63 63 61 61 61 59 59 59 59 61 65 69 69 67 69 69 71 71 69 69 69 69 69 67 65 65 65 65 63 63 63 63 65 69 67 67 67 71 74 84 85 79 79 90 98 94 90 82 82 79 78 78 76 90 107 112 108 108 109 121 127 130 130 127 119 111 107 102 95 90 88 87 82 79 81 81 81 81 73 73 73 73 71 71 73 78 81 85 85 84 84 84 78 74 74 74 74 76 78 87 90 88 85 84 84 81 78 73 67 65 65 67 69 71 73 78 79 85 93 98 97 94 88 74 71 65 63 65 65 63 61 59 61 67 69 67 67 65 63 61 63 65 65 61 61 59 59 59 57 57 59 59 63 61 61 59 59 63 65 65 63 61 61 59 59 59 57 57 59 61 61 61 61 63 65 69 69 63 59 59 59 59 61 61 61 57 55 55 57 57 59 61 59 59 59 61 61 61 57 55 55 55 57 57 55 55 57 59 59 59 59 57 57 55 52 55 55 57 57 59 59 57 57 57 59 59 59 59 61 61 61 59 57 57 59
63 63 61 59 59 57 57 57 57 59 59 59 59 59 61 65 63 63 61 61 61 61 61 61 63 65 67 67 71 71 71 71 71 71 71 71 69 69 67 69 69 69 65 63 61 61 61 63 65 69 67 67 71 73 78 78 78 84 88 91 85 81 81 81 81 81 82 84 98 105 103 95 95 102 121 127 128 125 118 108 100 99 97 93 87 87 84 81 79 79 81 79 76 73 73 73 71 67 67 71 71 76 79 85 85 84 84 82 78 74 73 73 73 73 76 84 84 81 81 81 78 78 76 73 69 61 61 63 65 67 73 76 84 88 93 93 90 85 81 71 65 63 65 65 63 63 69 69 67 67 69 63 63 63 69 69 65 65 65 63 61 61 59 59 59 59 61 61 61 59 59 59 59 63 63 61 61 59 59 59 59 57 57 59 61 61 61 61 61 63 67 69 63 61 59 59 61 59 59 57 57 55 55 57 57 61 61 61 59 61 61 61 59 57 55 55 55 57 57 55 55 55 57 59 59 59 57 57 57 55 55 55 57 57 59 59 57 57 55 57 59 59 59 59 59 57 55 52 55 57
61 63 63 63 59 59 59 59 59 59 61 61 61 63 65 65 63 61 61 61 65 65 63 63 63 63 65 67 71 71 67 67 67 69 71 67 67 67 67 67 67 69 67 69 69 61 59 59 63 65 65 65 67 71 79 81 79 84 87 87 84 82 84 84 84 81 82 90 103 105 104 97 95 104 123 126 122 116 107 100 95 91 90 88 87 85 82 84 81 79 81 76 73 71 71 71 65 61 61 65 67 71 73 78 84 79 79 81 81 76 74 73 73 73 73 73 73 78 81 78 76 76 78 78 74 71 65 63 67 67 71 71 76 82 87 87 87 85 78 73 67 63 65 65 65 65 69 69 67 65 65 63 63 65 67 69 65 67 69 69 69 67 69 69 63 61 61 59 59 59 59 59 59 59 61 61 59 59 59 59 61 61 67 69 63 61 61 61 63 63 65 65 65 63 63 63 61 59 59 57 57 55 52 55 59 61 65 63 61 61 61 59 57 57 55 57 57 57 57 57 57 57 57 59 57 57 57 55 55 55 55 57 55 57 59 59 59 57 57 57 57 57 57 57 57 55 52 50 55 59
69 69 65 63 63 61 61 61 61 63 65 65 65 65 67 67 65 63 63 65 65 65 63 63 63 69 69 69 71 67 67 67 69 67 69 67 65 63 63 65 67 71 71 71 71 65 63 61 63 65 69 69 69 67 74 81 81 81 81 82 82 81 82 84 84 81 81 94 103 105 100 95 102 118 126 122 117 109 97 93 90 88 85 84 82 79 78 78 78 74 74 74 73 67 67 71 65 63 69 69 67 67 71 71 73 73 74 76 73 73 73 73 73 71 71 69 67 73 74 73 73 73 76 76 78 71 67 65 67 67 67 67 73 73 78 78 78 84 81 73 71 67 69 69 67 69 71 71 65 63 63 63 63 65 67 67 69 67 67 67 67 67 67 67 65 63 61 61 61 61 59 59 59 59 59 61 61 59 59 61 65 65 69 69 69 63 61 63 65 65 65 65 65 63 63 61 61 59 59 59 57 55 55 55 57 61 63 65 61 61 59 59 57 57 57 59 59 57 57 59 59 57 57 57 57 55 55 55 55 52 55 55 55 57 59 59 59 59 57 57 57 57 57 57 57 55 55 52 55 61
69 65 61 61 61 61 59 59 61 63 65 65 65 65 65 65 67 71 71 67 65 65 63 65 65 67 67 69 71 69 65 65 69 67 69 65 63 61 61 61 65 69 71 71 71 69 69 65 65 69 69 69 69 69 67 76 81 79 78 78 79 79 81 84 84 82 88 100 99 97 95 100 116 124 123 111 107 103 95 90 88 87 84 84 78 74 73 71 71 71 71 67 67 67 67 67 65 63 63 63 61 63 69 67 71 67 67 71 71 71 71 71 69 67 65 65 69 71 71 69 71 67 73 73 74 73 69 65 65 63 65 69 71 73 74 73 73 76 76 73 67 67 67 67 67 69 67 69 63 59 61 63 63 65 67 69 71 71 65 65 65 63 65 65 63 61 61 63 69 69 69 63 61 61 61 63 63 61 61 61 63 69 69 69 67 63 63 65 67 71 71 65 63 61 61 61 61 61 61 59 59 57 57 57 57 61 65 69 69 61 61 59 59 57 57 59 59 57 57 57 57 57 55 55 55 55 57 55 52 50 52 55 55 57 57 59 57 57 57 59 59 59 59 59 59 59 59 57 57 59
61 61 57 57 57 59 59 59 59 59 61 61 63 63 63 65 65 67 71 67 67 65 65 65 65 67 67 69 71 69 65 65 65 67 65 65 63 61 61 63 65 67 67 67 69 69 67 67 69 67 67 69 67 65 69 71 76 78 76 76 81 81 81 84 82 85 93 100 99 95 97 117 123 122 114 104 99 94 88 82 82 78 73 73 71 71 71 67 67 67 65 67 65 63 63 65 63 63 61 61 61 69 69 65 65 67 67 67 67 65 63 61 63 63 63 69 69 67 65 63 65 67 71 71 71 73 71 71 63 61 69 69 69 71 71 67 67 71 67 67 67 65 65 65 65 65 65 63 61 59 59 61 63 69 69 67 71 69 67 65 63 61 61 63 65 63 63 69 69 69 67 65 61 59 61 61 61 61 61 61 63 69 69 69 71 71 65 65 69 71 71 69 63 61 61 61 65 63 61 59 61 59 57 57 59 63 69 67 67 65 63 63 59 57 55 57 57 57 57 55 55 55 55 52 52 55 55 55 52 47 50 52 55 55 55 57 57 57 59 61 61 59 57 59 59 59 59 57 57 59
59 57 57 57 59 59 61 61 61 59 59 59 59 61 61 61 63 67 71 71 71 67 65 65 65 65 67 67 67 67 65 65 67 69 69 63 61 61 61 61 63 63 67 69 69 67 65 67 69 69 69 67 65 63 65 67 71 74 76 76 81 81 84 84 82 88 99 99 95 97 118 123 123 110 100 97 91 87 78 74 74 73 67 67 67 67 67 63 61 61 61 61 61 61 63 71 71 69 69 63 65 69 69 69 69 69 63 63 63 63 61 59 59 61 65 69 67 65 63 63 63 65 67 67 67 67 67 69 65 63 69 69 67 67 67 67 67 67 67 65 63 61 61 63 63 63 63 61 61 59 61 61 65 69 69 67 69 69 67 65 65 69 69 69 67 65 69 69 69 69 67 65 61 59 59 59 61 63 63 63 65 67 67 71 71 71 65 65 67 67 69 67 65 63 61 63 63 61 59 59 59 59 57 57 61 63 69 69 65 63 61 61 59 57 55 57 57 57 57 55 55 55 52 52 52 52 55 52 50 50 50 52 52 55 57 57 59 59 59 61 61 59 57 57 59 59 57 55 55 57
59 57 57 57 59 61 63 63 63 63 61 59 59 59 61 63 63 67 69 71 71 69 63 61 61 63 65 67 67 65 65 65 69 67 69 63 61 61 59 59 61 63 67 69 69 67 65 65 67 69 69 67 65 69 69 67 69 67 73 76 81 81 84 85 85 90 98 94 94 109 124 125 115 99 91 90 85 82 76 71 71 71 67 67 67 63 61 63 69 69 63 61 59 59 63 67 67 67 69 67 67 67 69 69 69 69 67 65 69 69 69 69 61 61 63 63 63 61 63 63 65 65 65 67 65 65 65 63 63 63 65 65 65 65 65 63 61 61 61 61 61 61 61 61 63 65 65 69 69 63 61 63 65 67 67 67 67 69 69 65 65 65 67 69 67 67 69 67 67 69 67 69 69 61 59 59 69 69 65 65 63 65 67 67 67 69 69 69 67 65 65 63 61 63 61 61 59 59 59 59 57 57 57 57 57 61 65 69 69 61 59 59 59 59 57 57 57 57 57 55 55 55 55 55 52 52 52 52 52 50 50 50 52 55 57 57 59 59 59 59 59 59 57 57 59 57 57 52 52 55
57 57 57 57 57 59 61 61 63 63 61 61 59 59 59 61 63 65 67 67 67 69 63 59 59 61 65 67 65 65 65 65 69 69 69 65 63 61 61 59 61 69 69 69 69 69 69 65 65 67 67 67 69 69 69 65 65 67 67 73 76 76 78 85 87 90 93 93 94 116 120 110 99 90 82 82 84 81 73 71 69 69 65 63 63 63 63 65 69 69 65 61 59 59 61 63 65 65 65 65 65 65 67 67 67 67 67 65 67 69 69 65 63 61 61 61 61 61 61 63 65 65 65 67 69 69 63 61 63 63 65 65 65 65 61 61 59 57 59 59 59 59 59 59 61 63 65 69 67 69 69 63 61 61 63 61 63 65 65 65 63 63 65 65 65 65 65 67 69 69 67 69 67 65 69 69 69 69 67 69 69 65 65 65 67 69 69 67 69 69 63 61 61 61 63 61 59 61 59 59 57 57 57 57 59 59 65 67 65 63 61 69 67 59 57 57 57 57 55 52 55 55 55 55 52 52 52 52 52 52 50 50 50 52 57 57 59 59 59 59 59 59 59 59 59 57 57 52 52 55
57 57 57 59 59 59 57 59 61 59 59 59 59 59 59 59 59 61 63 65 67 65 63 61 67 69 65 67 67 63 63 65 71 71 69 69 65 63 61 61 63 69 69 69 67 67 69 67 65 65 65 67 71 71 69 69 69 63 65 67 73 74 78 82 87 90 88 90 105 115 112 100 91 85 82 81 81 76 67 65 65 69 65 63 63 61 63 69 69 65 63 59 59 59 59 59 59 61 63 65 65 65 63 63 63 63 61 61 65 65 67 65 61 61 61 59 59 59 61 65 65 65 65 67 71 71 67 63 63 63 63 65 65 71 71 61 59 57 57 57 57 57 57 57 59 59 61 63 65 65 63 63 61 61 61 59 61 61 63 61 61 61 61 63 63 63 63 65 67 67 69 69 67 67 69 69 67 67 67 69 69 69 65 63 65 67 69 69 69 69 63 61 63 63 61 61 59 59 59 59 59 57 57 57 59 61 63 63 63 63 65 67 63 61 57 57 57 57 57 55 57 57 55 55 52 52 52 50 52 50 50 52 55 55 59 59 61 61 63 61 61 59 57 59 59 59 57 57 55 57
59 59 59 59 59 59 57 59 59 59 61 61 61 59 59 59 57 57 59 63 63 63 61 63 69 69 67 67 69 69 63 65 69 67 67 69 67 63 61 61 65 69 69 67 67 67 67 65 65 65 65 67 67 69 69 69 67 65 63 67 67 74 81 79 85 85 85 98 110 109 102 91 85 84 78 78 76 71 67 63 61 63 65 63 63 61 61 63 65 63 59 59 59 59 59 59 59 61 69 69 67 65 61 59 59 59 59 59 59 63 63 63 61 61 61 61 59 61 63 65 63 63 63 65 67 69 67 65 63 61 63 65 71 71 69 69 63 59 59 57 57 55 55 55 57 57 59 59 61 63 63 63 61 61 63 67 69 63 63 61 61 59 61 61 63 63 63 65 65 65 67 67 69 69 69 69 69 67 67 67 67 69 69 65 65 69 69 69 69 67 65 63 61 61 59 57 57 59 59 59 59 57 57 57 57 59 59 59 59 59 61 63 61 59 59 59 59 57 57 57 57 57 55 52 52 52 50 47 47 47 47 55 57 59 61 63 63 61 61 59 59 59 59 59 59 59 59 57 57 59
61 61 61 59 59 59 59 59 61 61 63 65 69 69 61 59 57 59 59 61 63 61 61 63 65 67 69 69 69 67 65 65 69 69 67 69 67 63 61 63 65 67 67 69 69 69 65 65 65 65 65 65 65 67 67 65 63 61 61 63 67 73 81 81 82 84 88 102 103 94 90 82 82 82 76 73 71 71 67 69 69 63 63 63 69 69 69 61 61 61 61 59 59 59 57 57 59 61 65 67 67 67 63 61 59 59 59 59 59 61 63 65 69 69 65 63 69 69 65 69 69 63 65 69 69 67 65 63 61 59 61 65 67 67 67 67 65 61 57 55 55 55 55 57 57 57 59 59 59 61 61 61 59 61 63 63 65 63 63 63 63 61 61 59 59 63 69 69 67 65 63 63 65 67 71 71 71 69 67 69 71 71 71 65 65 69 67 67 67 69 69 69 63 59 59 57 57 57 59 59 59 57 55 55 55 57 57 57 57 57 57 57 57 59 59 59 59 59 59 57 55 55 52 52 52 50 50 45 45 45 50 52 55 55 57 59 61 59 57 57 59 67 67 59 57 57 57 57 57 57
61 61 61 61 59 59 59 59 59 59 59 61 65 63 61 59 59 59 61 61 61 61 61 63 65 67 69 69 69 67 65 69 69 69 69 67 65 61 59 59 63 69 69 69 69 69 67 65 65 65 63 61 63 63 63 61 59 59 59 61 67 73 74 74 74 79 88 98 98 91 87 82 78 78 74 71 69 65 65 67 69 69 63 63 65 69 67 69 69 63 61 61 61 59 59 59 59 63 65 67 67 67 65 63 61 59 59 59 61 63 63 65 65 65 65 65 67 69 65 65 67 67 69 69 69 69 69 63 61 59 59 63 63 65 65 63 61 57 55 52 52 55 55 55 57 57 57 57 57 57 59 59 57 57 57 59 59 59 59 61 61 61 61 59 59 63 69 69 67 63 61 61 63 67 69 71 71 69 67 67 69 69 67 69 65 67 67 67 71 71 67 67 65 63 61 59 59 59 59 57 57 55 55 55 55 55 55 57 57 57 57 57 57 57 57 57 59 59 57 57 55 52 52 52 52 50 47 42 45 50 52 52 52 52 52 55 57 57 57 57 61 65 67 61 59 57 57 55 52 55
57 57 57 57 57 59 59 59 57 57 57 59 61 59 59 59 59 61 63 63 63 61 61 63 65 69 69 69 67 67 67 69 69 69 69 65 63 61 59 61 63 69 69 69 69 69 67 67 65 65 63 63 63 63 63 61 61 61 59 61 65 67 71 73 73 74 82 88 90 87 84 76 73 73 71 69 65 63 63 65 67 69 69 63 65 67 67 69 69 65 63 63 61 61 59 61 63 69 69 69 65 65 65 65 69 69 61 63 69 69 69 65 63 61 61 63 65 65 65 63 63 65 65 67 67 67 69 63 61 61 61 61 61 61 61 61 59 57 55 52 52 55 55 57 57 57 57 55 55 57 57 57 57 57 57 55 55 57 57 59 59 59 59 59 59 61 65 65 65 65 63 63 63 65 67 67 69 69 67 67 65 63 65 69 67 67 69 69 69 69 67 65 65 65 65 65 63 61 61 59 59 57 57 57 57 55 55 57 57 57 59 57 57 55 55 57 57 57 57 55 52 52 55 55 55 52 52 45 50 50 52 55 52 52 52 52 55 55 57 57 59 61 63 61 59 59 57 55 52 55
57 57 57 57 57 59 59 59 59 59 59 59 61 59 59 59 61 69 69 69 63 61 63 69 69 69 69 67 65 65 69 71 71 69 67 65 63 61 61 59 63 69 69 71 71 67 67 65 65 65 65 65 69 69 65 65 61 61 59 61 65 69 69 69 71 71 76 81 81 82 82 74 71 71 67 67 65 63 63 63 67 67 65 65 63 65 67 67 69 65 63 63 63 61 61 61 63 65 67 65 65 63 65 67 67 69 69 67 69 69 67 65 61 59 59 61 69 69 63 61 59 61 61 63 67 67 69 69 61 61 61 61 63 63 63 61 59 57 57 57 55 55 57 59 59 59 57 57 57 57 57 57 57 57 59 57 55 57 57 59 57 57 57 57 57 59 59 63 65 65 65 65 65 65 63 63 65 65 65 63 63 63 69 69 65 65 67 67 69 69 65 63 63 65 67 69 69 67 67 69 69 69 59 57 55 55 55 55 57 57 57 59 57 55 52 52 55 55 55 52 52 55 55 57 57 57 55 52 50 50 52 55 52 55 52 55 55 57 57 57 57 57 57 59 59 57 57 52 52 52
57 57 57 59 67 69 67 59 59 59 59 63 69 69 61 59 61 65 67 67 65 63 65 67 67 67 67 65 65 65 67 69 69 67 67 65 63 61 61 59 61 65 67 67 69 69 65 63 63 63 63 63 65 65 65 63 59 59 59 59 63 67 69 69 69 71 74 81 81 84 84 78 71 67 69 65 65 63 65 67 69 69 67 65 65 65 67 69 69 63 61 63 63 63 61 61 61 63 63 65 69 69 65 67 67 67 65 67 69 67 63 61 61 61 61 63 65 65 63 61 61 59 61 69 69 69 67 69 63 61 61 63 63 63 65 63 61 59 57 57 57 57 57 59 59 59 59 57 59 59 59 57 57 59 59 57 57 57 57 57 57 57 55 57 57 57 59 61 63 65 63 63 63 63 61 61 61 61 61 61 61 63 67 67 67 69 69 67 67 69 65 63 63 65 67 71 71 67 69 69 67 65 61 57 55 55 55 55 55 57 57 59 57 55 52 52 52 52 52 50 52 52 52 55 55 55 55 52 50 50 52 52 52 55 55 57 57 55 55 55 55 55 57 57 57 55 52 50 52 55
57 57 57 59 63 67 65 61 59 57 59 61 65 63 61 59 57 59 61 63 65 63 63 63 65 65 67 65 65 65 65 67 69 67 65 63 63 61 61 59 61 65 67 67 69 67 65 63 65 63 63 61 63 63 63 63 59 59 59 59 59 61 65 69 69 69 74 84 84 84 81 74 67 67 67 65 63 63 65 69 69 67 67 67 69 69 67 69 65 63 63 65 65 61 61 61 61 63 63 69 69 69 67 65 65 65 65 65 67 65 65 61 61 61 61 63 65 65 65 63 63 61 63 69 69 67 67 65 63 61 61 63 61 63 63 61 61 57 57 57 57 57 57 57 59 59 59 59 59 59 59 59 59 59 59 59 57 57 57 59 57 57 57 57 57 57 59 61 61 61 61 61 61 63 65 71 71 63 59 59 61 65 65 67 67 67 69 69 67 67 69 63 61 63 69 69 69 67 67 65 61 59 59 57 57 55 55 55 55 57 57 57 57 55 52 52 52 52 50 50 50 50 50 52 52 55 52 52 52 52 52 52 52 52 55 55 55 55 55 52 52 55 55 57 57 55 52 50 50 52
59 57 59 61 61 63 63 61 61 59 59 61 61 61 59 59 57 57 59 61 63 63 61 59 61 65 65 65 65 63 61 65 69 69 69 65 63 61 61 59 61 63 67 67 65 63 61 63 65 63 63 61 63 63 61 61 59 59 59 59 61 61 63 65 69 69 73 84 84 79 74 71 69 67 69 69 63 63 69 69 67 65 65 65 67 69 69 65 63 63 69 69 63 63 61 63 63 63 65 69 67 67 67 65 63 63 63 65 65 65 65 63 63 61 63 63 61 61 63 63 65 65 65 69 67 69 69 63 59 59 61 61 63 63 63 63 61 59 59 57 57 57 57 59 59 57 59 59 59 59 59 59 59 59 59 59 59 57 57 59 59 57 57 57 57 57 59 61 61 61 61 61 59 59 65 69 67 63 61 61 63 65 65 67 67 67 67 67 65 65 61 59 59 61 65 69 71 71 67 61 59 57 57 57 57 57 55 55 55 55 57 57 57 55 52 52 52 50 50 47 50 50 50 50 52 52 52 55 55 57 55 52 52 52 52 52 52 52 52 52 52 52 55 57 57 55 52 50 52 52
59 59 61 61 61 61 59 61 61 61 61 59 59 59 59 59 59 59 61 63 65 63 61 61 63 65 65 65 65 63 61 63 65 67 69 65 63 61 61 63 65 69 69 69 63 59 59 61 63 63 61 59 59 61 61 61 59 59 59 61 63 63 69 69 71 71 73 81 79 76 74 71 67 65 65 67 69 69 69 69 65 63 61 61 65 65 67 65 63 65 69 69 67 69 69 69 65 65 65 67 69 67 65 63 63 63 63 65 65 65 65 65 63 65 69 69 61 59 61 63 65 69 71 71 69 67 65 61 59 59 61 63 63 63 63 61 61 59 59 57 57 59 59 59 59 59 59 59 57 57 59 59 59 57 57 57 57 57 57 57 57 57 55 55 55 57 59 61 61 61 59 59 59 59 61 63 63 61 61 69 69 63 63 65 65 65 65 63 63 61 59 55 57 59 61 65 67 69 71 69 63 59 59 57 57 57 55 55 55 55 55 55 55 52 52 52 52 52 50 47 50 47 47 50 52 52 52 55 57 57 55 52 52 50 50 47 47 47 50 52 52 52 55 55 55 55 55 52 52 52
57 59 59 61 59 59 59 59 59 59 59 57 59 59 61 61 63 69 69 69 67 67 65 67 69 69 67 65 65 65 63 63 67 67 65 65 61 61 63 63 65 67 67 69 69 61 61 69 69 61 59 59 59 59 59 59 59 59 59 61 65 67 69 69 71 71 73 76 78 76 74 71 65 61 63 65 69 69 67 67 69 69 63 61 61 65 65 65 65 67 69 69 69 69 69 69 67 65 65 67 67 65 63 63 63 63 63 63 63 63 65 65 69 69 69 69 63 59 61 63 65 69 69 71 67 65 65 63 61 59 59 61 59 59 61 61 59 57 57 57 59 59 59 57 59 59 59 59 59 59 61 61 61 59 57 57 57 57 55 55 55 55 55 55 57 57 59 61 63 61 59 59 59 59 61 61 61 61 63 69 65 63 61 61 63 65 63 61 61 59 57 55 57 57 59 59 61 67 69 69 65 61 59 57 55 55 52 55 52 52 52 52 50 47 47 47 50 50 47 45 45 47 47 52 55 55 52 52 52 52 52 52 50 50 47 45 47 50 52 52 52 52 52 55 55 55 55 52 50 52
57 57 57 59 59 59 59 59 59 59 59 57 57 59 61 63 65 69 71 71 67 65 65 65 65 63 65 63 65 65 65 69 69 65 65 61 61 61 63 63 69 69 69 67 69 65 65 65 65 63 59 59 59 59 59 59 59 59 59 61 65 67 67 71 71 67 67 74 81 81 73 67 63 61 61 63 65 65 65 65 71 71 65 65 67 71 71 65 61 63 67 69 67 67 69 67 69 65 65 65 65 63 65 65 65 65 65 65 63 65 71 71 69 67 67 69 65 63 65 65 65 67 69 71 69 65 65 63 61 59 59 59 57 59 59 61 59 57 57 59 67 67 61 59 59 59 59 59 59 61 61 61 63 59 59 57 57 57 57 57 57 55 57 57 57 57 57 59 61 63 61 59 59 59 61 61 61 61 65 69 69 65 63 69 69 67 69 71 71 69 59 59 57 59 59 57 59 61 65 69 63 59 57 57 55 52 52 52 52 52 47 47 45 45 45 47 47 45 45 45 47 50 50 52 52 52 52 50 50 50 50 50 50 47 45 45 50 50 52 52 50 47 50 52 55 55 52 52 52 52
57 57 57 57 57 59 59 57 59 59 61 59 59 59 59 61 65 69 71 71 69 69 63 61 59 59 61 63 63 63 65 71 71 69 63 61 61 61 61 65 67 67 69 67 67 69 65 65 63 61 59 59 59 59 61 61 61 59 61 61 65 65 67 69 69 67 71 71 74 73 73 67 63 61 69 69 63 63 65 69 69 71 69 65 67 69 67 63 61 61 63 67 69 65 65 65 69 65 63 61 63 69 69 65 65 65 65 63 63 65 69 69 65 63 63 63 65 65 65 65 65 69 69 69 69 69 69 69 61 59 59 59 59 67 69 69 69 69 63 63 69 65 61 59 59 59 57 57 57 59 59 59 59 59 59 57 57 57 59 59 57 57 57 57 59 57 57 59 61 63 61 59 59 59 59 59 61 63 65 69 69 65 65 69 67 67 71 71 71 67 61 59 59 61 61 61 61 61 65 65 63 61 59 57 57 55 55 55 52 52 50 50 50 50 47 47 45 45 47 47 50 50 50 52 52 55 52 50 47 50 50 50 47 45 42 45 47 47 47 45 45 47 50 52 55 52 52 52 52 55
59 59 57 57 57 57 57 57 57 59 61 69 69 63 61 63 65 67 69 69 69 69 65 61 61 63 63 63 63 61 65 67 69 67 69 61 61 59 61 61 63 65 65 65 65 67 65 63 61 59 57 57 59 59 61 63 63 61 63 61 63 65 69 67 67 69 71 67 67 67 67 65 63 63 69 67 63 63 63 65 67 69 67 63 63 63 65 63 63 61 61 65 71 71 65 65 65 63 61 59 59 63 65 65 63 61 61 61 63 65 69 69 69 61 59 61 63 65 63 63 63 65 67 67 67 67 67 69 65 63 61 61 63 69 67 67 67 67 65 65 63 61 59 59 59 57 57 57 57 57 57 57 57 57 57 57 59 59 59 59 59 59 59 59 57 59 59 61 63 63 61 59 59 59 59 59 59 61 63 65 65 65 65 65 65 67 67 67 67 65 61 61 69 69 65 63 63 63 63 63 63 61 59 59 57 57 55 55 55 55 55 55 52 52 50 50 50 47 47 47 47 45 45 47 52 55 52 50 45 47 50 50 47 39 39 42 45 47 45 45 45 47 52 55 52 50 45 47 50 57
61 61 59 57 57 57 57 57 59 61 71 71 67 65 63 63 65 67 67 67 69 65 63 61 65 65 69 69 69 63 63 65 69 67 67 69 63 59 59 59 59 61 63 69 69 67 65 63 61 59 57 57 59 59 61 61 61 61 61 61 61 63 69 69 67 67 67 65 65 65 63 63 61 63 65 65 65 63 61 63 65 69 67 63 61 61 63 65 65 65 63 65 69 69 67 65 63 61 59 57 57 59 63 65 69 69 63 63 63 67 67 71 71 63 61 61 63 65 63 61 61 63 63 61 61 61 65 69 67 65 63 61 63 63 65 63 63 63 63 63 61 59 59 59 59 57 57 57 57 57 57 55 55 57 57 57 59 59 59 59 59 59 59 59 59 59 59 61 61 59 57 57 59 57 57 57 57 59 59 59 61 63 63 63 63 65 69 69 69 63 61 63 71 71 69 65 63 61 61 61 59 59 59 57 57 57 57 55 55 57 55 55 52 52 52 52 50 47 47 45 45 42 42 47 50 52 52 50 47 47 47 47 42 35 35 39 45 45 42 42 45 50 52 52 50 45 42 45 47 55
63 63 61 59 59 59 59 61 63 65 71 71 67 65 63 65 65 69 69 69 69 63 59 61 63 65 69 69 69 65 61 65 69 67 65 63 61 59 57 57 59 59 63 65 65 65 63 63 63 61 59 59 57 59 59 59 57 59 59 59 59 63 69 69 69 65 63 61 61 59 59 59 59 61 63 63 63 63 61 61 63 63 63 61 61 63 65 65 65 63 63 65 67 67 65 63 61 61 61 61 67 69 65 69 69 69 67 65 65 67 67 67 69 71 63 61 63 65 65 63 61 61 59 59 59 61 63 69 65 63 63 63 63 63 61 59 59 59 61 59 57 57 57 57 57 57 57 57 57 55 55 55 55 57 57 57 57 57 57 57 57 57 57 57 57 57 57 57 57 57 57 57 57 57 57 57 57 59 59 61 69 69 65 71 71 69 69 67 67 65 63 65 69 69 67 65 61 59 59 59 59 59 57 55 55 57 57 57 57 57 55 55 52 52 52 52 52 50 45 42 39 39 42 50 52 52 52 50 47 47 47 47 42 31 35 39 42 39 39 39 45 50 52 52 47 45 42 45 50 52
57 59 61 59 59 59 61 63 65 67 67 71 69 65 65 65 67 69 67 67 65 61 59 59 61 65 67 67 67 63 61 63 69 65 63 61 59 57 57 57 57 59 59 61 61 59 59 59 59 59 59 59 57 57 55 57 59 59 59 57 59 61 69 67 67 71 71 65 61 61 57 57 57 61 69 69 63 61 59 59 59 59 57 59 61 69 69 69 69 63 61 63 63 67 65 65 63 63 63 69 65 65 65 65 67 65 65 63 65 65 65 65 65 65 61 61 61 63 61 61 61 59 59 59 59 61 61 63 61 59 61 61 61 61 59 59 59 59 59 57 55 55 55 52 55 57 57 57 55 52 55 55 57 57 57 57 55 55 52 52 52 52 55 55 55 57 57 57 57 57 57 55 57 57 57 57 59 59 57 61 63 67 67 69 71 69 67 67 65 65 65 65 65 67 65 63 59 57 59 61 63 61 59 59 67 67 67 59 57 57 55 55 52 52 47 50 50 50 47 39 31 31 35 50 52 55 55 52 50 50 50 50 42 35 31 35 39 39 39 42 45 47 50 50 50 47 47 47 50 52
57 59 59 59 59 59 61 63 63 63 67 69 69 71 71 67 65 67 65 65 63 61 59 59 59 63 69 69 67 61 59 59 59 61 61 59 59 57 57 57 57 57 59 57 57 57 57 57 57 57 57 57 57 55 55 57 59 59 57 55 57 61 69 69 67 67 69 67 63 61 57 57 57 61 65 65 61 61 59 59 59 57 57 59 61 65 67 69 67 63 59 61 63 67 67 65 65 65 69 65 63 61 59 61 63 61 61 59 59 59 59 59 59 57 57 57 57 59 57 57 57 59 59 59 57 59 59 59 57 55 57 57 59 59 59 59 59 59 57 57 55 55 52 52 55 57 57 57 55 55 55 55 57 57 57 57 55 55 52 52 52 52 55 55 55 57 57 57 57 57 57 55 57 59 59 59 59 57 55 57 59 61 61 65 67 67 65 63 63 63 63 63 63 63 63 61 59 57 59 61 63 61 59 61 63 65 65 61 57 57 55 55 52 47 45 45 50 50 50 42 35 35 35 47 52 52 55 55 52 52 50 52 50 42 31 31 35 35 39 39 39 42 45 47 50 50 50 50 50 55
59 61 61 61 61 63 69 69 65 69 69 69 69 71 69 67 63 63 61 61 61 59 59 57 59 61 65 69 69 61 59 57 57 59 59 57 57 55 55 55 55 55 57 55 55 55 55 55 55 55 55 55 55 55 52 55 55 55 55 55 55 59 63 69 69 65 65 63 59 57 55 57 57 59 61 63 61 61 59 59 57 57 57 57 57 59 63 67 69 63 59 61 63 63 63 63 61 61 63 61 59 57 57 57 57 57 57 55 55 55 57 55 55 55 55 55 55 57 57 57 57 57 59 59 57 57 55 55 55 55 55 55 57 57 57 57 57 57 57 57 55 55 55 55 55 57 57 57 57 55 55 52 55 55 57 57 55 55 52 52 52 52 52 52 55 55 57 57 57 57 57 57 57 59 61 59 59 55 52 55 55 57 57 57 61 61 63 63 63 63 61 63 63 63 63 61 59 59 59 59 59 57 57 59 61 61 61 59 57 57 52 52 47 45 39 45 47 47 45 39 35 35 39 45 50 50 52 52 52 50 52 52 52 45 31 27 27 31 31 35 35 35 35 45 47 50 50 47 42 52
63 63 63 63 63 69 69 69 69 69 67 69 69 67 65 63 61 61 61 61 61 59 57 55 55 57 59 61 61 59 57 55 57 55 55 55 55 52 52 52 52 52 52 55 55 55 52 52 50 50 52 55 55 55 52 52 52 52 55 52 55 55 61 69 65 61 57 57 57 55 55 55 57 57 57 59 59 59 57 57 55 55 55 55 55 55 59 63 69 61 59 59 61 61 59 59 57 57 57 57 57 57 55 55 55 55 55 52 52 55 55 55 55 52 52 52 55 55 55 55 55 57 59 59 57 52 52 52 52 52 52 52 52 55 55 55 55 55 55 55 55 55 52 55 55 55 55 55 55 55 52 52 52 55 57 57 55 55 55 52 52 50 50 52 52 55 55 57 57 57 57 57 57 59 59 59 57 55 52 52 52 55 55 55 57 59 61 61 61 63 63 63 63 63 61 59 59 59 59 59 57 57 57 57 59 59 61 59 57 55 50 47 42 39 39 39 42 39 39 31 31 31 35 35 42 42 45 45 45 45 47 47 45 35 22 15 22 22 27 31 27 31 31 39 42 42 39 35 31 52
63 63 63 65 69 69 69 69 67 67 65 63 63 61 59 59 59 61 61 63 61 57 55 52 52 52 55 55 55 55 52 52 52 50 50 50 50 47 45 45 50 50 50 52 52 52 52 52 50 50 50 52 52 52 52 50 50 50 52 52 52 55 57 61 61 59 57 55 52 52 52 55 55 57 55 57 57 57 57 55 55 52 52 52 52 55 57 61 61 59 59 59 61 61 59 59 59 57 55 57 57 57 55 55 55 55 52 52 50 52 52 52 50 50 52 52 52 55 55 55 55 55 57 57 55 52 50 50 50 47 50 50 52 52 57 57 57 57 57 57 57 55 55 52 55 55 55 52 52 55 52 52 52 55 55 55 55 55 55 52 50 50 50 52 52 55 55 57 57 57 57 57 57 57 57 57 57 55 52 52 52 52 55 55 57 59 61 61 61 61 63 65 65 69 69 61 59 57 57 57 57 57 57 57 59 59 59 59 57 55 47 42 39 39 35 35 35 35 35 31 27 22 22 27 31 35 35 35 35 39 39 35 31 22 15 22 22 15 15 27 27 27 27 31 31 27 15 15 22 52
67 69 69 67 69 69 67 65 65 63 61 59 57 55 55 57 57 59 59 59 59 57 55 50 52 52 52 55 55 52 50 47 45 45 45 45 47 45 42 35 39 45 47 50 47 47 47 47 47 47 47 50 50 50 50 50 50 50 52 52 52 52 55 57 59 57 57 55 52 50 50 52 52 55 55 55 55 57 55 55 55 52 52 52 52 55 57 59 59 59 59 59 59 59 59 59 57 57 55 57 57 55 55 55 55 55 52 50 47 47 47 47 45 45 47 50 52 55 55 55 55 55 55 55 55 52 50 52 50 50 50 50 55 57 59 61 59 59 57 57 57 57 55 55 55 55 55 55 52 52 52 52 52 55 52 55 55 55 55 52 50 50 52 55 52 52 55 55 55 55 55 55 55 57 57 57 55 52 50 50 50 52 52 52 55 57 59 59 59 59 59 61 65 71 71 63 59 57 57 55 55 55 55 55 57 57 57 57 55 52 47 42 42 42 39 39 35 35 31 27 27 15 15 22 22 27 27 31 31 31 31 27 22 15 22 22 15 15 15 22 22 22 22 27 22 15 0 0 0 52
67 69 67 69 69 67 65 61 59 59 59 59 57 55 52 55 57 57 57 57 57 55 52 50 50 52 52 55 55 52 50 47 45 45 42 42 42 42 39 35 35 42 45 47 45 45 45 45 45 42 42 45 47 47 47 47 50 50 52 52 52 52 52 55 57 57 57 55 52 52 50 47 47 50 52 55 55 55 55 52 52 50 52 52 52 52 52 55 57 57 59 59 57 57 55 55 55 55 57 57 55 52 55 55 55 52 50 47 47 47 50 47 45 42 42 47 50 52 55 55 52 52 52 52 52 50 52 52 52 52 52 52 55 57 59 59 57 57 57 57 57 57 55 52 55 55 55 55 52 52 52 52 52 52 52 52 52 55 52 52 52 52 55 52 50 50 50 55 55 55 55 55 55 55 55 55 52 52 50 50 50 50 52 52 55 57 57 57 57 57 59 59 63 65 65 59 57 55 55 52 52 52 55 55 55 55 55 52 52 47 47 45 47 45 45 42 39 31 27 22 15 15 15 22 22 22 22 31 31 35 31 27 15 0 0 0 0 0 0 15 15 15 15 22 27 22 15 0 0 52
67 69 69 67 65 63 59 57 57 57 57 57 55 55 55 55 55 57 57 57 57 55 52 50 50 52 52 52 52 50 45 45 45 42 39 35 35 31 31 31 31 35 39 42 42 42 42 42 42 42 42 42 42 42 42 45 47 50 50 52 52 52 52 55 55 55 52 52 50 50 45 42 42 45 50 52 52 52 52 50 50 47 50 52 52 50 45 50 52 55 59 59 57 55 52 55 55 55 55 55 55 52 52 55 55 52 47 42 39 45 47 47 45 42 35 39 42 47 50 50 47 47 50 47 47 47 52 52 52 52 50 50 52 52 55 55 55 55 55 57 57 57 55 52 52 52 55 52 52 52 52 52 52 52 52 50 50 52 52 52 55 55 55 52 45 45 47 52 52 55 52 55 52 55 52 52 52 52 52 52 52 52 52 52 55 52 55 52 52 55 57 59 61 59 57 55 55 52 55 52 52 50 50 52 55 55 52 52 47 45 45 47 47 47 42 39 35 27 22 22 22 22 22 15 22 22 22 27 35 35 31 27 15 0 0 0 0 0 0 15 15 15 15 22 27 27 15 0 35 52
65 65 63 63 59 57 55 55 55 55 55 55 55 52 55 52 55 55 55 55 55 55 52 50 47 50 50 50 45 42 39 39 42 39 35 27 27 27 22 22 27 27 31 31 35 39 39 42 42 39 39 42 42 45 45 45 45 47 45 45 50 50 52 50 50 47 47 47 45 42 39 39 42 45 47 47 50 50 47 47 45 45 50 50 50 47 42 47 52 55 57 57 55 55 55 55 52 52 52 52 52 50 50 52 52 50 45 39 35 35 45 47 45 39 31 31 39 42 45 45 42 42 45 42 45 47 50 52 52 50 47 47 47 50 50 52 52 55 55 55 57 57 55 52 52 52 52 50 50 52 50 50 50 50 50 50 50 52 52 55 55 55 55 50 42 42 47 50 50 50 50 47 47 47 50 52 52 52 50 50 50 52 52 52 55 52 52 50 50 52 55 57 59 59 55 55 52 52 52 52 50 45 47 50 52 52 50 45 39 35 35 42 42 42 35 35 31 22 22 27 31 31 22 15 22 22 22 15 15 22 15 15 0 0 15 15 0 0 0 15 15 22 15 22 22 15 0 15 39 52
59 59 59 57 57 55 52 52 52 55 52 52 52 52 52 50 52 55 55 55 55 52 47 47 47 47 50 47 45 42 31 35 39 35 31 22 22 27 22 22 27 27 31 31 35 35 35 35 39 39 42 45 45 47 47 47 47 45 42 39 45 47 50 50 47 47 47 47 42 39 27 31 39 42 42 45 47 47 45 42 42 45 50 50 47 47 45 47 50 52 52 55 55 55 55 55 55 55 52 52 50 50 50 50 50 45 39 35 35 39 45 47 47 45 39 42 45 45 45 45 45 45 45 45 45 45 47 47 47 47 45 45 45 45 50 52 52 55 55 55 55 55 52 52 50 50 47 45 42 45 45 47 47 50 50 50 50 50 52 52 55 55 55 50 42 39 45 50 50 47 45 42 42 42 45 50 50 47 45 45 47 50 52 52 52 52 52 52 50 50 52 55 57 57 55 52 50 52 52 50 47 45 45 47 50 45 42 35 27 27 22 31 31 31 31 27 27 15 22 27 31 27 22 22 22 22 15 0 0 0 0 0 0 0 15 0 0 0 0 15 15 15 15 15 0 0 0 0 22 50
59 57 57 57 57 55 55 55 55 55 52 52 52 50 47 47 52 55 55 55 52 50 42 42 45 47 50 47 45 39 31 31 35 35 31 27 27 27 31 31 31 27 31 35 35 35 31 35 35 42 45 45 45 47 50 50 50 47 42 39 39 42 45 50 50 47 47 47 42 35 27 31 35 39 39 42 42 45 42 42 42 47 47 50 47 47 47 47 47 50 52 55 55 55 55 57 55 55 52 52 50 50 50 50 47 42 35 35 35 39 45 47 47 47 47 47 50 50 47 47 47 47 47 45 45 42 42 42 42 42 42 42 42 47 50 52 52 52 52 52 52 50 50 47 47 45 42 39 39 39 39 42 45 47 50 50 47 47 50 52 55 55 52 50 42 39 39 47 47 47 45 42 42 42 45 47 47 45 39 39 47 50 52 50 50 52 52 52 52 52 52 55 57 57 55 52 50 50 50 50 47 45 45 45 45 42 39 31 27 22 15 15 22 22 27 22 22 22 22 27 27 22 15 15 22 15 0 0 0 0 15 15 15 0 15 0 0 15 15 15 15 15 0 0 0 0 0 0 22 52
