P2
# Simple pgm image example
250 360
255
88 127 128 131 130 127 125 126 130 131 130 126 121 122 129 128 125 129 131 127 124 128 131 128 129 127 125 125 126 129 128 126 129 129 128 128 127 129 130 126 125 126 127 126 125 123 123 128 131 130 126 122 124 129 131 131 128 128 127 125 126 126 125 124 128 131 129 128 127 125 125 125 128 130 129 126 125 122 126 131 128 127 125 123 125 129 130 129 129 131 129 125 126 129 128 126 127 126 125 129 129 125 126 126 123 126 130 129 127 124 124 126 127 127 127 133 134 127 125 126 128 129 128 125 125 127 128 126 127 128 129 129 123 122 127 131 131 129 127 127 126 127 128 127 125 125 129 129 127 125 128 129 128 126 126 129 129 127 127 127 128 128 127 126 126 125 125 126 128 127 125 127 129 127 127 131 132 129 123 122 129 132 130 127 125 126 128 129 127 127 126 126 127 127 126 126 126 126 127 129 129 127 127 126 126 127 127 128 128 128 128 127 127 126 124 125 128 127 126 125 126 128 128 130 130 127 128 129 128 127 127 128 127 127 127 126 127 127 127 125 124 126 129 129 128 129 127 127 127 154
75 129 129 131 129 127 127 130 131 129 128 126 120 121 129 129 124 127 132 128 123 130 133 129 130 127 124 124 126 131 131 128 127 126 127 130 127 128 130 128 125 125 128 126 126 126 124 127 131 129 125 123 126 130 131 129 127 128 126 125 126 124 123 124 129 131 128 128 127 125 126 126 126 129 129 127 126 120 125 131 127 127 126 123 126 129 129 128 129 131 126 121 125 134 132 127 126 125 123 129 130 124 124 125 122 127 133 128 125 124 124 127 127 127 127 135 135 127 125 126 128 128 127 126 126 128 128 125 126 128 128 128 123 121 127 133 132 128 127 127 126 128 128 128 127 126 128 129 127 125 128 131 128 125 125 129 129 127 126 127 128 128 126 126 126 125 125 126 127 126 124 128 131 127 128 132 132 129 125 123 126 130 130 127 125 126 129 129 127 126 126 126 127 127 126 127 125 123 128 131 130 127 126 125 125 127 128 128 129 129 127 127 128 125 123 126 128 125 125 126 128 129 129 131 130 128 128 128 128 127 128 127 126 127 127 126 127 127 127 125 125 126 129 129 129 129 127 126 126 162
74 130 131 129 125 125 131 135 130 128 126 125 122 122 128 129 125 126 131 128 124 130 132 129 130 128 124 125 126 130 133 130 125 122 126 131 127 125 127 129 127 125 127 126 128 130 127 126 128 128 126 125 127 130 129 125 124 129 128 126 126 122 123 126 130 130 127 128 127 125 127 129 126 126 128 126 126 123 124 129 127 130 130 125 126 128 128 126 125 129 127 120 125 136 134 128 127 124 123 128 129 124 124 125 125 131 132 125 121 124 128 128 127 127 128 134 133 128 126 127 127 125 127 129 126 127 127 125 126 128 125 125 127 125 127 131 131 128 127 126 126 128 129 131 128 127 127 127 127 125 128 132 129 126 126 128 128 127 126 127 127 127 125 125 127 126 126 127 126 125 125 128 130 128 129 131 130 128 126 125 125 128 129 128 127 127 128 128 126 126 127 126 127 127 126 127 125 123 128 132 129 127 126 124 125 128 129 128 129 129 127 127 128 125 123 127 127 122 124 131 131 129 130 130 128 129 129 128 128 128 129 126 125 127 127 127 127 127 126 125 125 127 128 129 129 129 126 125 126 162
72 129 132 128 123 124 134 137 129 127 125 124 123 123 129 130 126 126 131 129 124 130 132 127 128 128 125 128 128 128 131 130 125 122 124 132 129 124 124 127 129 126 125 125 128 132 129 128 128 127 127 125 126 128 129 125 122 128 130 128 127 124 123 126 129 127 126 129 127 124 127 130 126 125 128 123 125 127 125 127 128 131 132 127 124 126 130 126 120 126 131 124 125 135 132 129 130 125 124 127 128 125 124 124 128 133 129 121 119 123 129 129 127 128 130 134 131 127 129 129 124 121 129 132 123 122 123 126 128 127 124 124 131 134 130 128 127 128 128 126 127 127 130 132 128 127 127 127 127 126 129 132 129 127 127 127 127 126 126 126 126 126 124 124 127 127 128 128 127 126 126 128 128 127 130 131 129 126 126 127 126 127 129 129 128 127 127 127 125 126 128 126 125 126 127 126 125 124 128 132 129 127 125 123 125 130 130 127 128 129 128 125 127 127 124 127 127 122 126 132 131 128 129 127 126 129 128 129 130 128 128 126 125 127 127 127 127 128 126 124 125 127 128 130 129 128 126 126 128 162
70 128 133 131 125 126 135 135 128 126 124 126 125 123 128 129 126 125 129 129 125 132 131 124 125 126 127 131 131 128 128 127 126 124 124 131 131 125 122 124 129 128 123 123 129 133 131 129 129 126 126 124 124 127 131 128 122 127 130 128 128 126 123 124 126 124 124 129 130 126 127 128 126 127 128 123 125 128 126 127 128 130 132 129 124 126 130 126 120 124 130 126 126 132 130 129 131 126 125 127 127 127 125 123 129 132 126 122 122 122 125 127 130 130 131 133 127 125 132 131 121 118 128 131 121 119 121 125 128 127 124 126 136 141 133 126 124 127 128 126 127 127 130 132 127 127 130 129 127 126 130 133 130 127 127 128 127 125 126 126 126 127 124 123 126 129 130 129 127 126 127 128 126 126 131 132 128 125 125 127 127 128 129 128 129 127 127 127 126 125 127 127 123 123 126 126 126 127 130 131 129 127 124 122 124 131 132 128 127 129 128 124 127 129 125 126 128 127 128 129 129 128 129 126 126 129 129 129 130 127 127 126 126 128 127 126 128 128 127 125 125 126 127 129 129 127 127 127 129 162
68 128 133 133 130 130 132 130 127 126 126 127 126 124 126 128 126 122 126 128 129 133 129 123 124 126 128 132 133 129 127 126 128 127 125 129 130 126 123 123 128 129 122 123 129 132 132 129 128 126 124 122 122 128 131 129 126 128 129 128 129 125 121 124 125 122 123 130 134 129 125 124 127 131 129 123 125 128 127 127 126 127 131 131 127 127 127 124 122 125 127 126 127 131 129 128 129 126 125 127 127 127 126 124 127 129 127 123 124 124 122 124 132 133 131 131 124 123 132 131 121 118 127 128 121 120 120 123 127 128 127 129 138 141 132 124 124 127 127 122 125 130 133 133 127 126 132 132 126 124 131 135 130 126 127 129 127 125 126 126 127 129 125 123 125 129 131 130 127 124 126 128 125 127 133 132 128 125 125 127 125 127 128 127 128 127 127 129 127 124 126 128 124 121 124 126 126 129 132 129 128 127 123 122 126 131 133 129 128 129 126 124 129 130 125 125 129 130 128 128 127 128 128 127 126 129 130 129 129 127 126 125 126 128 127 126 128 129 127 127 126 125 126 128 127 127 128 128 129 162
69 128 132 131 131 133 129 127 127 129 129 125 124 126 127 127 125 120 125 130 131 132 127 124 126 127 128 131 132 131 127 126 129 129 125 125 128 127 124 125 127 128 124 124 129 130 129 129 129 125 122 121 123 130 130 129 130 129 128 128 129 123 119 126 126 121 125 132 133 128 123 123 129 134 129 123 124 128 128 127 126 126 129 131 130 127 123 124 125 126 126 126 130 133 130 126 126 125 126 127 127 126 125 125 124 126 129 125 125 127 124 125 133 133 128 129 124 121 127 129 123 122 126 127 122 121 122 125 127 129 130 131 134 135 129 124 125 130 126 118 125 134 136 134 127 127 134 134 126 124 131 135 129 125 126 129 128 127 127 126 128 129 125 123 124 127 132 131 127 123 125 127 124 127 133 133 128 125 126 126 122 124 130 130 127 126 127 130 129 124 124 127 126 123 124 124 125 131 133 130 128 124 123 125 128 131 131 128 129 128 126 127 130 129 125 125 129 128 128 129 127 127 128 127 127 129 131 129 128 127 125 125 126 128 128 126 129 130 127 127 126 125 127 128 125 126 129 129 129 163
72 125 130 128 130 133 128 125 126 130 132 127 123 127 129 127 123 120 128 132 129 128 127 127 127 126 128 129 130 131 129 129 130 129 124 122 127 128 124 125 126 128 127 124 127 128 126 130 131 124 120 122 124 129 128 130 131 129 129 130 129 122 119 127 127 121 128 133 129 126 123 123 130 135 129 122 123 127 127 128 128 127 127 129 131 126 121 124 126 126 127 129 132 133 130 125 123 124 126 127 127 125 126 125 122 125 128 127 127 126 127 130 135 131 125 128 126 120 122 126 125 126 128 128 122 119 123 128 131 129 130 131 129 128 127 126 126 129 125 120 128 133 134 135 130 129 132 132 127 126 131 135 130 126 126 127 128 127 126 128 129 128 123 123 126 127 132 133 127 124 125 125 123 126 132 133 129 127 127 125 120 121 131 133 128 124 126 131 130 126 124 126 128 126 125 123 123 130 133 131 126 121 124 130 129 129 130 129 129 128 128 129 129 127 125 128 129 125 126 129 128 129 128 127 127 129 130 129 128 126 126 126 126 128 128 127 129 130 127 125 125 126 129 128 124 124 129 129 129 163
73 119 129 132 130 131 128 126 126 128 134 132 125 128 129 125 120 122 131 132 125 124 129 130 126 124 129 129 128 129 130 132 130 128 123 122 128 128 124 124 126 128 127 124 125 127 127 130 132 125 119 121 125 127 128 130 130 130 130 130 129 124 120 128 130 122 127 130 127 126 122 122 129 132 128 124 124 126 126 127 129 128 126 127 129 126 123 126 126 126 129 132 131 130 129 126 123 123 125 127 126 125 127 126 121 123 129 128 127 125 128 134 136 130 125 127 126 122 122 125 127 129 130 127 120 117 124 131 134 129 128 129 125 123 127 129 127 125 123 126 130 128 131 135 131 130 129 128 129 127 131 135 132 127 126 126 127 126 126 129 130 127 121 122 128 129 134 133 127 126 127 125 122 124 130 133 130 127 127 125 121 122 129 132 129 124 125 130 129 127 126 126 128 127 127 126 124 128 131 129 123 119 126 130 127 129 131 128 127 129 130 129 127 126 126 130 130 125 124 127 129 131 129 126 126 129 130 128 127 126 126 127 127 127 127 127 130 130 127 125 124 126 128 127 124 125 128 130 130 164
71 115 130 137 130 129 128 126 126 127 134 133 127 128 128 124 119 123 132 130 122 124 131 131 126 124 128 131 130 127 130 133 129 125 123 125 129 127 123 123 126 128 126 124 127 127 127 128 130 126 118 121 126 127 129 129 129 131 133 130 128 126 121 127 132 124 125 126 127 127 122 123 129 129 126 126 127 127 124 123 127 129 126 125 129 129 126 128 128 126 130 132 129 127 127 127 125 123 123 126 126 125 129 127 118 122 129 128 128 128 129 131 133 133 129 125 124 125 124 124 126 128 131 129 117 116 127 134 136 130 126 127 125 125 129 129 126 123 123 128 128 125 130 134 131 128 126 128 131 129 131 134 130 128 129 128 125 123 125 130 129 127 121 121 129 133 137 133 126 126 128 126 122 122 129 133 130 127 124 123 127 127 127 129 128 125 126 128 126 127 129 129 127 125 128 129 126 126 129 128 119 119 128 128 126 132 133 126 126 131 131 130 128 126 125 130 132 126 122 125 130 132 129 125 125 129 129 127 128 128 127 126 127 128 127 127 129 129 128 127 125 125 127 126 125 126 128 130 130 163
70 117 131 138 130 129 127 126 129 129 131 132 129 127 127 124 120 123 132 129 121 127 132 130 127 124 126 132 134 128 128 131 127 124 124 129 129 123 121 126 127 128 127 125 127 126 126 127 127 124 119 123 128 129 129 127 128 133 135 131 127 126 124 126 129 126 125 126 127 127 123 124 127 126 125 127 129 127 124 122 126 129 124 123 130 131 128 129 130 128 129 131 127 124 126 128 126 122 122 126 128 127 129 124 117 122 128 127 131 132 128 127 131 135 133 125 123 125 123 123 125 124 131 131 115 116 129 134 136 130 125 126 127 130 130 127 126 123 124 128 126 126 130 133 130 125 126 130 131 130 133 132 124 125 131 133 125 120 127 132 127 126 123 122 130 136 137 132 126 126 128 127 124 122 128 132 129 126 119 120 133 134 126 126 127 126 127 127 125 126 128 130 127 124 128 130 128 126 128 128 118 117 127 127 127 133 133 125 128 132 130 131 131 127 124 129 132 127 122 125 130 130 128 126 125 128 127 127 129 129 128 126 127 129 128 126 127 127 129 129 126 125 125 126 125 127 129 130 130 163
70 121 131 134 130 129 127 125 129 131 130 130 130 127 125 124 124 125 129 127 122 129 132 129 128 124 125 131 134 130 127 129 128 125 124 128 128 121 122 127 126 128 127 124 126 126 128 128 124 120 119 125 128 129 128 126 128 133 136 133 128 125 127 126 126 127 126 128 128 125 123 123 125 125 125 127 128 127 124 123 126 129 122 122 129 131 129 129 131 131 130 128 126 124 125 127 125 121 121 126 131 131 127 122 120 124 126 126 131 132 128 126 130 135 133 126 121 121 122 124 126 124 129 129 116 120 132 132 134 132 127 127 129 131 129 127 128 126 125 126 126 127 130 131 126 124 128 131 129 129 134 131 122 123 130 135 127 119 128 134 129 127 126 124 130 135 134 131 127 126 126 127 126 125 129 130 128 126 119 121 135 134 125 125 125 126 128 129 127 126 126 129 128 126 127 129 127 125 127 129 122 119 125 128 127 128 128 125 130 132 127 130 132 128 124 127 131 127 125 126 128 128 128 127 126 127 126 127 129 128 127 126 127 129 129 127 126 127 129 128 125 125 126 126 126 127 130 130 129 164
73 125 128 130 130 131 130 126 128 130 129 128 128 127 125 124 127 127 126 126 125 131 131 129 129 126 125 128 132 130 127 128 128 127 125 127 127 123 125 125 123 127 128 124 123 127 132 128 123 119 119 126 127 127 128 127 128 133 135 134 130 125 127 126 126 129 127 127 128 125 124 123 125 126 126 126 126 128 125 124 125 127 123 123 127 129 128 127 129 134 131 125 126 127 127 127 124 120 120 125 132 132 127 122 122 125 124 124 128 129 128 127 130 134 134 127 121 119 121 125 127 126 126 124 117 127 134 129 132 133 129 129 130 129 125 126 130 130 126 125 127 129 130 129 125 126 128 127 128 130 132 130 125 123 128 133 127 120 127 136 134 130 127 127 130 131 131 130 128 126 123 126 129 130 130 128 127 127 124 124 130 130 125 126 126 125 128 130 129 127 126 127 128 127 127 128 127 125 126 129 126 122 126 129 126 123 123 126 132 132 126 129 132 128 124 128 130 127 126 128 128 127 128 128 126 127 127 127 127 126 127 127 127 129 129 128 127 127 129 127 124 125 127 127 126 126 128 129 129 165
74 127 127 127 129 131 131 129 128 129 128 127 128 126 124 124 127 127 126 127 127 130 129 129 130 128 125 128 132 130 127 127 128 127 126 127 127 125 125 124 123 126 127 126 122 126 133 126 123 122 120 125 126 124 127 129 129 133 134 133 131 124 122 125 128 131 128 125 126 126 124 125 126 127 127 124 123 129 128 124 123 125 126 127 127 126 124 125 129 133 129 124 128 129 128 128 125 121 119 123 130 131 127 123 123 126 125 124 126 126 128 130 130 134 134 127 121 121 122 124 128 128 127 123 120 130 131 124 129 130 129 132 132 126 124 125 130 132 129 127 127 128 128 128 127 128 124 122 130 134 129 128 128 126 130 132 126 120 125 135 137 133 128 129 130 128 129 129 127 125 121 124 132 135 132 127 126 127 127 127 127 127 125 126 125 124 128 131 129 127 127 126 127 127 127 128 127 126 126 128 127 124 126 128 125 122 123 126 131 132 126 128 131 126 124 130 131 126 127 129 128 127 128 127 126 127 127 127 125 125 127 128 128 129 129 128 128 128 128 126 124 125 127 127 126 126 128 129 129 165
73 128 128 126 128 129 128 130 130 129 130 131 129 124 123 125 126 126 128 129 127 128 127 128 130 129 125 128 132 129 128 127 126 126 127 127 127 124 124 126 126 126 126 126 123 126 129 125 125 125 123 126 127 124 125 130 130 131 132 132 130 122 119 124 128 131 129 125 126 126 124 127 129 127 127 122 121 130 131 123 119 124 129 130 129 126 122 125 131 129 123 125 131 130 129 130 127 122 120 121 127 130 125 122 124 129 128 123 123 124 129 133 131 132 132 125 122 126 126 125 129 130 129 128 127 129 125 119 124 129 129 133 130 124 126 125 126 129 130 128 125 124 125 129 132 132 122 120 132 136 128 126 130 132 133 130 123 118 124 135 139 134 128 128 130 128 127 127 126 125 121 124 133 136 134 128 126 127 127 128 128 126 125 125 124 124 128 130 129 127 126 126 127 127 128 129 128 127 127 128 125 124 126 127 125 124 126 125 128 130 128 128 130 127 125 129 131 126 126 129 128 128 128 125 124 127 128 127 125 126 128 128 129 130 129 128 127 129 129 127 125 125 126 127 126 128 129 128 129 164
71 124 128 128 129 129 126 127 129 129 132 134 131 123 121 125 126 127 132 131 127 127 127 127 129 130 126 127 131 130 128 126 125 127 128 127 126 124 124 126 128 128 125 122 125 129 125 123 126 126 127 130 129 124 124 130 130 128 129 130 129 123 122 125 127 130 129 126 129 127 124 127 128 126 124 122 123 131 129 119 118 127 131 131 130 127 124 126 130 125 121 127 132 129 128 131 129 124 120 119 126 129 122 119 125 132 129 122 123 125 129 132 132 133 131 125 125 132 133 131 132 130 129 133 133 128 123 120 123 128 128 127 124 124 128 125 121 123 127 126 121 118 122 128 137 136 124 123 131 133 128 125 131 137 135 126 121 121 126 135 138 132 126 126 129 129 127 126 125 126 125 124 130 134 135 130 126 126 126 129 129 127 125 124 124 125 128 129 128 127 127 127 126 126 127 129 130 127 125 128 126 123 126 128 126 125 126 125 127 130 129 129 129 129 126 128 131 126 125 129 128 129 128 124 123 127 128 126 125 127 127 128 131 130 128 126 126 130 130 128 125 125 126 127 126 128 129 129 129 164
68 121 127 131 133 130 126 126 128 129 132 135 132 124 122 126 126 127 133 133 126 126 127 127 128 128 126 126 130 131 128 126 125 127 128 128 128 126 124 124 128 130 126 122 126 129 124 122 124 127 131 131 127 124 126 129 128 125 127 129 128 125 125 126 125 126 129 129 132 129 126 126 124 123 124 124 126 130 126 117 120 130 132 130 127 126 127 127 128 124 122 129 133 127 125 130 131 126 120 119 127 128 119 118 125 131 127 123 127 128 128 131 135 138 136 131 131 137 138 135 133 129 127 132 133 128 125 125 126 127 126 124 123 125 126 123 118 119 122 122 117 116 118 125 132 131 126 127 128 127 128 129 131 137 133 123 122 128 130 132 132 129 127 126 127 130 130 127 124 126 128 126 128 131 135 132 127 127 126 128 129 128 125 123 125 126 128 128 126 127 128 127 126 126 126 128 129 125 123 129 129 122 126 131 127 124 124 126 129 130 129 128 129 130 127 127 128 127 127 127 128 129 128 124 123 126 126 124 127 128 127 129 132 130 127 125 125 130 130 127 125 124 128 128 126 128 128 129 130 164
66 124 127 133 134 129 126 127 128 128 130 133 131 126 123 126 127 127 133 134 127 126 128 127 127 126 123 124 130 132 129 127 125 126 129 130 129 127 126 125 127 129 126 125 127 126 123 122 123 128 131 129 124 126 130 129 125 124 127 129 126 125 127 128 124 124 128 129 133 131 128 128 122 122 125 125 128 131 126 119 122 128 130 129 127 126 127 127 128 125 124 129 131 124 122 131 132 127 121 121 126 123 117 119 125 130 127 126 131 134 133 135 141 144 142 136 133 135 135 133 131 127 126 129 130 128 127 127 127 127 127 126 126 126 124 121 120 121 122 119 117 115 116 120 118 119 125 127 125 123 130 133 131 134 130 122 127 134 131 126 127 128 128 129 128 129 131 128 122 125 128 128 132 133 133 130 128 129 126 126 128 129 125 124 126 126 126 126 126 128 130 128 126 126 126 128 127 123 123 131 129 121 127 134 129 121 123 130 132 129 125 126 128 131 130 126 125 126 128 127 129 129 128 125 124 125 123 123 127 130 129 129 130 129 128 125 126 131 131 126 124 125 129 129 126 126 127 128 130 165
68 128 127 132 133 126 125 127 129 128 129 131 129 126 124 127 130 128 131 134 128 126 127 126 126 125 120 122 132 135 129 126 125 126 131 131 128 128 128 127 128 127 126 127 127 123 123 122 123 127 128 127 125 126 129 129 125 126 130 129 124 124 127 129 128 127 125 126 133 130 127 129 123 124 127 123 126 130 128 123 122 125 127 127 128 128 126 126 128 128 125 128 130 123 123 132 132 127 124 122 122 119 118 121 127 129 129 133 140 143 144 143 143 141 138 134 129 129 129 128 128 127 126 127 129 128 127 127 127 127 128 129 128 127 125 124 125 125 124 121 119 118 117 117 108 110 117 120 120 121 131 133 130 132 129 124 130 134 131 125 126 128 128 131 130 127 130 128 122 125 127 127 137 139 131 126 126 129 127 127 129 128 124 125 127 126 123 125 127 130 130 128 127 128 128 127 125 121 124 132 127 121 127 133 128 121 124 132 133 128 123 126 129 131 130 126 124 125 127 129 130 128 126 124 124 125 125 123 124 130 132 128 128 128 129 127 127 131 130 126 124 126 129 129 127 125 125 128 129 166
71 131 129 129 128 125 125 127 129 128 128 130 126 123 124 129 133 130 131 135 129 125 126 125 125 126 121 122 132 135 129 127 126 127 131 130 128 129 127 127 128 126 126 127 126 124 124 122 123 125 124 129 130 125 124 128 128 128 130 128 125 124 125 129 131 130 124 122 131 130 127 129 123 125 130 123 123 128 128 125 122 125 127 127 127 127 127 127 128 130 126 125 129 125 126 131 129 127 125 120 118 120 122 126 130 134 136 142 149 145 143 142 137 132 130 129 127 126 126 127 128 127 126 127 128 128 127 127 127 127 128 129 129 127 126 126 128 128 127 125 124 123 121 118 112 112 108 107 112 117 129 131 127 130 130 128 128 131 132 129 128 127 128 131 131 128 130 129 124 125 127 126 136 140 131 126 125 127 127 127 128 127 123 124 129 127 122 124 128 129 130 128 129 130 129 126 124 123 126 131 124 121 128 130 126 123 125 131 132 127 125 127 129 129 129 129 127 125 126 129 129 127 125 123 123 125 127 126 124 128 131 130 129 127 128 128 128 131 130 126 125 127 128 129 128 124 123 128 130 167
74 132 130 125 122 125 127 127 128 126 127 130 124 121 124 129 134 132 131 133 129 125 128 126 123 125 123 124 132 132 128 127 127 128 131 130 128 128 127 126 127 126 128 126 124 126 126 122 123 126 125 130 132 126 122 125 128 130 128 128 127 125 124 127 131 132 124 121 130 129 127 129 123 126 130 121 123 128 127 125 123 126 130 127 125 125 128 128 128 130 126 125 129 128 127 128 127 127 124 117 117 124 127 134 139 144 146 146 145 137 133 133 130 127 127 128 127 126 126 127 128 127 127 127 128 128 127 127 127 127 127 129 128 126 125 127 128 128 128 128 127 127 125 123 122 120 110 106 105 109 121 123 122 126 129 127 125 129 135 135 131 127 127 130 131 130 127 126 126 128 128 126 131 134 131 129 126 126 127 127 126 126 123 123 128 129 126 124 125 129 130 128 129 132 131 125 124 126 128 129 122 123 129 126 123 124 126 130 130 128 127 127 127 129 129 130 130 127 126 128 129 127 125 123 122 124 126 129 126 124 127 133 134 127 126 128 128 130 131 127 127 128 128 128 126 122 123 128 131 168
77 133 129 122 120 126 128 129 128 122 123 130 125 121 127 130 133 133 130 131 129 126 131 128 121 123 124 126 133 131 124 126 129 129 131 130 129 128 126 126 126 127 128 125 124 126 127 123 122 128 129 130 130 125 122 122 126 131 129 128 129 127 126 127 129 130 124 121 127 127 126 127 126 130 127 119 125 129 125 125 123 126 134 131 124 123 126 127 128 129 126 128 133 130 124 124 127 127 124 119 120 129 136 145 148 147 146 140 133 128 127 127 128 127 127 129 127 126 126 128 128 127 127 127 128 128 127 128 128 127 127 127 127 126 126 127 127 128 128 129 128 128 127 126 127 126 121 116 110 107 109 112 115 118 125 124 122 128 136 140 135 130 129 130 131 129 124 122 125 131 131 129 129 129 130 130 128 127 127 125 125 127 126 123 125 130 130 123 121 128 130 127 127 131 132 126 126 128 129 128 122 125 128 123 123 124 126 130 131 129 128 127 126 128 128 129 131 129 127 127 128 128 127 123 122 124 126 129 125 120 126 134 135 128 126 127 125 129 132 128 128 129 129 127 124 121 123 130 133 169
76 130 129 122 122 127 127 129 131 120 120 130 125 123 131 131 131 132 129 130 128 128 132 127 121 122 124 126 133 131 122 125 130 132 133 130 128 127 125 125 128 129 126 121 123 128 129 126 122 127 130 129 129 124 120 121 126 132 130 129 128 127 130 129 127 126 123 123 126 125 124 125 131 134 125 119 125 128 124 125 123 126 136 132 123 121 123 126 129 127 125 131 137 132 122 120 125 126 126 125 127 135 146 152 149 142 136 131 127 125 125 126 127 127 128 130 128 127 127 128 128 127 126 127 128 128 127 128 129 127 126 127 126 126 127 127 126 127 127 128 128 128 128 127 128 128 126 123 121 117 109 108 107 107 115 119 121 127 135 138 135 132 133 132 129 125 123 122 124 131 132 132 130 128 130 128 128 129 126 123 125 130 128 123 124 129 130 125 121 124 129 129 127 129 130 127 128 129 130 128 122 124 125 123 125 123 126 132 133 132 129 126 126 125 124 128 133 131 127 127 127 129 129 122 121 126 128 127 122 120 129 134 134 129 127 124 124 130 133 128 128 130 129 126 123 122 124 130 133 169
72 128 130 126 125 129 124 126 132 122 122 129 125 125 131 132 132 132 129 129 128 129 130 125 124 123 123 125 129 129 122 125 130 133 134 129 128 128 125 126 129 130 125 118 122 130 131 128 125 126 127 128 130 124 118 120 127 133 131 128 126 126 131 130 127 124 123 127 128 124 121 125 134 135 125 120 124 124 122 124 126 129 134 130 123 121 124 126 128 126 124 130 135 132 124 122 125 126 133 137 134 142 150 148 142 134 128 128 127 126 125 126 126 125 128 131 129 127 127 127 128 128 126 126 128 128 127 128 128 126 126 128 127 125 126 128 127 126 127 128 127 127 128 129 128 128 127 125 126 125 120 115 107 100 102 109 118 128 133 133 134 136 135 130 126 125 125 124 124 128 130 132 132 132 131 126 125 128 127 124 127 131 127 124 126 126 128 128 123 121 127 131 129 127 127 126 126 129 130 127 122 121 122 124 128 124 127 132 133 137 132 125 124 122 123 130 134 129 125 127 128 130 130 121 120 128 128 126 123 124 131 135 132 129 127 123 124 131 133 126 126 130 130 127 125 124 125 130 132 168
69 128 132 129 129 130 123 121 128 125 125 128 125 126 129 132 134 132 130 128 127 130 130 125 125 124 124 126 126 124 123 127 130 132 133 128 129 129 126 126 129 130 125 117 121 132 132 128 128 127 125 125 128 126 120 119 126 133 132 127 126 126 131 129 126 127 125 128 131 125 120 125 133 133 125 120 121 122 122 127 128 128 129 129 125 123 125 126 127 125 124 128 131 130 126 126 127 130 143 147 142 145 145 138 132 128 127 127 127 126 126 126 125 125 129 132 129 127 127 127 128 129 128 126 126 128 128 127 127 126 127 129 127 125 125 128 128 127 127 127 127 126 128 129 128 128 127 126 126 126 126 123 117 108 97 95 107 123 130 130 134 137 134 126 123 128 130 126 126 128 128 131 132 133 133 128 123 124 126 127 130 131 125 123 127 125 127 129 124 122 126 131 130 127 127 125 125 130 130 127 122 118 121 127 127 126 129 130 132 139 135 126 124 121 123 131 134 126 121 127 131 131 130 123 121 126 127 126 126 127 131 134 132 128 125 122 125 132 133 124 123 129 130 128 128 126 126 129 130 168
68 130 133 132 130 129 124 121 125 125 126 128 126 126 129 132 133 130 130 130 127 131 131 125 123 125 124 126 126 121 122 129 132 131 130 128 129 128 125 127 129 129 124 116 121 133 134 130 129 129 125 123 125 127 123 118 124 134 131 126 128 130 131 126 126 130 127 126 130 127 124 126 129 131 123 117 120 122 125 130 127 125 127 130 127 124 126 126 126 125 123 126 129 128 126 127 132 141 150 151 146 141 134 129 127 127 127 127 127 126 125 125 125 126 131 131 128 127 127 127 127 129 129 127 126 127 128 126 126 128 129 128 127 125 125 127 128 127 127 127 127 127 127 128 128 127 127 127 127 126 126 126 125 121 107 93 97 107 120 130 134 134 131 125 122 131 135 127 127 131 130 130 128 129 134 131 124 121 125 130 130 131 124 122 127 126 127 128 124 124 126 127 128 128 129 126 126 132 129 125 123 120 122 125 124 128 133 132 131 135 134 131 127 119 120 130 134 126 119 126 133 131 129 125 124 126 128 127 125 128 129 132 133 129 124 122 126 131 132 124 121 128 129 128 129 128 128 129 130 167
67 131 134 134 128 126 127 125 123 123 125 127 128 127 128 131 130 126 129 131 128 132 133 125 122 123 124 127 128 123 121 129 133 130 129 130 129 126 125 128 128 125 122 117 123 134 135 131 130 129 125 123 124 128 125 118 124 132 130 127 130 133 132 125 125 130 128 124 128 128 127 127 128 128 120 115 119 123 129 132 125 123 128 131 128 124 126 129 126 124 124 126 129 129 127 129 142 151 152 149 142 133 128 127 127 127 127 128 127 125 124 123 125 129 131 131 128 128 128 127 127 128 128 128 127 126 126 126 127 129 129 128 127 126 125 127 128 127 127 127 128 127 127 127 128 126 126 128 128 127 126 126 126 127 120 108 100 94 102 120 130 130 128 125 124 132 136 130 129 133 132 130 124 124 132 133 127 122 125 129 130 133 126 121 126 125 127 127 123 124 127 126 126 128 130 127 128 133 128 122 123 121 122 123 123 129 135 134 131 131 132 135 130 118 118 129 135 127 119 126 134 131 128 126 124 128 132 129 123 125 127 129 132 131 125 123 126 128 130 124 123 129 128 127 129 130 129 130 131 167
66 130 136 134 126 126 129 129 124 123 125 125 128 129 127 128 127 126 129 130 128 132 133 128 123 120 121 126 130 127 122 127 131 130 130 130 130 128 125 127 126 123 122 119 125 133 132 129 129 130 126 126 127 128 124 118 125 133 132 130 129 130 130 126 126 130 127 122 128 129 127 126 127 127 119 116 120 124 133 133 123 124 129 128 127 124 127 131 125 120 123 127 129 130 131 140 152 153 146 141 134 127 127 128 128 127 127 128 127 126 123 119 125 132 132 130 128 128 128 127 127 127 127 128 129 126 125 127 128 128 128 128 126 126 126 127 127 127 127 127 128 128 127 127 127 127 126 127 128 127 127 126 126 127 127 122 114 99 91 99 117 128 127 125 126 129 133 133 132 134 132 130 127 124 130 132 128 126 127 126 128 133 128 123 125 125 128 127 123 123 125 127 127 128 129 129 129 131 127 120 121 120 122 126 124 128 133 135 133 131 131 136 131 118 119 129 133 126 120 129 135 130 128 126 125 128 133 130 123 124 127 125 129 133 127 124 125 127 128 122 125 131 128 125 128 130 129 132 133 167
68 130 133 130 126 127 131 131 126 124 124 123 128 130 127 125 125 126 128 129 129 130 132 130 127 118 117 127 130 128 124 126 129 131 132 130 128 129 124 124 125 123 122 120 125 131 131 129 127 128 128 127 127 128 124 120 126 136 136 130 127 127 127 126 128 131 126 122 130 131 125 124 126 126 119 118 122 124 132 132 123 127 130 125 124 125 128 131 123 118 122 129 132 132 139 152 157 148 135 131 131 128 126 128 128 128 127 127 127 126 122 116 126 136 132 129 128 128 128 127 127 127 127 128 129 127 125 126 128 128 128 128 126 126 127 127 127 127 127 128 128 128 127 127 127 127 127 126 127 128 127 127 126 127 128 126 123 115 98 83 96 121 128 128 127 126 130 132 132 134 131 129 131 129 131 129 125 129 130 126 127 129 128 128 126 126 129 126 124 124 125 128 129 128 127 128 126 127 126 120 119 119 124 131 127 125 130 135 136 132 131 135 131 120 122 128 127 123 122 131 136 130 126 126 127 128 132 130 123 125 129 123 124 130 127 125 126 128 128 121 125 132 130 126 127 130 128 133 135 168
71 131 128 126 124 129 133 134 128 124 122 123 128 131 128 124 125 127 126 129 129 128 130 130 129 120 118 127 130 128 126 126 129 135 135 129 125 124 121 123 126 125 123 122 125 129 131 131 126 124 127 128 127 128 126 123 128 137 136 127 125 126 126 127 131 131 125 122 130 131 124 122 124 125 121 122 127 125 128 129 126 128 128 124 122 126 129 128 121 119 125 132 135 137 150 159 153 139 127 125 130 129 127 127 127 128 128 127 127 126 121 117 128 136 131 129 128 128 127 127 127 127 127 128 129 127 126 126 127 127 128 128 126 126 128 127 127 127 127 128 128 128 127 127 126 126 127 127 127 128 127 126 126 127 127 127 126 124 112 88 83 105 124 129 128 125 128 130 129 133 132 129 131 133 134 127 123 131 132 127 126 126 127 130 128 126 129 127 127 128 128 129 128 128 127 123 122 125 124 121 120 121 128 133 126 123 128 135 137 133 130 132 132 122 122 126 124 122 124 132 136 130 125 126 127 130 133 131 124 123 128 125 123 127 127 126 126 130 130 122 122 129 131 128 129 131 128 133 135 168
71 130 125 124 122 130 136 134 129 124 122 122 128 133 128 121 126 131 127 127 129 129 128 127 127 122 123 128 128 127 128 127 131 138 135 127 125 121 118 122 127 125 124 126 127 127 130 130 124 120 124 130 130 129 127 125 128 136 135 126 124 126 126 129 133 132 126 123 128 131 125 120 121 125 124 126 130 126 126 128 126 126 125 125 124 126 126 123 123 124 128 133 137 149 161 156 141 130 125 125 128 129 127 127 126 128 128 127 127 125 121 120 131 135 129 128 128 128 127 127 127 127 127 128 128 127 127 127 127 126 128 128 127 127 127 127 127 126 126 128 128 127 127 127 126 126 128 128 127 127 127 126 126 128 128 127 126 126 122 107 88 88 108 124 128 124 126 129 128 130 132 131 131 134 135 125 122 131 133 129 128 127 127 128 126 126 128 129 129 130 133 130 126 127 128 118 117 124 122 121 123 126 131 130 125 124 129 137 138 133 129 128 130 122 118 126 127 124 126 132 133 127 125 126 126 132 135 132 126 121 122 126 126 127 127 125 125 131 132 122 119 125 131 132 132 132 129 132 133 167
68 127 126 124 122 131 136 131 129 124 122 124 128 132 127 120 128 134 128 126 128 131 128 125 126 125 126 127 126 128 131 131 133 137 131 125 126 121 117 121 126 126 125 129 129 126 128 128 122 118 124 133 133 129 126 124 127 135 135 128 126 125 126 130 133 132 127 125 128 131 124 116 119 127 127 127 129 126 127 129 126 125 123 125 126 126 123 121 126 128 128 131 144 163 164 146 131 127 126 127 127 128 128 127 127 128 127 127 126 121 119 124 134 136 129 128 129 128 127 127 127 127 127 127 127 127 127 127 127 127 128 128 128 127 127 127 127 126 127 128 127 127 127 127 127 127 127 128 128 127 127 126 126 128 128 127 127 127 127 121 106 88 88 110 124 121 125 130 129 131 131 132 133 138 136 123 121 130 132 130 129 127 128 125 123 128 129 129 128 129 134 132 127 128 129 119 115 122 122 122 124 128 132 129 124 125 133 140 135 129 127 126 129 120 115 126 133 130 128 131 129 124 126 128 126 131 134 134 128 119 119 128 130 128 125 124 126 129 132 123 117 124 132 134 131 130 132 133 132 167
65 124 126 125 122 130 134 128 128 125 124 128 129 127 125 124 130 134 129 126 127 131 131 126 124 124 126 127 128 130 132 133 135 134 127 124 125 122 117 119 125 126 126 128 129 126 128 129 123 120 125 131 131 128 126 124 126 132 133 130 126 125 127 130 133 131 127 126 129 131 122 113 120 131 128 125 126 125 128 129 126 125 122 124 128 127 121 122 129 128 126 137 159 167 154 136 128 127 127 127 127 127 128 127 126 126 125 125 123 118 117 124 134 136 130 129 130 129 128 128 128 128 129 128 127 127 127 128 127 127 128 129 128 128 127 127 127 127 127 127 127 126 126 126 128 128 126 127 128 128 127 127 127 127 127 126 127 127 127 126 121 105 83 89 112 119 123 129 132 133 129 129 136 144 138 122 119 128 133 131 128 125 127 124 122 129 130 129 129 128 131 131 129 128 128 120 117 125 125 123 122 128 133 129 122 125 137 140 131 126 125 127 128 120 116 125 134 133 130 129 125 124 129 129 128 128 132 135 129 118 119 130 131 128 124 125 129 128 129 122 120 127 130 131 128 129 134 134 131 169
64 122 123 125 126 129 130 126 128 128 125 128 128 126 127 128 130 133 130 125 124 128 133 130 123 123 128 130 129 132 132 133 134 130 126 124 123 122 119 120 124 126 127 128 128 125 129 131 126 124 124 127 129 127 126 125 124 129 133 131 126 127 128 130 132 131 126 126 131 130 119 115 125 131 127 122 123 127 128 127 125 125 123 123 128 129 122 125 131 127 128 153 172 160 140 129 128 128 127 126 126 127 126 125 124 122 122 121 121 119 119 122 128 132 131 132 134 132 130 129 128 130 131 131 129 129 129 128 128 127 128 129 129 128 127 127 127 127 127 127 127 126 125 126 128 128 127 127 128 128 128 127 127 127 126 126 128 128 127 126 126 121 99 80 92 111 122 131 134 132 128 129 136 143 138 122 119 129 134 132 126 123 126 124 121 127 130 129 129 127 127 132 132 125 124 120 124 132 126 121 122 128 132 129 123 124 138 139 129 125 124 126 127 123 122 127 132 131 130 127 122 123 129 130 129 127 130 136 129 119 124 129 128 127 124 126 129 128 125 120 124 132 130 125 126 129 134 135 130 170
64 123 120 124 129 127 124 125 131 133 127 125 127 128 133 130 126 131 130 125 124 125 133 133 124 124 130 132 128 130 133 133 132 128 126 124 123 124 122 121 123 125 127 129 128 123 126 131 128 126 123 124 129 127 126 126 124 127 134 132 126 127 128 128 132 131 126 127 132 129 118 118 128 130 124 121 123 129 128 125 123 124 124 123 128 128 124 127 131 129 141 167 170 148 131 127 128 127 126 125 124 122 121 122 121 118 118 119 119 122 124 120 121 131 135 135 135 133 133 130 128 131 133 132 131 132 132 131 131 129 128 129 129 128 128 128 128 127 127 128 127 126 126 126 127 128 127 128 128 128 128 128 127 127 125 125 128 128 126 127 127 126 117 91 76 94 122 134 133 129 128 130 131 136 135 125 123 130 134 131 125 124 125 124 122 125 130 129 127 126 127 132 132 123 121 123 131 134 124 120 123 129 131 130 126 126 137 137 128 126 124 123 125 127 127 130 132 130 129 128 122 121 125 129 130 128 132 133 125 124 131 126 124 125 123 127 128 128 124 119 126 135 131 123 123 130 135 137 129 171
65 123 119 123 129 123 121 125 131 135 128 124 129 131 137 131 122 127 126 125 125 125 132 132 127 127 130 130 128 130 133 132 131 126 126 125 125 126 123 121 123 126 128 130 128 122 124 128 127 125 122 124 129 128 127 127 126 129 134 131 126 127 128 127 130 131 127 129 131 126 120 122 128 126 123 123 125 128 128 125 122 122 124 125 128 128 124 127 132 137 158 171 156 136 128 127 125 123 121 121 120 117 115 118 119 116 117 119 118 124 129 122 119 132 141 138 132 134 138 133 130 131 131 131 130 133 133 132 134 131 129 131 130 128 128 129 128 127 128 128 127 126 126 127 127 127 127 128 129 128 128 128 127 127 125 125 128 127 126 127 127 127 125 109 80 78 111 134 133 129 129 129 128 131 133 127 125 130 132 131 128 127 124 124 123 123 129 129 126 128 130 129 126 124 126 128 132 130 123 122 123 128 131 131 127 127 135 134 129 128 124 122 124 127 128 130 132 131 131 130 123 118 119 126 131 131 135 130 123 129 131 125 123 122 122 128 126 129 127 117 123 133 132 125 122 130 138 138 130 173
66 123 120 124 124 119 123 127 129 133 128 126 133 134 136 131 123 124 124 124 125 127 131 129 127 129 130 130 128 130 132 132 129 125 127 127 125 125 124 122 123 128 129 128 128 124 123 126 126 124 121 125 128 127 129 129 128 130 131 130 128 128 129 126 127 129 128 131 131 125 122 123 124 122 124 126 127 127 127 124 121 123 126 127 128 128 125 126 136 151 168 164 142 130 127 124 120 117 117 116 116 114 111 115 120 120 121 121 121 123 131 131 125 128 138 140 133 136 140 135 133 131 129 130 130 131 130 132 138 134 130 132 131 129 128 129 130 128 128 128 127 126 127 127 127 127 127 128 128 127 128 129 128 127 125 126 128 127 126 127 127 127 127 120 99 74 89 124 132 131 131 129 126 131 134 126 124 128 130 131 132 129 121 120 124 125 127 126 126 131 131 123 120 126 134 130 129 128 125 126 124 126 131 132 126 125 134 133 130 130 125 122 123 128 126 129 133 132 134 132 124 118 118 123 128 134 134 128 127 128 126 126 126 121 122 128 127 131 129 114 116 130 134 128 123 131 138 136 131 175
66 123 122 125 121 117 125 129 126 128 129 131 134 133 134 132 125 125 125 124 123 127 128 126 125 128 132 133 130 129 130 130 127 125 129 128 123 123 126 127 124 127 129 125 127 127 124 125 128 124 122 125 127 126 129 129 128 130 129 129 130 130 129 125 124 127 129 132 132 126 123 123 120 118 123 128 128 127 127 125 121 125 130 129 126 127 127 130 144 161 166 151 134 127 123 117 115 116 116 114 113 112 108 115 124 124 124 123 120 118 128 136 131 123 129 142 139 137 138 137 138 133 130 131 130 129 129 132 138 135 130 133 132 129 128 129 130 129 128 129 128 128 128 127 127 127 127 128 128 127 127 128 128 128 126 127 128 127 126 127 127 127 127 125 118 86 72 104 128 132 132 129 125 132 138 129 123 126 128 132 134 129 119 117 126 129 127 124 125 130 130 123 121 128 134 127 126 128 127 130 128 126 129 132 127 125 133 132 131 130 125 123 125 128 123 128 135 133 133 129 123 122 123 122 123 130 131 130 129 126 126 129 127 122 122 128 129 131 130 114 112 128 133 127 124 133 137 135 133 177
65 121 124 128 122 116 124 127 123 128 134 133 131 130 133 133 128 128 128 124 121 124 125 123 126 127 130 135 133 128 129 128 126 127 128 127 123 121 127 129 125 126 129 124 124 129 127 127 130 126 124 126 126 127 128 126 127 129 128 129 131 132 130 124 123 126 128 131 132 128 124 123 121 119 122 127 128 128 128 125 121 127 133 129 124 126 130 138 154 164 156 140 129 124 117 113 117 121 119 114 108 108 108 115 125 123 121 123 118 115 123 130 131 126 128 141 141 136 138 140 141 138 134 133 130 130 133 135 136 134 132 134 132 130 130 129 130 129 127 128 129 130 128 126 127 127 127 127 127 127 128 128 128 128 127 127 127 127 127 127 127 126 126 127 126 105 75 84 116 130 131 129 126 129 137 137 128 123 126 132 134 127 118 118 126 131 128 125 124 124 126 126 126 130 130 124 126 128 128 132 130 127 127 131 127 127 132 133 132 127 124 126 130 128 120 125 134 133 132 127 123 127 131 125 119 124 131 130 125 127 132 130 125 122 125 130 130 129 128 119 116 126 129 124 124 131 136 136 135 178
63 120 125 129 125 120 124 121 121 132 137 132 126 129 135 133 129 131 129 123 118 121 122 123 129 128 126 131 133 132 129 127 127 127 126 127 127 123 124 126 126 128 128 123 122 128 129 129 130 127 126 127 127 128 127 126 126 127 127 129 132 132 131 124 122 124 126 128 130 128 126 125 124 121 123 125 124 127 129 126 123 128 133 127 124 127 133 146 162 163 145 131 126 121 115 114 119 122 118 108 97 100 109 115 125 123 118 122 123 121 122 124 129 129 131 137 137 134 140 142 140 139 136 135 132 133 139 140 137 135 134 134 133 133 133 130 130 129 127 128 130 130 128 127 127 127 127 127 127 127 128 128 129 129 128 127 126 126 127 127 127 127 126 126 127 121 92 75 99 123 128 129 127 127 132 141 135 122 124 132 135 129 118 118 125 131 130 126 125 122 121 126 128 129 127 123 125 127 129 130 130 129 128 129 126 126 130 134 135 127 124 128 132 128 120 124 128 130 133 130 126 129 133 129 121 121 128 125 122 130 134 128 122 124 129 131 130 125 123 123 120 125 128 125 125 128 132 136 137 178
62 124 125 127 128 126 125 121 124 132 133 128 126 131 136 131 129 131 128 122 118 121 124 124 128 126 122 125 131 135 131 126 127 126 126 130 130 125 123 123 127 130 129 124 122 124 131 132 127 126 127 130 130 128 127 127 125 124 126 132 133 131 130 125 122 122 124 127 129 128 128 127 123 122 125 125 123 127 130 126 124 129 131 127 125 129 139 155 166 157 136 127 124 119 115 115 115 113 107 99 93 101 115 121 127 125 121 124 127 126 124 124 126 128 130 133 133 132 137 139 140 140 137 135 133 136 142 143 142 139 136 134 133 133 134 133 131 130 128 128 129 129 128 127 128 128 127 127 127 127 128 129 129 129 128 126 125 126 127 127 128 128 127 126 126 126 109 82 84 110 125 128 129 128 130 139 137 125 125 130 134 131 120 119 125 129 129 129 128 124 121 123 125 127 128 125 124 127 128 128 129 131 130 130 126 125 128 134 137 129 124 128 130 126 123 127 125 126 133 133 130 129 130 130 125 123 124 123 124 132 134 127 121 124 131 132 130 124 120 122 121 125 129 126 124 127 130 135 138 180
58 125 124 128 131 130 127 126 130 130 126 124 127 134 135 130 129 128 125 123 122 123 127 128 125 119 118 124 130 133 131 128 127 127 130 132 129 127 124 123 126 128 127 126 124 124 132 132 124 122 125 132 133 129 127 128 126 124 129 134 131 128 126 124 124 121 123 128 128 127 128 127 122 122 127 127 124 127 129 125 125 129 129 128 129 133 149 162 161 147 129 124 123 117 111 111 106 99 96 99 103 112 123 127 127 125 122 124 126 126 127 125 125 126 129 132 132 130 132 136 140 139 136 136 135 139 140 141 146 144 139 137 134 133 133 134 133 131 129 128 128 129 129 128 128 128 128 128 127 127 128 128 129 129 127 126 125 126 127 127 128 128 127 126 126 127 120 98 76 94 122 127 129 128 129 137 137 129 127 129 130 130 125 123 126 124 125 131 131 125 122 121 121 125 130 128 124 126 127 127 128 131 131 131 129 126 127 131 136 131 125 126 127 122 126 132 125 124 130 133 134 129 126 128 128 125 123 125 126 131 133 129 123 122 126 129 131 127 123 122 122 123 127 127 124 126 132 135 135 181
54 122 124 132 135 130 125 129 134 130 124 121 127 136 133 128 128 126 124 126 125 124 128 128 121 115 119 126 128 128 131 131 128 127 130 132 128 127 127 126 126 124 124 127 128 128 132 130 123 119 122 131 133 129 125 128 129 129 132 132 128 127 124 124 126 123 124 129 129 126 126 126 123 124 128 127 125 127 128 125 125 127 127 130 135 142 157 162 153 138 126 122 120 113 107 105 97 90 96 107 114 120 127 128 126 124 122 123 125 126 128 127 125 126 130 133 131 129 131 135 137 135 133 134 136 141 141 142 147 145 142 142 138 134 133 134 133 131 129 128 128 129 129 127 127 129 129 128 127 127 128 128 129 129 127 126 125 126 127 127 128 128 127 126 126 127 125 112 80 81 112 125 128 128 128 136 140 132 128 127 127 129 128 126 126 123 124 133 131 121 121 121 120 124 132 131 125 123 125 127 127 130 132 131 129 129 129 129 132 131 126 126 124 119 126 134 129 125 128 132 135 129 125 126 128 126 125 127 126 128 132 132 125 120 121 125 130 130 129 125 124 122 122 127 127 128 133 134 132 180
52 122 128 134 134 125 122 130 136 132 125 123 127 133 131 126 126 125 126 129 127 124 127 125 119 117 123 129 128 128 132 132 127 124 126 131 128 128 130 129 126 123 122 125 129 132 133 130 124 119 119 127 133 129 124 127 130 132 134 130 127 127 123 125 128 125 126 131 131 126 124 124 124 126 127 125 124 125 127 126 126 126 127 131 141 153 161 158 144 132 124 119 116 111 103 99 95 90 99 114 120 123 127 127 125 124 122 122 125 126 127 127 126 128 130 132 130 128 130 134 135 133 132 133 136 139 144 146 144 144 144 144 141 136 134 135 132 130 130 129 128 128 128 127 127 130 131 129 128 127 128 128 128 128 127 126 125 126 127 127 128 128 127 127 127 128 127 121 95 75 97 121 126 127 127 135 143 135 126 126 129 131 129 125 125 127 128 130 126 119 120 121 122 125 132 134 126 119 122 127 127 130 132 129 127 130 132 130 129 128 128 127 124 121 124 132 131 127 127 129 131 132 130 127 125 126 127 128 127 126 127 131 127 121 122 124 126 130 133 128 122 121 124 129 132 132 132 132 131 178
50 124 135 135 129 120 119 129 136 132 127 129 129 130 130 124 122 125 127 130 129 126 126 122 118 119 124 130 130 131 131 128 125 122 125 130 130 131 131 128 125 126 125 123 126 131 133 131 126 122 119 122 131 130 125 125 129 131 132 130 129 127 123 125 128 128 129 131 132 129 124 123 126 130 128 122 120 123 126 127 128 128 126 130 148 162 163 152 135 128 122 115 112 109 101 97 95 93 104 117 122 124 126 126 125 124 123 123 125 125 127 127 128 129 130 130 129 129 130 133 133 133 133 135 136 137 146 148 143 143 144 144 140 136 134 136 132 128 130 130 128 128 129 128 127 129 131 129 128 128 128 129 128 127 127 126 126 126 126 126 127 128 127 127 127 128 128 125 108 77 83 115 126 126 126 133 142 136 128 130 132 133 130 123 122 130 130 123 119 121 122 122 125 127 131 132 126 119 121 126 127 128 131 130 127 127 133 135 130 124 126 127 126 125 123 128 128 125 127 128 130 134 136 128 120 124 130 129 127 124 124 128 128 123 123 126 128 129 130 124 121 123 129 132 135 134 129 131 132 177
49 124 136 135 127 120 117 124 135 132 127 133 132 130 131 122 119 125 127 129 131 128 125 122 120 117 122 132 134 133 129 125 124 123 126 131 132 132 129 125 126 129 128 125 126 128 130 132 128 125 122 121 127 130 127 125 126 128 129 130 130 126 122 124 128 130 132 132 132 131 125 121 126 133 130 121 117 119 124 128 129 130 127 135 156 163 159 145 130 126 120 113 110 107 101 98 95 97 109 117 122 124 125 125 125 124 123 123 125 125 126 127 128 129 129 129 129 130 131 132 132 133 134 136 136 139 146 146 142 144 146 144 138 133 133 135 132 129 130 129 128 129 130 129 127 128 130 130 128 128 128 129 128 127 127 126 126 126 127 126 127 128 127 127 127 128 128 126 117 86 72 105 127 127 126 129 139 139 133 133 132 133 131 122 118 126 127 120 119 124 126 126 128 127 126 127 125 122 124 127 125 126 130 131 128 126 134 139 130 123 125 127 128 127 123 126 125 121 126 132 133 134 137 127 116 123 132 130 125 124 125 127 129 127 122 125 130 129 126 120 121 128 133 132 133 132 127 128 132 181
48 120 133 135 130 124 117 120 135 135 127 132 133 131 130 121 119 125 124 126 132 128 123 124 123 117 121 134 136 132 129 125 123 124 127 131 131 129 125 125 130 131 128 127 126 125 127 132 130 127 125 122 122 127 128 126 124 127 130 132 130 125 122 123 126 130 133 133 133 132 128 124 127 132 131 123 117 114 122 130 132 132 130 146 163 157 148 137 128 125 118 111 109 107 103 101 97 100 109 116 120 123 125 125 125 124 124 124 125 126 127 127 127 128 128 129 129 130 131 132 132 133 134 136 137 143 147 143 142 144 146 145 137 132 132 134 133 130 129 128 129 130 131 129 128 128 129 130 129 128 129 129 129 128 126 126 126 127 127 127 127 127 127 127 127 128 128 127 124 100 69 89 124 128 126 127 139 143 138 134 132 132 129 123 115 116 123 122 123 125 126 130 129 125 122 123 126 126 128 129 125 124 128 131 130 129 136 136 127 124 127 128 126 125 125 128 124 118 124 135 136 130 133 126 117 124 131 130 123 124 129 130 130 128 121 124 129 131 128 118 120 132 134 129 127 130 129 127 134 185
47 117 130 135 131 125 115 118 137 140 131 129 129 128 126 120 122 128 123 123 127 123 123 129 128 125 126 132 133 131 131 125 121 124 128 133 132 127 124 127 132 130 127 126 126 126 128 133 131 127 126 123 121 125 128 126 124 126 131 133 130 125 122 122 125 128 132 134 132 131 130 129 128 129 130 126 119 115 121 130 135 135 135 155 166 150 136 130 127 123 116 110 109 109 106 103 102 101 107 116 119 122 125 125 124 124 124 125 126 127 127 126 127 127 128 128 128 129 131 132 132 133 135 137 139 145 145 141 142 142 144 143 137 133 132 132 131 131 129 130 131 130 130 129 128 127 127 129 130 129 129 130 129 128 126 125 125 127 128 127 127 127 128 128 127 127 127 128 126 115 77 74 114 128 125 127 141 146 139 134 131 130 128 126 114 109 120 126 126 122 126 131 125 122 124 125 126 126 127 129 131 125 124 131 134 135 135 130 122 125 130 129 124 123 126 132 126 116 123 135 134 127 128 125 122 126 128 128 124 124 131 132 131 125 120 124 128 134 131 121 122 133 135 127 124 130 131 126 130 186
48 117 128 133 131 124 109 114 141 148 137 129 124 122 121 122 125 131 125 118 118 118 124 130 131 133 132 131 132 131 130 124 120 123 130 135 133 128 125 127 129 127 126 125 126 128 130 134 132 126 124 122 121 125 128 128 127 127 129 131 130 127 124 123 124 127 131 133 130 128 130 131 128 126 128 127 124 124 124 125 133 140 148 159 159 143 130 128 126 121 113 109 111 111 107 105 106 102 106 116 118 121 125 126 125 124 125 126 127 128 127 126 127 127 127 128 128 128 130 131 132 134 136 138 144 146 142 141 141 140 140 140 135 133 132 131 130 130 130 132 132 130 130 128 128 128 127 128 129 130 129 129 129 128 127 125 125 127 128 127 127 127 127 128 127 127 127 128 127 123 89 67 101 128 126 132 146 143 134 131 129 129 128 127 115 107 119 131 130 121 127 129 118 120 129 130 124 121 123 131 143 126 115 131 136 137 134 124 121 127 131 130 124 122 125 133 129 117 120 131 131 127 126 124 125 126 127 127 126 125 128 132 132 123 119 125 129 132 131 125 125 130 133 128 127 133 132 126 125 184
48 120 128 129 130 123 105 111 143 152 142 130 120 118 121 125 127 132 127 113 111 119 126 129 130 134 132 132 136 132 125 121 119 123 131 136 134 130 128 127 126 125 125 126 124 127 133 136 133 126 124 122 122 125 129 130 129 127 126 129 131 130 127 125 125 128 131 132 129 127 128 129 126 123 125 127 129 135 128 120 127 148 162 157 146 137 131 127 125 120 112 108 111 109 107 108 109 103 106 116 118 121 125 127 127 126 125 126 126 127 127 127 126 126 127 128 128 128 129 131 133 135 137 141 147 146 140 141 141 138 137 136 133 132 132 131 130 130 132 133 132 130 130 128 128 129 128 127 129 130 130 129 129 128 127 126 125 127 127 127 127 127 127 127 128 128 127 127 128 125 102 70 89 124 132 145 148 133 125 127 127 129 128 127 117 105 118 139 137 125 126 123 114 120 130 133 121 113 120 135 154 125 106 130 135 135 133 124 122 128 130 130 126 123 123 131 131 120 120 128 129 127 127 125 123 124 126 127 129 127 126 131 130 123 121 126 129 131 130 128 129 128 127 127 131 137 134 128 127 182
49 124 128 125 127 121 106 112 142 151 142 133 122 117 123 128 128 130 127 111 107 121 128 129 129 130 128 131 138 134 122 118 122 125 130 136 136 131 129 128 127 125 126 125 119 124 136 137 132 125 123 123 124 127 129 130 128 126 126 130 132 130 127 125 126 129 132 131 128 128 128 127 125 122 123 128 133 137 133 123 129 157 165 147 136 136 133 127 125 121 113 108 108 107 107 111 112 105 107 116 118 121 126 129 129 127 126 125 126 126 126 126 126 126 126 127 127 128 129 131 134 136 138 145 147 143 140 140 140 136 134 134 131 130 131 132 130 130 132 133 132 130 129 129 129 129 128 127 127 129 130 130 128 128 128 127 126 126 127 127 127 128 128 127 128 128 127 127 127 125 114 82 80 116 141 152 142 124 121 125 126 128 128 128 120 104 116 147 146 129 123 117 115 119 126 131 121 112 120 141 153 117 105 128 133 131 133 129 127 127 126 130 129 124 122 129 131 123 123 129 127 126 127 126 122 121 125 128 129 127 127 129 129 124 122 127 129 130 129 127 129 128 125 126 131 139 136 130 131 180
51 125 128 124 123 118 110 118 143 146 135 135 127 116 121 130 128 127 127 110 106 123 129 132 131 126 125 129 136 135 123 118 124 128 131 134 135 131 127 127 127 126 126 125 119 123 137 138 131 125 122 122 127 131 130 129 127 127 129 132 131 129 126 124 127 130 131 129 129 129 128 126 125 122 123 127 132 132 137 135 143 160 152 137 134 135 131 127 125 121 113 107 106 106 108 112 114 107 108 117 120 121 126 130 130 128 126 125 126 126 126 126 125 125 125 126 127 128 130 132 135 136 141 147 144 140 139 139 138 135 133 133 131 130 130 131 131 130 131 132 132 131 129 129 130 130 129 128 127 128 131 130 128 127 128 128 127 126 127 127 127 128 128 128 128 128 127 127 127 126 122 95 78 114 146 146 133 124 121 122 124 126 129 131 123 105 117 149 146 129 122 116 118 118 120 127 120 116 124 149 143 105 109 128 132 130 129 132 134 129 123 128 129 127 124 126 129 124 128 132 128 123 123 126 121 120 125 128 128 127 127 128 130 126 123 129 130 129 127 124 127 129 127 125 129 140 137 130 133 181
52 124 127 126 122 119 115 121 140 139 129 135 130 116 120 133 130 125 125 108 108 128 133 129 126 125 124 129 135 137 128 118 122 129 131 134 130 125 124 125 127 125 126 127 123 126 137 137 130 125 120 119 130 137 132 128 126 129 131 130 129 127 125 124 129 131 129 127 129 129 127 126 125 123 123 124 125 128 142 156 160 153 139 135 136 133 129 126 125 121 112 107 106 106 108 112 115 109 109 118 122 124 125 128 129 128 127 126 127 126 125 125 124 124 124 125 126 128 130 133 135 136 143 146 140 139 139 137 136 134 133 133 132 130 128 129 131 131 130 131 132 132 130 129 131 131 130 129 127 128 130 130 127 127 128 128 128 127 126 127 128 128 128 128 128 128 127 127 127 126 125 104 88 118 140 134 129 126 121 119 122 125 130 133 124 112 120 141 140 129 124 119 121 117 116 123 118 117 132 154 133 97 111 128 138 134 121 127 137 133 123 123 128 129 125 125 126 124 128 134 132 124 121 124 120 121 126 128 127 126 126 130 131 125 123 131 134 128 122 123 127 131 131 125 127 139 135 129 135 183
52 123 128 129 124 121 122 124 132 133 129 134 130 117 120 134 134 127 120 105 110 134 141 128 117 123 125 125 134 139 129 117 121 128 130 132 126 121 124 126 129 125 123 127 128 130 139 138 126 121 120 122 135 140 130 126 127 127 130 131 128 127 126 126 130 132 129 128 128 127 126 125 124 124 120 119 120 129 155 175 164 142 135 136 134 131 127 126 124 119 113 108 108 106 108 112 115 113 110 117 124 125 125 126 128 128 128 128 128 128 126 125 123 122 122 124 126 128 131 133 135 137 144 145 139 139 138 135 133 132 133 134 133 131 128 128 130 131 131 130 130 132 131 129 131 133 132 130 128 128 130 130 128 128 127 127 127 127 127 127 127 127 127 129 129 128 127 126 126 127 126 112 101 115 130 129 128 127 121 117 122 126 131 133 126 120 122 132 136 130 126 123 122 116 115 120 116 121 142 153 122 95 111 130 150 139 111 117 132 134 126 121 128 130 125 124 124 123 127 133 134 125 121 122 120 123 127 128 127 126 127 131 130 123 124 131 134 128 121 124 127 132 133 128 128 134 133 128 135 184
55 124 126 127 124 123 127 128 127 130 130 132 131 122 121 131 135 131 119 103 107 129 146 136 116 122 126 120 128 135 124 117 123 127 127 130 132 129 127 127 126 120 120 126 129 131 138 136 123 120 123 128 138 139 128 125 127 121 124 133 130 131 131 130 132 132 129 128 126 123 122 123 124 123 117 116 122 139 172 180 155 136 136 135 130 129 127 126 122 116 113 112 110 106 107 112 115 116 111 114 123 125 125 125 127 129 129 129 129 129 126 125 123 121 120 122 125 128 130 133 135 137 144 145 140 140 136 131 131 132 133 134 133 132 131 129 130 131 131 131 129 130 132 130 132 134 133 131 128 128 129 129 128 128 128 128 127 127 127 127 127 127 127 128 129 128 127 126 126 127 126 120 108 109 123 128 127 126 122 117 123 129 131 130 127 125 123 128 134 131 126 125 122 113 112 117 119 131 150 147 114 97 111 132 157 143 108 106 122 131 128 124 126 128 124 125 126 125 127 131 132 124 124 125 122 125 127 128 127 126 127 130 128 124 125 128 131 128 126 126 126 130 134 133 128 130 134 130 132 183
61 124 122 123 121 122 128 132 132 131 128 131 135 128 122 125 129 132 123 106 104 121 143 142 120 120 127 115 119 128 120 120 126 129 125 132 147 141 129 123 112 109 119 125 127 131 133 131 127 124 127 131 136 139 132 125 127 117 117 131 132 136 138 134 134 130 126 125 124 121 119 121 124 122 118 119 125 153 185 172 144 137 137 132 128 128 127 126 119 111 112 115 111 106 109 114 116 117 112 114 122 124 125 125 127 129 130 130 130 129 127 126 123 119 118 121 124 127 130 132 134 136 141 146 143 140 135 128 130 132 132 132 132 134 134 132 132 131 131 132 130 129 131 133 134 134 133 131 128 128 129 129 128 128 128 128 127 127 127 127 127 127 127 128 129 129 127 126 127 127 126 124 112 106 120 128 127 128 123 116 123 132 130 126 127 127 127 128 130 129 126 126 122 112 109 113 124 142 151 137 111 103 111 134 157 143 111 99 113 128 130 128 124 125 125 126 127 127 127 129 128 125 127 127 125 126 127 129 128 125 127 129 127 124 125 126 128 129 128 127 127 128 132 135 129 130 138 134 128 179
68 127 124 121 117 117 127 134 134 133 129 130 135 131 125 121 124 131 126 108 103 120 140 139 123 119 121 113 117 125 122 122 130 135 124 137 156 143 133 123 101 97 115 124 127 131 129 127 129 128 128 132 136 140 135 126 126 120 114 123 133 140 140 135 134 128 123 122 123 121 118 120 123 124 125 122 130 172 191 158 136 138 136 129 127 128 128 126 118 107 110 113 110 109 111 114 116 116 112 116 122 123 124 125 126 129 131 131 130 129 128 127 123 118 118 121 123 127 129 130 133 135 138 146 142 139 137 128 129 130 131 133 132 133 135 135 134 134 133 132 131 130 132 134 135 135 134 131 128 127 129 129 128 128 128 128 128 128 127 127 127 127 127 127 128 129 127 126 126 127 127 125 115 106 116 127 129 132 122 115 123 132 129 125 127 128 129 129 128 128 127 125 121 115 111 112 129 147 145 126 114 113 112 134 154 138 114 97 107 126 130 129 124 124 125 127 127 127 127 129 128 126 128 128 126 127 128 131 129 126 128 128 125 124 125 126 128 128 127 127 128 129 132 134 130 133 140 136 127 176
70 132 132 125 116 119 126 129 129 133 132 130 128 129 129 122 123 131 123 105 100 120 136 137 129 119 112 110 120 125 124 124 140 147 126 135 150 136 135 130 105 95 107 118 126 132 126 123 128 128 129 134 142 142 133 126 122 125 117 116 134 141 135 131 132 127 119 115 122 123 120 124 125 127 128 122 140 190 188 144 133 138 134 128 127 128 128 126 116 105 109 111 111 111 112 114 117 115 113 119 122 123 124 125 126 129 130 130 128 128 128 127 123 119 119 122 124 126 128 129 131 133 135 142 138 137 140 132 129 128 131 135 134 132 134 135 136 137 135 134 132 131 132 132 134 136 136 133 128 126 129 130 129 128 128 128 128 128 127 127 127 127 127 126 128 129 127 127 126 127 127 126 118 106 113 127 133 134 121 115 122 130 129 126 128 127 127 128 127 127 125 124 122 119 117 119 130 142 135 118 118 121 114 135 149 133 115 97 105 126 129 127 126 126 125 126 126 126 127 130 128 126 128 128 125 128 130 131 127 127 130 126 123 124 125 126 127 127 127 127 128 130 134 134 133 134 135 136 132 174
69 136 138 130 124 127 126 123 124 127 132 130 124 129 132 122 124 130 121 105 101 113 124 136 139 125 107 107 123 127 123 130 155 155 127 129 137 128 134 134 113 104 107 107 119 130 126 121 126 127 127 134 144 142 133 124 116 126 123 118 134 140 131 125 129 127 116 111 123 126 124 129 128 127 129 125 152 197 178 138 135 137 131 127 128 128 128 126 113 104 109 111 110 111 111 114 116 113 115 121 123 124 126 126 126 128 128 127 126 127 128 126 124 121 121 123 124 126 128 129 130 133 135 137 134 134 140 136 129 128 132 135 135 132 131 133 136 139 137 135 134 133 132 131 134 137 136 134 130 126 127 130 131 128 127 128 127 127 127 127 128 127 127 127 128 129 128 126 126 127 128 126 121 108 112 127 133 132 124 120 120 126 129 127 130 129 126 126 127 127 123 121 123 122 123 125 130 134 127 117 122 121 116 138 146 129 114 95 104 126 129 127 127 127 126 125 123 124 129 130 128 127 129 128 125 128 130 130 127 127 132 128 122 122 124 126 129 128 127 126 127 130 137 138 136 130 128 136 137 174
69 135 138 135 131 132 128 126 123 117 122 127 125 132 133 126 127 129 120 108 109 113 112 129 140 129 108 104 125 132 125 137 160 152 127 125 129 124 132 132 118 117 115 101 106 122 127 124 125 126 127 133 139 139 133 120 115 125 127 124 130 136 130 123 126 126 118 115 126 128 125 128 126 126 132 135 165 195 167 138 137 135 129 128 128 128 127 125 113 104 110 111 108 110 111 115 115 113 116 122 124 125 127 127 127 127 126 126 125 126 127 127 125 124 123 124 125 125 127 129 131 134 136 134 131 132 140 139 131 129 132 134 134 132 131 132 136 139 137 136 134 133 133 132 135 136 133 133 130 128 128 130 131 128 127 128 127 126 127 128 128 127 128 128 128 128 127 126 126 127 127 127 123 111 112 127 130 128 128 127 119 121 127 127 131 130 125 126 128 127 122 121 125 125 125 127 130 128 121 120 126 118 116 140 144 129 116 95 102 124 130 128 127 128 126 126 122 123 129 130 128 128 130 127 125 128 129 128 128 128 133 131 120 119 122 126 131 130 127 126 126 131 140 141 136 124 125 139 138 172
69 131 140 137 132 132 130 131 123 111 113 122 127 132 131 129 130 130 124 113 117 117 110 121 132 130 115 105 123 136 132 139 149 144 129 125 127 127 132 126 120 127 123 105 95 107 125 131 129 125 128 131 130 132 130 120 117 123 128 128 126 129 130 127 127 125 120 122 128 127 124 123 121 127 138 146 178 190 156 138 138 133 128 128 128 128 127 125 113 105 111 112 107 108 111 115 116 113 116 124 126 126 127 126 125 125 124 125 125 126 127 126 126 126 126 125 126 127 132 134 136 137 134 129 124 129 140 138 131 130 131 132 132 132 132 131 135 137 137 137 134 132 132 133 137 136 130 130 130 130 130 130 130 128 128 127 127 126 127 128 127 127 128 129 128 128 127 126 125 126 127 127 126 114 113 127 128 126 129 129 120 118 124 127 130 129 125 125 128 127 123 124 128 128 126 127 128 124 117 124 130 116 118 140 139 130 120 97 97 119 130 129 127 127 126 126 124 124 128 129 128 129 130 126 125 128 128 127 127 128 133 132 120 119 122 128 133 129 127 128 130 134 140 139 132 123 130 140 134 169
68 130 143 138 131 131 132 131 124 114 112 119 127 132 129 126 128 133 133 122 117 117 113 117 126 130 124 113 122 132 135 135 131 135 137 130 126 130 134 122 120 132 128 110 90 93 121 145 137 121 121 123 122 126 128 123 120 125 129 128 127 125 128 129 129 126 121 123 127 127 124 120 120 130 142 156 188 186 148 134 137 133 128 128 128 128 128 125 114 106 112 113 107 107 112 116 118 116 119 125 127 126 125 122 121 122 122 123 125 127 127 125 125 129 130 130 132 136 145 143 137 137 130 123 119 125 133 131 130 131 129 128 130 134 134 133 135 135 136 137 132 131 132 132 136 136 130 129 129 130 130 130 130 129 128 127 127 127 127 127 127 126 127 129 129 128 127 126 125 126 127 127 126 115 113 127 129 127 129 128 121 119 122 124 127 127 126 126 128 128 125 127 131 129 127 126 126 121 117 126 131 115 123 141 133 128 122 104 100 115 124 126 127 126 126 126 126 125 127 129 128 128 129 126 126 128 127 128 127 127 132 130 122 121 125 132 134 129 127 130 134 136 137 134 129 127 134 135 129 166
69 135 145 138 129 130 132 130 125 119 116 118 126 133 128 121 122 133 139 130 119 116 115 114 121 130 130 123 124 126 132 129 117 130 144 136 127 133 138 125 122 131 127 110 94 95 127 158 142 113 105 105 113 124 129 125 123 129 129 128 128 125 125 128 131 128 122 121 124 128 126 119 120 133 142 164 195 180 141 131 136 134 128 127 127 128 128 125 116 108 111 113 108 107 113 118 121 123 126 128 127 125 122 117 115 118 120 120 126 129 125 122 124 131 140 145 144 146 152 143 134 132 125 120 119 121 123 121 126 133 128 125 129 136 136 134 135 135 134 134 131 130 131 130 132 134 132 130 129 128 129 131 132 129 127 127 127 127 127 127 128 127 126 127 129 129 127 126 125 126 127 127 127 116 112 125 132 130 129 126 122 121 121 121 125 125 126 126 128 128 126 128 131 130 129 126 123 121 120 127 128 114 128 144 131 124 121 113 113 118 114 114 123 126 126 127 126 126 128 128 128 128 129 126 126 127 127 128 127 126 129 128 125 125 129 135 135 129 127 131 135 137 135 131 126 128 134 131 129 166
75 138 141 133 128 131 130 129 127 123 120 119 125 131 126 119 121 131 139 135 124 120 117 111 117 127 129 129 128 123 128 127 115 127 142 138 129 133 139 129 124 129 123 110 108 115 138 154 135 111 98 91 104 120 122 121 125 133 132 128 127 124 124 127 132 130 121 118 123 130 126 118 122 135 141 172 201 173 137 129 134 133 128 127 127 128 128 126 118 108 109 110 107 109 116 123 128 130 132 132 128 123 116 112 110 112 117 119 127 129 124 122 124 135 153 162 151 146 147 137 130 127 123 122 122 121 121 118 123 130 128 125 129 135 135 132 133 134 133 131 130 131 130 128 130 132 132 132 129 127 128 131 133 130 127 127 128 127 126 127 128 127 126 126 127 128 128 127 126 126 127 127 126 117 111 125 135 131 128 125 121 123 122 120 123 123 124 126 128 130 128 127 129 130 130 127 122 122 122 127 125 113 131 147 131 121 119 121 127 127 111 100 112 125 126 126 126 127 129 129 128 128 128 126 126 127 127 129 127 126 128 127 126 128 131 135 135 132 128 129 134 139 137 130 124 126 130 129 132 168
83 133 132 128 129 131 129 128 128 124 122 121 123 127 125 119 122 129 135 135 127 125 122 116 120 123 124 131 130 124 127 128 123 126 133 137 132 131 136 130 125 126 122 120 127 131 137 137 126 118 104 96 107 110 105 110 124 135 134 129 125 121 123 128 133 131 120 117 125 130 126 120 124 135 144 180 199 162 134 129 132 132 127 127 127 128 128 127 119 107 106 106 105 113 123 132 136 135 136 136 130 121 113 107 104 105 111 118 127 129 125 127 133 145 161 165 150 141 137 131 128 126 124 124 123 123 124 123 123 126 127 127 128 131 132 131 129 131 132 129 131 131 127 127 128 130 132 132 129 126 127 131 132 130 128 127 128 127 127 127 128 127 126 126 126 127 128 128 127 126 127 127 126 117 112 126 135 130 127 123 120 124 124 122 124 123 123 126 128 130 128 127 128 129 131 127 122 123 125 127 121 114 133 146 131 118 119 126 131 130 116 96 101 121 127 127 127 126 128 130 129 127 127 125 125 127 128 129 126 127 128 127 126 128 130 132 136 138 130 123 131 142 139 130 125 126 127 128 136 168
89 126 127 128 130 131 129 128 127 125 124 124 123 124 125 121 124 131 132 129 125 128 128 123 123 118 120 133 134 128 128 129 128 126 126 133 134 130 131 128 124 123 123 131 138 133 129 126 123 124 116 112 117 109 92 91 115 135 133 128 124 122 125 127 129 129 124 124 129 127 126 125 127 136 149 181 188 152 132 130 131 130 127 128 127 127 128 128 120 106 105 107 108 119 130 138 141 138 136 135 130 121 116 109 100 98 102 113 128 129 124 134 149 154 159 157 146 138 131 127 128 128 126 123 122 124 127 127 125 124 125 126 128 128 129 131 127 129 132 129 130 129 125 125 127 129 130 131 128 126 128 131 132 130 129 128 127 126 127 127 127 127 127 126 127 127 127 128 127 127 127 128 126 119 115 126 133 129 126 122 121 126 127 124 124 125 125 124 124 127 128 128 127 127 130 126 121 125 128 126 116 118 136 144 131 117 119 126 129 129 121 101 95 115 127 129 128 126 127 130 130 128 127 125 124 126 128 128 127 126 127 127 127 128 129 131 138 141 130 121 132 143 138 128 126 128 127 129 137 165
90 123 127 129 129 130 128 126 126 125 126 125 122 122 125 124 125 132 130 125 125 128 128 124 122 119 123 135 138 131 128 128 127 126 125 130 134 131 128 126 124 123 126 136 138 129 126 123 122 126 124 123 125 117 101 84 96 124 131 127 126 127 125 121 125 129 130 133 130 122 129 131 128 138 150 174 177 146 131 131 130 129 128 128 127 127 128 128 121 108 107 113 117 125 133 137 137 135 132 131 129 124 120 115 104 93 92 107 128 129 123 140 158 159 155 149 142 136 129 126 127 127 125 121 120 123 127 130 131 129 127 126 127 127 129 130 126 128 130 128 128 127 125 125 127 129 128 128 128 127 129 131 131 130 129 128 127 126 126 127 127 126 127 127 127 127 127 127 127 127 128 128 126 122 118 123 130 129 125 123 123 127 129 125 124 127 128 123 119 122 128 131 127 126 129 125 122 126 131 125 115 123 138 140 129 117 120 124 126 128 125 106 92 111 128 129 128 127 127 129 131 129 128 128 123 124 127 128 127 125 125 127 128 130 130 134 139 138 126 124 138 142 131 122 128 133 129 132 138 162
92 125 127 129 128 128 128 126 124 125 127 123 120 125 127 126 127 130 129 126 127 127 124 121 123 125 130 135 135 131 128 127 127 127 127 130 133 131 127 126 124 124 129 135 133 126 124 122 123 128 128 127 127 123 118 99 81 103 128 129 126 131 121 114 126 130 133 139 129 117 131 137 131 138 145 166 172 146 132 130 129 128 128 128 128 127 128 127 122 114 114 120 123 128 131 130 127 127 127 129 131 130 128 124 112 96 84 99 126 129 125 142 161 159 152 145 137 133 129 126 125 121 118 116 116 121 127 133 139 138 134 130 128 128 129 128 126 129 128 126 126 125 125 126 126 128 128 127 127 128 129 130 131 130 128 129 128 126 126 127 126 126 127 128 127 127 127 127 127 127 128 128 126 124 118 120 129 130 125 124 126 127 128 125 125 129 129 125 120 118 126 131 127 126 129 124 122 128 131 125 120 129 136 134 125 117 120 123 125 128 127 110 92 107 127 128 127 126 127 130 132 127 128 128 123 125 127 127 128 126 125 125 129 131 132 137 136 130 124 130 143 139 121 114 131 140 133 135 138 160
93 127 126 127 128 128 128 127 125 125 125 117 118 129 130 129 130 130 129 127 125 123 121 123 128 130 135 133 129 130 128 127 128 128 129 131 131 129 128 127 125 125 130 131 128 125 123 122 123 128 129 128 126 125 129 117 79 86 124 130 124 126 118 117 133 133 133 138 130 117 126 137 134 135 139 163 172 146 132 130 128 128 128 129 128 127 128 127 124 120 120 124 126 127 125 119 116 120 125 130 134 133 135 134 123 105 81 90 121 128 128 145 163 157 150 143 133 130 128 124 119 113 114 117 119 123 128 136 140 138 137 134 131 129 128 127 127 128 127 126 125 123 124 126 127 127 128 128 128 128 128 129 131 130 128 129 129 127 126 126 126 127 127 127 127 127 128 128 128 127 127 128 127 125 117 118 129 131 127 125 126 127 127 125 126 129 128 127 124 118 122 128 127 127 128 125 123 127 130 126 129 134 132 127 121 117 121 122 125 129 128 111 92 106 125 127 127 127 130 135 132 123 126 128 125 127 126 126 128 129 126 126 131 132 133 135 131 127 126 132 142 136 117 112 132 144 136 135 136 160
93 126 124 125 128 129 128 128 125 124 121 113 117 134 134 130 133 132 129 125 120 120 122 128 131 130 134 132 128 129 127 127 129 129 130 132 131 129 128 128 127 125 128 127 125 126 125 122 122 127 130 129 126 126 133 123 81 79 121 131 118 115 120 127 142 140 132 134 131 122 121 130 134 133 137 162 171 145 131 130 129 128 127 129 128 127 128 127 125 122 122 125 127 125 119 116 117 123 129 133 133 130 131 133 129 115 86 83 112 126 130 151 164 154 146 140 133 129 126 121 114 115 122 126 128 130 130 133 133 130 132 132 131 130 129 127 127 128 127 125 122 122 123 126 128 127 129 130 129 128 128 129 131 130 128 129 129 127 126 125 126 127 127 127 126 127 128 128 128 127 127 127 127 125 119 118 126 129 128 126 125 126 127 126 127 128 127 128 125 120 122 127 128 127 127 126 122 125 128 130 135 136 129 124 120 118 120 121 125 129 127 114 92 102 124 125 128 129 134 140 132 117 122 130 127 127 126 123 128 131 129 131 133 131 130 130 129 128 129 131 136 133 120 116 132 142 134 133 133 160
93 124 124 125 128 130 129 128 126 123 120 113 118 136 137 130 132 132 128 123 120 121 125 131 131 128 131 132 129 129 127 126 128 130 132 132 130 128 127 128 128 126 127 125 124 127 126 122 120 125 130 131 127 127 134 124 79 73 120 135 116 111 122 131 148 146 133 134 135 125 117 125 132 132 139 160 167 146 131 130 129 128 127 128 128 127 128 128 125 123 123 125 126 124 121 122 124 128 134 134 130 126 123 123 125 123 99 80 100 123 133 156 166 152 141 136 133 127 123 120 117 120 126 129 137 140 132 128 127 125 128 127 128 128 128 127 126 127 125 119 117 122 126 129 129 128 130 131 129 128 128 129 131 129 128 129 129 128 126 125 126 128 127 126 126 127 127 128 128 128 127 127 127 125 121 118 123 128 129 128 126 126 127 127 128 126 126 128 125 121 124 129 130 127 126 125 122 122 126 131 137 137 130 125 123 121 119 119 123 126 126 119 93 97 121 124 127 131 136 141 132 116 122 135 128 125 128 123 127 133 132 134 134 128 126 128 129 131 130 129 131 129 124 123 133 138 132 130 131 162
93 123 123 126 128 129 128 129 127 123 120 117 122 135 135 128 129 130 127 122 124 126 128 131 129 126 129 131 130 129 126 125 126 130 134 132 129 128 126 129 130 127 126 125 124 127 127 123 119 122 129 133 129 127 133 125 78 67 116 140 123 112 122 134 149 144 130 134 137 123 117 127 132 133 139 154 163 150 134 131 128 128 128 128 128 128 128 128 125 122 122 125 128 126 123 121 122 129 142 139 128 125 123 121 117 120 110 83 91 119 135 160 169 152 137 133 130 124 121 120 116 113 119 130 147 153 137 126 127 126 127 125 126 127 126 125 123 125 123 116 116 124 131 132 132 131 132 131 130 129 128 128 130 129 128 129 129 127 126 126 128 128 127 126 126 127 127 127 127 128 128 127 127 126 122 118 121 127 129 129 127 126 127 126 127 126 125 127 125 122 124 129 131 128 127 125 121 120 124 130 137 139 132 126 125 123 121 120 120 122 125 122 98 92 113 124 129 131 135 139 130 119 128 137 126 124 128 124 128 133 134 134 132 129 125 125 128 132 130 127 129 127 124 127 134 136 131 129 129 162
93 124 124 126 127 126 127 130 128 123 121 123 128 132 130 125 126 129 126 123 128 131 129 129 128 126 128 131 131 130 126 124 126 130 133 131 130 127 125 129 132 127 125 125 125 127 129 124 118 118 127 134 131 126 130 124 81 66 114 144 130 115 121 143 154 138 121 124 134 126 121 127 133 135 135 145 158 155 142 132 127 127 127 127 127 128 128 128 121 114 116 128 134 128 120 114 115 131 150 144 130 126 126 123 115 115 116 91 88 117 136 161 170 152 136 131 126 118 118 117 105 101 117 135 155 163 144 128 128 127 126 124 126 127 123 119 118 122 123 121 122 128 135 135 134 133 132 131 130 129 129 129 130 130 128 128 128 127 127 128 128 128 127 126 126 126 127 127 127 128 128 128 127 126 123 118 121 128 129 128 127 127 126 125 126 128 126 127 127 124 123 127 130 128 129 126 121 121 123 127 133 139 133 127 126 123 122 124 121 118 122 123 106 90 104 126 131 130 134 136 128 124 133 136 127 124 125 127 130 131 132 132 130 132 128 123 127 132 128 128 133 129 124 126 133 136 132 128 129 162
93 125 125 126 125 124 127 130 128 122 123 126 129 131 127 123 126 127 125 125 129 132 130 129 128 127 129 131 131 129 126 124 125 128 130 131 132 129 125 128 131 126 124 126 127 129 130 125 117 117 127 135 132 126 120 111 84 83 126 144 130 119 126 153 161 136 114 109 123 131 126 121 127 135 133 140 155 159 147 132 127 127 127 127 128 128 128 128 117 104 109 128 138 128 116 109 111 130 147 147 137 130 128 124 118 118 120 96 89 118 137 161 168 151 138 131 123 114 113 112 97 99 123 136 148 159 149 132 128 128 127 126 128 127 119 115 115 119 124 126 129 134 138 137 135 134 134 132 130 128 130 130 130 129 129 127 127 127 127 128 129 127 127 126 126 126 127 127 127 127 128 128 127 125 122 118 122 129 128 127 127 127 127 126 126 127 128 129 128 126 123 125 128 127 128 127 124 123 124 125 128 134 132 128 128 123 122 128 125 117 118 122 113 93 99 125 132 129 133 135 128 127 131 133 129 125 124 130 130 128 131 132 131 134 127 122 130 129 123 129 136 131 125 126 132 135 131 129 129 161
92 126 127 127 124 123 128 131 126 121 124 128 127 131 127 123 127 127 124 126 128 131 131 128 129 128 129 131 130 127 127 125 124 126 128 133 137 134 125 125 127 125 125 128 129 128 128 123 116 119 128 134 132 124 102 90 95 115 140 138 126 126 138 158 157 133 118 109 116 128 128 116 115 129 134 141 157 162 146 130 127 126 127 128 129 128 127 127 113 101 106 125 138 129 116 111 111 123 138 149 146 135 129 123 122 123 121 95 90 121 139 161 167 150 137 131 123 114 111 113 105 105 123 132 135 148 147 134 129 130 131 131 128 123 116 114 113 116 121 126 133 141 143 138 135 134 135 134 130 127 131 131 129 129 129 126 126 127 127 128 128 127 127 126 126 127 127 127 127 127 128 128 128 126 121 116 122 130 129 127 126 126 129 128 126 126 127 129 129 126 124 125 127 127 128 127 126 126 125 125 126 129 129 127 128 124 123 130 129 118 114 119 118 98 99 123 130 128 131 136 133 128 128 130 128 124 125 133 130 125 131 133 135 134 123 122 129 128 123 129 135 131 127 129 133 133 130 129 130 161
92 127 128 128 123 122 129 131 125 119 124 127 126 132 129 124 128 127 122 124 128 132 132 128 129 128 128 130 129 128 127 126 125 126 129 136 140 136 125 121 123 124 128 130 128 127 127 123 117 121 129 134 133 121 88 83 115 133 137 132 128 135 146 153 144 129 126 121 117 120 126 114 104 120 133 148 164 159 142 129 126 126 127 129 129 128 127 126 109 99 107 121 134 131 124 121 118 123 133 145 144 135 125 119 121 123 120 93 91 125 142 162 167 148 134 128 124 116 112 116 118 116 124 130 130 137 138 132 130 131 133 131 124 118 114 113 110 113 120 127 135 146 148 139 136 135 136 135 131 127 130 131 129 129 129 126 126 127 127 128 127 127 128 127 126 128 127 127 127 127 128 128 128 126 122 117 121 130 129 126 125 126 129 128 126 126 126 129 129 127 125 125 127 127 128 127 126 127 127 126 126 128 128 124 125 125 125 131 130 121 113 117 121 100 98 123 130 126 128 136 139 131 127 128 124 124 131 134 126 124 131 133 136 134 123 122 126 128 127 128 131 129 130 133 133 130 127 127 131 162
91 127 127 128 124 121 128 132 125 119 122 128 130 132 129 125 127 127 120 120 131 135 131 128 130 128 126 128 129 128 127 126 125 127 132 140 140 133 124 120 121 124 130 130 127 127 127 123 119 122 128 134 135 119 89 100 128 122 124 133 137 143 146 141 133 127 130 130 121 118 124 113 99 112 135 159 167 150 136 130 126 127 128 129 128 128 127 125 105 95 105 114 127 134 137 136 131 130 133 137 135 129 119 111 113 121 123 98 94 127 147 163 166 147 131 126 125 117 113 116 121 126 131 132 130 131 131 130 129 129 130 123 114 113 117 115 113 116 122 129 137 148 150 140 138 138 136 134 131 127 128 129 129 129 129 127 126 126 127 128 128 127 127 126 127 127 127 127 126 127 127 128 128 126 124 119 121 128 128 127 126 127 128 127 126 125 126 128 127 127 126 125 126 128 128 126 125 127 128 126 126 130 128 122 122 125 126 129 129 123 115 118 123 101 96 121 128 125 127 137 141 133 127 127 123 126 136 131 122 125 131 132 134 132 126 123 125 128 128 128 129 129 132 134 132 129 126 126 131 163
91 126 125 128 127 122 126 130 124 119 123 131 132 131 127 124 128 127 119 120 133 137 131 129 129 128 128 126 126 128 128 127 124 126 134 143 139 129 123 121 122 124 130 131 128 126 126 125 121 121 126 135 137 118 98 120 130 106 114 138 143 142 140 133 126 125 131 133 125 123 124 113 98 110 142 164 158 140 133 131 127 127 128 128 128 128 128 125 103 88 98 104 117 133 144 145 138 137 136 135 129 122 115 106 109 124 131 110 98 129 154 165 164 145 131 124 122 115 110 111 116 128 138 134 127 127 130 130 127 125 123 116 107 118 127 124 123 124 127 134 140 146 147 140 139 140 136 132 130 128 128 129 129 129 129 128 126 126 126 128 128 128 128 127 127 127 127 127 126 127 127 128 129 126 124 120 122 128 128 128 127 127 126 126 126 125 126 128 126 127 126 123 126 129 128 127 126 127 129 127 127 130 129 124 123 124 126 127 125 123 118 120 125 108 97 113 123 124 129 140 141 130 125 128 126 129 136 129 122 126 130 130 130 130 127 124 125 128 129 129 129 129 131 133 131 129 126 127 131 163
90 124 123 128 130 125 126 128 123 119 126 132 131 130 126 124 128 127 120 123 133 135 131 129 128 130 129 123 124 129 130 127 123 124 135 143 137 127 123 122 123 125 131 132 129 126 126 126 124 122 124 135 137 117 106 129 133 105 109 139 143 136 136 131 122 122 131 134 129 128 125 112 101 118 150 158 145 134 132 131 127 127 127 128 128 128 128 125 102 82 89 93 107 129 140 139 136 140 143 140 129 121 116 110 117 130 132 119 104 131 160 166 159 142 131 124 117 109 102 106 115 125 133 130 121 119 128 130 126 124 123 118 115 130 140 135 132 132 133 138 142 143 141 138 139 140 136 131 129 129 129 129 128 128 128 128 127 126 126 128 128 128 128 128 127 127 127 127 126 126 127 128 129 127 124 120 122 127 128 127 127 126 125 126 127 125 125 127 125 125 126 123 124 127 128 129 130 130 128 127 127 130 130 127 125 125 126 127 123 121 121 121 125 118 102 102 115 124 132 142 138 126 124 130 133 131 132 129 123 124 130 129 126 127 128 126 126 130 131 130 129 128 130 131 130 129 127 127 130 163
89 123 124 131 131 125 126 128 124 120 126 131 130 130 128 125 127 128 125 126 130 132 130 128 128 130 127 122 125 130 132 129 123 124 134 139 133 127 124 123 124 127 132 132 129 127 125 124 126 124 124 133 135 118 112 131 134 112 111 134 137 130 133 131 122 120 129 133 133 132 125 111 106 128 152 148 136 131 132 130 127 126 127 128 128 128 127 124 101 79 86 93 104 123 129 129 131 135 142 141 131 123 119 119 129 135 128 119 112 136 165 166 154 138 131 124 113 101 96 105 113 115 125 126 117 116 124 128 128 128 129 129 129 137 146 143 137 136 137 140 142 140 137 137 138 138 135 130 128 128 130 130 128 128 128 127 127 127 126 127 127 128 129 129 127 127 127 127 126 125 126 128 129 127 125 121 120 126 128 127 127 126 126 127 127 125 125 126 124 124 125 124 125 126 128 130 132 131 128 127 127 129 130 128 128 125 125 126 124 123 121 120 123 122 109 97 109 125 132 139 133 127 128 132 137 134 129 127 122 124 131 128 121 125 131 130 129 130 131 129 128 127 129 130 129 128 127 127 130 165
89 126 132 136 127 121 124 126 125 122 126 129 129 130 128 125 126 129 128 127 128 130 128 127 129 130 125 123 127 132 133 131 126 125 132 133 129 128 126 124 124 126 132 134 131 128 126 124 126 125 123 130 133 123 118 128 130 118 117 129 131 128 130 131 124 121 127 133 135 134 125 111 112 136 148 140 132 129 131 131 127 127 127 127 128 128 126 123 102 81 89 102 107 115 121 126 128 129 132 134 132 125 121 126 136 137 125 119 120 141 168 166 150 136 130 124 111 98 97 105 104 109 124 126 119 118 123 127 129 130 132 135 136 140 147 145 140 140 139 140 140 137 136 137 137 135 134 130 128 127 130 131 128 128 128 127 127 127 127 127 127 128 129 128 128 127 126 126 126 126 127 128 129 128 125 121 118 124 128 127 128 128 127 127 127 125 125 124 124 124 125 126 128 128 129 130 129 127 127 129 128 128 129 128 128 127 124 125 127 126 123 119 118 120 114 99 106 122 129 133 130 132 134 132 133 133 131 126 124 127 130 125 120 126 132 130 131 131 130 127 126 127 129 130 128 127 127 127 131 167
89 131 139 138 125 117 120 124 124 124 126 128 129 129 128 125 125 129 129 128 129 129 128 127 129 129 126 124 128 131 132 131 129 128 130 128 127 129 128 124 122 125 132 134 131 130 128 125 125 124 123 127 132 127 122 125 126 122 123 127 126 126 128 129 125 123 126 133 136 136 125 112 118 140 144 133 130 128 130 131 128 128 127 126 128 127 126 123 104 87 94 105 108 110 115 124 125 125 124 127 129 127 124 129 137 133 125 123 125 145 170 167 148 134 128 122 110 99 100 101 100 111 125 127 122 121 124 127 130 132 133 134 136 144 148 143 142 141 140 139 137 135 135 137 136 134 133 132 129 127 129 130 128 128 128 127 127 128 127 127 128 128 128 128 128 127 126 126 126 126 127 128 128 128 126 120 116 121 125 126 131 131 128 126 127 127 125 124 125 125 125 128 129 128 129 130 126 123 125 131 130 127 128 128 128 127 125 126 127 127 126 119 115 118 118 107 104 115 125 130 132 136 137 132 126 129 135 129 125 128 127 123 122 128 128 126 132 135 131 126 126 126 129 129 127 127 129 129 132 168
91 133 139 137 126 117 117 121 125 126 127 128 129 128 127 124 125 129 130 129 129 129 128 128 130 129 126 125 126 128 129 131 134 132 127 125 126 130 129 124 122 125 131 132 131 131 129 126 124 124 123 126 131 129 123 123 125 127 128 127 126 125 125 126 125 124 127 132 137 135 125 113 121 142 141 130 128 127 129 131 129 129 127 126 127 127 127 124 106 94 98 102 107 108 112 120 123 122 123 124 126 129 130 133 136 130 123 123 124 147 172 168 148 134 129 121 110 101 100 98 101 114 126 128 123 121 123 125 129 133 133 134 136 146 148 143 144 142 140 137 134 133 133 135 135 134 134 131 129 127 129 130 128 128 128 127 127 128 126 127 128 128 126 128 129 127 126 126 126 126 127 128 128 128 126 120 115 119 122 125 133 133 129 127 128 128 127 125 125 124 125 128 129 128 129 130 128 123 123 129 130 127 129 129 127 126 126 127 126 126 126 121 117 119 121 115 108 111 120 128 132 133 133 131 125 127 135 131 125 125 125 124 125 128 124 122 132 138 133 126 126 127 128 128 126 129 131 130 132 167
91 135 137 133 125 119 117 121 126 128 128 127 127 127 125 123 126 130 130 130 129 130 130 131 132 129 124 124 125 127 128 131 135 133 126 124 126 129 129 125 123 126 131 132 130 130 129 127 126 124 123 126 131 129 124 124 127 130 130 128 127 124 122 123 123 124 128 133 136 133 124 115 125 143 139 128 127 127 129 131 129 128 127 127 127 127 127 125 110 99 98 99 105 107 110 118 122 122 122 123 125 130 133 134 136 130 122 118 121 148 174 170 149 134 129 121 110 104 101 100 104 115 127 128 122 121 123 124 128 132 135 135 140 147 146 145 146 142 137 135 133 132 131 133 135 135 133 130 128 127 129 130 129 129 128 127 127 127 126 127 129 128 126 128 129 127 127 126 126 126 127 128 127 128 126 118 111 115 121 126 132 132 129 129 128 128 128 126 126 125 125 126 129 128 128 129 129 127 123 125 127 128 134 131 125 126 129 128 124 124 125 121 122 124 123 121 117 117 120 124 128 127 128 130 126 128 132 128 125 125 126 126 124 126 122 121 130 136 133 128 129 129 128 126 126 129 131 130 132 167
92 138 138 130 122 117 116 122 128 129 128 127 126 127 124 123 127 130 131 130 130 130 131 133 132 128 123 122 123 126 128 130 134 133 127 125 126 127 126 125 124 128 132 133 129 127 128 128 128 125 123 126 130 129 125 126 128 130 130 129 128 124 120 120 122 125 128 133 134 131 123 117 130 144 136 127 126 128 130 130 128 128 127 127 127 128 128 126 114 102 97 97 102 106 108 117 122 123 123 122 125 132 134 133 135 130 121 114 118 148 175 171 150 134 129 121 111 107 104 101 105 115 125 125 122 121 122 124 128 133 135 136 143 148 145 145 146 142 136 134 133 131 130 132 135 135 132 130 128 126 128 130 130 130 128 127 126 126 127 128 129 128 127 128 128 127 127 126 127 126 127 127 127 128 126 114 104 113 123 127 130 130 129 128 126 124 126 129 130 128 124 123 130 131 128 129 130 130 126 123 125 129 135 132 125 128 131 128 123 125 126 122 125 128 126 123 123 123 122 122 125 122 125 130 128 129 129 125 124 126 129 127 123 124 123 122 127 132 131 130 132 130 128 126 124 128 129 128 131 168
95 141 138 129 123 114 113 122 129 129 128 127 126 128 126 124 126 129 130 130 129 131 134 134 130 127 123 121 123 126 128 129 131 132 130 128 127 125 123 124 127 130 133 132 128 126 127 129 129 125 124 126 129 128 127 127 128 130 130 130 128 124 120 119 121 125 129 133 133 129 124 121 134 142 134 126 126 128 129 128 127 127 127 127 127 127 128 127 118 104 97 95 99 105 108 116 123 124 124 124 127 133 133 135 136 128 117 109 117 152 176 166 149 136 130 123 113 107 104 101 106 117 124 123 122 122 123 125 129 133 135 137 145 146 144 144 145 142 136 134 132 130 131 133 134 132 131 130 129 127 128 129 129 130 128 126 126 127 128 128 128 127 127 128 128 127 127 127 127 127 126 126 127 128 126 112 101 112 124 126 129 129 130 128 122 117 120 130 134 129 121 121 131 134 131 129 129 129 127 126 126 127 130 129 128 129 130 127 124 126 127 123 125 129 129 127 126 125 124 124 124 120 124 132 132 130 128 126 124 126 130 128 125 125 124 123 126 130 129 129 131 130 129 126 124 125 128 127 131 169
101 138 135 129 126 115 110 120 127 129 128 127 127 129 129 126 125 126 127 128 129 132 135 133 128 126 123 120 124 128 129 128 128 129 131 130 127 124 124 126 129 131 132 130 128 126 127 128 128 126 125 126 127 126 128 129 127 129 131 130 128 124 120 120 122 125 130 132 130 128 126 126 136 139 131 127 127 128 128 127 127 127 127 127 127 127 128 127 120 107 98 93 96 106 108 115 123 125 126 126 128 134 135 139 137 123 109 103 121 158 174 158 146 138 132 126 118 108 100 101 108 118 123 122 122 124 125 126 128 132 136 140 142 142 144 143 144 142 136 133 131 130 133 135 132 129 130 130 129 129 129 129 129 129 128 127 126 127 128 128 128 127 127 128 128 127 127 127 127 127 126 126 127 128 127 118 107 113 121 123 128 131 131 129 120 113 115 125 131 130 123 121 129 134 134 131 128 127 126 126 126 125 125 126 127 128 129 128 126 125 127 124 124 128 129 129 129 128 125 123 121 119 126 135 134 129 126 129 127 126 128 128 131 129 126 125 125 129 130 126 125 127 130 128 121 123 130 131 132 170
105 132 132 129 127 119 110 117 126 128 128 127 128 130 130 128 127 125 124 126 128 131 134 133 128 126 123 120 124 130 130 127 126 127 130 131 128 125 126 129 131 131 130 129 128 127 127 127 127 126 127 127 125 126 129 129 127 129 131 131 129 125 119 120 124 126 130 132 128 128 129 129 136 136 128 127 128 127 127 127 127 127 127 127 127 127 128 127 122 110 101 93 93 106 109 114 123 125 126 128 131 139 142 142 134 116 101 101 126 161 170 153 144 139 132 128 123 113 98 98 111 119 121 121 121 123 126 126 128 134 139 139 137 141 145 144 142 140 135 133 131 130 134 136 132 128 128 129 129 129 129 130 129 129 129 127 126 127 128 127 127 127 127 128 128 127 127 127 127 127 127 127 127 128 127 124 116 115 120 122 127 131 129 128 121 115 116 120 125 129 126 122 128 133 133 131 127 125 125 125 126 126 125 124 122 123 127 130 128 127 128 126 125 126 125 126 129 129 124 119 118 121 130 136 134 127 124 131 131 129 129 131 135 132 129 127 123 125 130 124 117 122 131 128 120 122 133 137 136 171
106 128 131 129 128 122 112 114 123 127 128 128 129 130 130 128 128 126 123 124 127 130 132 132 128 125 124 120 122 129 130 128 126 127 129 132 131 125 125 129 131 131 128 128 128 127 127 127 126 126 129 128 125 125 128 128 128 130 129 130 130 126 119 120 126 128 130 130 127 129 131 130 135 134 127 127 128 127 127 128 127 127 127 127 127 128 128 127 124 114 102 92 93 105 111 114 119 123 126 128 135 145 147 143 129 108 95 103 129 159 166 153 146 139 131 130 126 117 97 93 112 121 124 123 119 121 126 128 131 136 139 136 135 141 146 144 140 137 134 132 131 131 133 134 131 129 128 128 128 128 128 130 129 129 129 128 126 127 128 127 127 128 127 127 128 127 127 127 126 127 128 127 127 127 127 125 121 119 122 126 127 127 126 126 123 121 120 120 123 126 126 123 127 132 132 130 127 126 125 125 125 127 127 124 120 119 124 127 126 126 127 127 128 126 122 121 124 125 121 119 119 123 131 136 134 127 126 132 135 134 133 133 133 130 129 129 125 124 128 124 114 117 125 123 121 127 136 139 139 170
107 128 131 129 128 124 114 113 121 126 128 129 129 130 130 128 129 129 124 123 126 130 131 132 128 124 124 121 122 128 130 129 127 127 129 133 132 125 125 128 130 130 129 129 129 127 126 127 125 126 129 130 127 125 127 127 128 130 127 127 131 127 121 122 128 130 129 128 127 130 131 130 134 132 127 127 128 127 127 128 127 126 127 127 127 128 128 127 125 118 103 94 95 105 113 115 115 119 124 128 141 148 146 142 124 102 93 105 132 157 165 157 148 137 130 129 129 121 96 88 107 120 130 130 121 121 126 130 133 136 137 137 135 139 147 145 137 135 133 132 132 131 131 131 130 130 129 127 128 128 128 129 129 129 129 128 126 127 128 127 128 128 127 126 126 127 128 127 126 127 128 128 127 127 127 125 122 121 125 129 126 125 126 126 125 125 124 123 123 124 124 124 128 131 131 130 128 128 127 125 124 126 128 126 121 121 126 126 121 121 123 127 129 127 123 119 121 121 119 121 123 124 128 135 137 132 130 135 137 135 133 132 128 125 126 128 129 128 128 123 117 116 116 112 119 136 142 139 139 167
107 128 130 128 128 125 115 112 120 126 128 129 128 129 130 129 129 129 124 123 127 130 131 132 128 123 124 122 122 126 128 128 129 129 129 133 132 126 124 128 130 130 129 129 128 127 127 126 125 126 128 130 128 126 127 127 127 129 125 124 131 129 124 124 128 130 128 127 128 130 130 131 134 131 127 127 127 127 127 128 127 126 127 127 128 128 128 127 125 120 106 99 100 104 110 114 114 116 123 130 142 147 146 140 117 95 91 109 135 157 165 159 149 136 130 129 130 126 98 80 97 119 138 138 125 124 125 129 133 135 138 139 136 137 145 143 136 133 132 132 131 131 131 130 130 129 128 127 127 128 129 129 129 130 130 127 126 127 127 127 127 128 128 126 125 127 128 127 127 127 128 127 128 128 127 125 123 121 125 129 126 125 126 125 124 125 126 126 125 124 124 125 129 130 129 130 128 128 128 126 124 125 128 127 123 124 128 127 120 118 120 124 127 127 125 121 122 120 119 124 127 127 126 129 136 136 133 134 133 132 133 131 124 123 127 130 131 130 127 122 119 121 114 105 115 140 146 137 137 162
108 128 129 128 128 126 116 112 118 125 129 129 129 130 130 129 130 128 124 123 128 131 131 130 127 124 124 124 124 125 125 126 129 130 129 131 132 127 123 127 130 130 129 129 129 128 127 124 124 128 129 127 126 128 129 128 127 127 125 125 129 129 126 125 127 129 129 128 128 129 130 133 135 131 127 127 127 127 127 128 127 126 127 128 128 128 128 127 125 120 109 105 107 104 105 111 116 118 123 131 139 143 147 142 113 85 88 112 136 158 168 161 148 135 129 129 130 129 104 73 85 119 143 141 129 127 126 128 132 136 140 140 139 139 141 138 134 132 132 132 130 131 132 130 129 127 127 127 128 129 129 128 129 131 130 128 127 127 127 127 127 128 128 127 126 126 127 127 127 127 128 128 128 128 127 126 125 122 123 127 127 126 126 126 125 125 124 126 128 127 125 126 129 129 128 128 127 128 129 128 125 125 128 127 125 126 129 127 122 122 122 121 123 124 124 125 125 121 122 127 128 128 127 126 132 134 131 130 129 130 134 129 123 126 130 131 131 128 128 122 119 126 121 110 118 139 143 133 132 156
108 128 129 128 128 126 119 115 116 121 128 130 129 129 130 130 130 128 124 124 127 131 132 129 126 125 125 125 126 125 123 124 128 130 128 128 132 129 123 127 129 129 129 130 130 128 125 122 125 129 130 126 125 130 132 129 126 125 126 127 129 128 127 124 126 128 128 128 129 128 130 133 135 131 127 127 127 127 127 127 126 126 128 128 128 128 128 128 125 121 112 108 111 106 102 110 117 121 125 130 135 139 150 148 117 82 84 112 136 162 171 159 144 133 129 129 129 129 110 73 76 114 141 141 132 130 129 129 131 138 141 140 141 140 137 135 133 132 132 132 129 129 131 130 128 127 127 128 128 128 128 128 129 132 130 128 127 127 127 127 126 127 128 128 127 126 126 126 127 127 128 128 128 127 127 126 125 122 121 126 129 126 125 126 126 125 124 125 129 129 126 126 129 129 126 125 126 129 129 127 127 127 127 125 126 128 128 126 125 126 126 122 122 122 122 125 126 124 125 128 127 128 130 127 128 129 127 128 129 130 131 127 124 131 132 129 128 128 130 124 119 127 128 120 123 135 138 128 127 151
108 128 129 128 127 125 122 121 116 115 124 131 131 128 128 130 131 129 125 125 126 129 131 129 126 126 126 125 127 128 125 124 126 129 127 126 131 130 124 125 128 129 131 132 129 127 124 123 126 129 129 126 126 130 131 128 126 126 127 129 129 128 125 124 126 128 127 128 129 129 130 132 135 132 128 127 127 128 127 127 126 126 128 128 128 128 129 128 125 122 114 108 111 109 104 111 117 121 126 128 128 132 148 156 134 97 89 110 138 162 162 150 138 132 130 127 126 127 111 77 73 105 132 140 137 134 132 130 132 138 142 141 139 136 134 133 133 132 132 132 130 129 129 129 128 127 127 128 128 127 127 130 131 130 129 128 128 128 127 127 126 127 128 128 128 127 126 126 126 127 128 128 128 127 127 126 125 122 120 126 129 126 124 125 126 126 125 126 129 129 127 128 129 128 126 124 125 128 128 126 128 130 128 125 126 129 126 124 127 127 126 124 123 121 121 124 126 125 126 127 126 128 131 128 126 127 126 127 131 130 126 125 126 134 132 124 125 129 133 127 120 125 130 127 125 132 135 125 123 150
108 127 128 128 127 125 125 126 118 111 119 130 131 128 127 129 132 130 126 126 126 128 129 129 127 126 126 125 127 129 127 125 126 128 126 124 129 129 125 125 127 129 131 132 129 125 124 125 126 128 129 128 129 130 129 127 126 128 128 129 128 126 124 124 126 128 128 129 130 129 130 130 134 134 128 126 127 129 128 127 126 126 128 128 127 127 128 129 127 123 116 108 111 112 109 112 116 121 125 123 121 123 132 155 159 130 109 116 139 152 146 139 134 131 129 126 125 125 110 84 78 96 120 139 142 137 131 132 136 138 143 142 136 133 132 132 133 132 131 131 130 130 129 128 128 128 128 127 127 126 128 131 131 129 128 128 128 129 128 126 126 127 128 128 128 127 126 125 125 127 128 128 128 128 127 126 125 123 121 125 129 127 125 124 126 126 127 127 128 128 127 128 129 129 126 125 125 126 127 126 127 130 130 126 126 127 124 124 128 128 127 125 124 122 121 123 127 127 127 127 126 128 130 127 125 127 126 127 133 129 122 125 129 134 132 123 124 128 134 130 121 124 130 129 126 129 131 124 124 152
109 127 128 128 127 125 126 128 120 111 115 126 130 128 128 130 131 130 128 127 127 128 127 127 128 128 127 125 127 129 128 127 127 128 125 123 127 128 126 126 127 128 130 133 130 124 124 127 127 128 128 130 130 129 127 125 126 128 129 129 128 125 124 124 127 129 129 129 130 129 129 129 133 134 128 126 127 129 129 128 127 126 128 128 127 127 127 129 128 124 117 110 112 115 114 113 115 120 121 115 114 114 114 139 165 164 145 133 138 139 134 133 132 127 126 126 126 122 110 92 86 94 117 137 143 138 130 134 138 136 141 140 133 131 130 131 133 132 131 131 130 130 129 127 127 129 128 127 126 127 129 131 130 129 128 128 129 129 128 126 126 127 128 128 128 127 126 125 125 127 128 128 128 128 128 127 126 124 121 123 127 127 125 125 126 126 127 128 127 126 126 127 129 130 127 126 126 126 127 125 126 130 131 128 125 124 123 124 127 129 129 126 123 121 123 125 128 127 126 128 127 127 128 126 125 127 126 126 133 128 121 127 131 133 129 124 125 126 131 131 125 125 129 129 126 127 128 124 126 154
110 127 128 127 126 126 127 128 121 115 114 120 128 129 129 130 130 129 129 128 129 128 125 126 129 128 127 126 127 128 128 127 128 128 127 125 125 126 125 126 126 127 130 133 131 125 125 128 128 127 127 130 130 127 126 125 125 128 130 129 127 126 125 126 128 129 129 129 130 130 128 128 134 135 128 126 127 129 129 128 128 127 127 127 127 127 127 128 128 125 119 111 113 117 117 116 117 120 115 108 109 103 105 123 144 171 179 163 146 134 128 130 129 124 124 127 126 120 110 99 93 104 123 134 139 137 131 135 137 133 135 136 132 130 130 130 132 132 131 131 130 130 129 126 127 129 128 127 126 127 130 130 129 129 129 129 128 129 128 126 126 127 127 128 127 127 126 126 126 126 127 128 128 128 128 127 126 124 121 122 126 126 126 126 127 126 127 128 128 127 126 127 128 130 129 127 126 127 128 126 126 128 130 127 124 123 124 124 125 128 129 125 122 122 126 129 130 128 126 128 128 126 127 126 124 128 126 124 129 128 124 128 130 133 129 124 124 124 127 128 127 129 130 128 125 126 127 124 127 155
110 128 128 126 126 127 128 127 122 120 114 115 126 129 130 130 129 128 129 130 129 127 124 126 129 127 127 128 127 128 127 127 128 128 129 126 125 125 124 125 125 127 131 133 131 127 126 127 127 126 127 129 129 127 126 125 124 127 130 129 128 127 127 126 127 128 128 129 130 131 128 127 135 135 128 126 127 128 128 127 128 128 127 127 127 127 127 127 127 126 120 113 113 117 118 119 121 121 114 106 104 96 102 117 125 151 181 185 166 142 129 128 126 123 125 125 122 117 113 106 102 116 130 133 136 134 131 133 133 130 130 132 132 131 130 129 131 131 131 132 130 129 129 127 127 128 128 127 127 128 130 130 129 129 129 128 128 128 128 127 127 127 127 127 127 126 126 127 127 127 127 128 128 128 128 127 126 124 120 121 125 125 126 126 126 126 126 128 129 128 127 127 127 129 130 128 127 127 129 127 127 127 127 126 124 123 125 125 125 127 128 124 121 124 128 131 132 129 128 129 127 125 127 125 124 127 126 124 126 128 127 128 127 132 132 124 122 124 125 125 128 132 131 128 124 127 129 126 128 155
110 128 128 126 126 127 128 127 124 122 113 111 124 129 131 130 128 128 128 130 129 126 125 128 130 127 127 129 128 128 127 126 126 128 129 126 125 124 123 126 126 128 131 133 131 126 126 127 126 125 127 129 128 128 127 124 124 128 130 130 129 128 127 126 126 127 129 129 130 130 128 129 136 134 127 127 127 127 127 127 128 128 126 127 128 128 127 127 127 126 122 115 112 115 118 121 124 124 117 108 102 95 100 114 120 136 160 185 180 153 134 128 126 123 124 123 119 118 117 115 115 124 131 133 134 129 127 129 129 128 128 131 132 131 131 130 129 130 131 133 130 128 129 129 128 128 127 128 128 128 130 130 128 129 129 128 127 128 128 127 127 127 127 127 126 125 126 127 127 128 127 127 128 128 127 127 126 125 120 120 124 125 127 125 124 125 126 127 128 128 128 129 127 127 129 129 127 127 128 127 128 129 127 125 124 125 128 127 125 126 128 125 121 125 130 131 130 128 128 128 126 126 125 125 124 125 126 126 124 126 129 128 125 130 132 124 122 124 124 124 127 131 131 128 127 128 130 128 129 154
110 128 127 125 127 128 128 128 126 123 113 111 122 130 132 129 127 128 128 129 128 126 126 128 130 128 129 130 128 127 127 126 124 127 128 127 127 124 124 127 127 128 132 133 129 126 126 127 126 125 127 128 128 128 126 124 125 129 130 130 129 127 125 126 126 126 129 130 129 128 129 131 137 134 128 127 127 127 127 127 127 127 126 127 128 128 128 128 127 125 124 118 111 112 117 122 125 125 121 114 108 101 100 111 116 123 141 173 184 158 137 130 127 123 125 123 120 121 123 123 125 128 129 131 131 125 122 125 126 126 128 131 132 131 132 131 129 129 130 132 130 128 129 129 129 129 128 128 128 129 130 130 128 129 129 128 127 127 127 128 128 127 127 127 126 125 126 127 127 128 127 127 127 128 127 127 127 125 120 120 125 126 127 126 124 126 127 126 127 127 129 130 127 127 129 128 126 126 127 128 130 130 126 124 125 128 129 128 125 125 128 125 121 125 130 130 128 126 126 127 127 126 125 126 126 125 125 126 124 125 128 127 126 130 131 125 124 125 122 123 127 131 132 131 129 129 129 129 130 151
110 128 127 125 127 129 127 126 126 124 115 111 120 130 132 129 127 128 128 128 128 127 126 128 129 128 130 130 127 126 128 126 124 127 129 128 128 124 124 128 127 127 131 131 127 127 127 128 128 126 126 127 127 126 125 125 127 130 131 130 129 126 124 125 126 127 130 130 129 127 128 131 136 135 129 127 127 128 128 126 126 127 126 126 128 128 129 129 128 126 124 120 111 110 116 122 124 125 126 121 118 112 106 109 108 111 127 159 177 157 137 132 129 126 126 125 122 124 127 128 129 131 130 128 126 121 119 124 125 125 128 132 133 132 131 131 131 130 128 129 130 130 130 127 128 130 129 128 128 128 129 130 128 128 129 128 127 127 127 128 128 127 127 127 127 126 127 128 128 127 126 126 127 128 127 127 127 126 121 120 123 126 129 127 125 125 126 127 128 128 127 128 126 127 129 127 126 125 128 130 132 131 126 124 125 128 129 128 126 126 127 124 120 123 128 127 126 126 126 128 127 125 127 128 127 124 124 124 125 126 126 126 128 132 130 125 126 126 123 123 128 132 133 133 129 128 129 128 130 149
110 127 127 125 127 130 126 125 126 126 117 110 119 130 132 128 127 129 129 128 128 128 127 128 129 129 130 129 125 126 128 125 125 128 129 128 128 124 124 127 127 127 129 129 127 127 127 128 128 127 126 127 126 126 125 125 127 131 131 130 129 126 124 124 126 128 130 131 130 127 126 129 136 136 130 127 127 129 128 126 126 127 126 126 128 128 128 129 129 127 125 121 113 109 114 121 122 125 130 128 127 126 119 109 107 111 119 139 154 149 140 135 132 128 128 128 125 126 129 131 131 131 127 120 118 119 121 125 126 125 128 133 134 132 130 131 133 132 127 128 131 132 130 127 128 130 129 128 128 127 129 131 129 128 128 127 127 127 127 128 127 127 127 127 128 128 127 128 128 127 126 126 126 127 127 127 127 127 123 119 121 127 130 128 125 121 125 130 131 129 127 125 124 127 128 127 126 125 129 130 131 130 126 124 125 127 128 127 127 127 127 123 121 122 124 126 126 127 128 129 126 124 127 128 126 125 124 124 127 128 126 127 130 132 129 126 126 128 127 125 128 133 135 132 126 125 128 127 129 148
110 127 127 124 127 130 127 124 125 126 119 111 118 130 132 127 127 130 129 127 128 129 129 129 129 128 128 127 124 128 129 126 126 128 130 128 126 124 125 128 127 127 128 128 129 127 127 127 127 126 126 127 127 127 125 125 127 130 131 129 130 127 125 124 126 128 130 132 130 126 126 128 134 136 132 128 127 128 127 127 127 127 126 126 128 129 128 129 129 128 125 123 117 109 111 119 120 122 130 134 134 138 132 118 115 119 120 122 129 137 139 137 133 129 128 129 127 127 129 131 131 128 120 111 113 120 125 127 127 127 129 133 134 131 130 130 132 132 128 128 131 131 130 128 128 130 129 129 128 128 129 131 129 128 128 127 127 126 127 128 127 127 127 128 128 129 128 127 127 127 126 126 126 127 127 127 127 127 125 119 120 127 129 127 124 120 124 131 132 130 127 124 124 128 128 126 124 125 129 130 130 130 128 125 125 127 128 126 126 127 126 123 121 120 122 126 127 127 127 129 128 125 125 126 128 125 125 126 128 128 127 128 129 130 129 127 128 131 131 126 126 132 134 130 124 124 128 127 127 147
110 127 127 125 127 130 127 125 123 123 120 113 118 129 131 128 128 130 129 127 128 129 129 129 128 126 127 125 124 129 129 126 126 127 129 128 126 125 126 128 128 127 127 129 130 128 127 126 126 126 127 127 127 128 126 125 126 129 130 129 129 128 126 126 128 128 129 130 128 126 127 127 130 135 134 129 127 127 127 127 127 126 126 126 127 129 128 129 129 127 126 125 121 110 108 116 118 119 125 134 139 141 136 123 120 127 128 122 121 130 136 136 133 129 129 129 128 127 127 127 126 121 114 111 117 123 126 128 129 128 129 134 134 131 131 130 129 131 130 130 131 130 130 128 129 130 129 128 129 129 129 129 129 128 128 127 126 126 127 128 127 127 128 128 128 128 128 127 128 127 127 126 125 126 127 127 127 128 125 120 119 125 127 127 125 122 125 130 131 130 127 124 125 127 128 125 124 126 129 129 129 128 128 127 125 128 128 125 126 127 126 124 122 121 123 126 128 126 125 128 129 127 123 126 129 126 126 128 129 128 127 128 128 129 130 129 131 133 131 125 123 129 132 128 125 126 129 127 126 147
109 127 128 127 127 128 127 125 122 121 121 116 119 129 131 129 129 129 128 127 129 129 128 129 127 126 126 125 125 129 128 126 127 126 128 129 127 126 126 129 129 127 127 128 129 128 126 126 126 126 129 129 126 128 127 126 126 128 128 127 129 129 127 129 131 129 127 128 126 127 128 126 128 135 135 129 127 127 127 128 127 125 126 127 127 129 129 129 128 126 125 126 124 114 106 112 113 115 121 128 136 137 126 112 119 136 136 130 132 139 138 132 132 131 130 130 128 126 125 123 120 118 117 119 123 125 126 128 130 129 130 135 134 131 131 130 129 129 130 132 131 129 129 129 130 130 129 128 128 129 128 129 130 129 128 127 126 126 127 128 127 127 128 128 128 127 127 128 128 127 127 126 125 126 127 128 127 127 126 122 119 122 126 127 127 125 126 128 129 129 126 126 126 126 127 126 126 128 129 128 127 127 128 128 126 127 126 123 125 127 126 126 123 122 124 126 127 125 124 127 130 129 124 126 130 128 127 128 129 128 127 126 128 131 133 133 132 131 128 124 122 125 129 128 127 130 131 126 125 147
108 127 129 129 127 127 126 125 122 121 120 118 121 128 130 129 130 128 126 127 130 130 128 128 126 126 126 126 126 128 127 126 127 127 128 129 128 127 127 130 131 128 127 126 127 128 126 126 126 127 129 128 127 128 128 127 127 127 126 126 128 128 128 130 131 129 127 127 126 127 128 126 129 135 134 129 127 127 128 128 126 125 126 127 128 129 129 129 128 126 125 126 126 119 108 108 109 111 117 120 126 126 109 102 127 145 136 132 141 149 139 128 134 137 132 131 128 126 124 122 119 120 123 125 125 125 126 128 130 130 132 135 133 131 132 131 130 129 128 130 131 129 128 129 131 130 130 128 127 128 128 129 130 129 128 127 126 126 127 127 127 127 127 128 128 127 127 128 128 128 127 126 125 126 127 128 128 127 126 123 118 120 126 126 128 127 127 126 126 127 126 127 126 124 126 129 129 128 128 126 125 127 127 128 127 125 126 125 126 126 127 129 124 122 124 124 126 125 124 127 130 130 126 127 129 128 128 129 129 129 128 127 128 132 134 132 129 128 127 125 123 123 127 128 127 130 131 127 126 147
107 127 130 130 127 126 126 124 122 121 120 119 123 128 130 129 129 127 126 127 129 129 128 127 127 127 126 127 127 128 127 126 128 127 128 129 128 128 128 130 131 129 126 124 126 127 126 126 126 127 128 127 127 129 129 129 129 126 125 126 127 127 127 129 129 128 127 128 127 125 127 128 131 137 133 127 128 128 128 128 126 125 127 128 128 129 128 128 128 127 125 126 127 122 113 108 108 110 114 114 116 114 98 105 140 152 140 136 141 146 134 126 135 139 134 131 128 126 124 121 120 122 125 126 126 126 126 128 130 131 133 135 132 130 131 132 132 130 126 127 130 130 129 129 130 131 130 127 126 129 129 129 130 129 126 126 127 127 126 127 128 127 127 128 127 127 128 128 128 127 127 127 126 126 126 128 128 127 126 125 119 120 125 126 127 127 127 126 125 126 126 126 125 125 127 129 129 128 128 127 126 128 126 127 127 124 126 127 127 126 127 129 125 123 123 123 126 127 126 127 128 128 127 128 129 128 128 130 130 131 130 128 128 130 131 128 125 127 127 126 124 122 125 127 127 128 131 130 126 146
107 127 130 129 127 126 124 122 122 121 121 122 124 128 129 129 128 127 127 127 127 129 128 128 129 128 126 126 128 128 127 127 128 127 128 129 128 128 130 130 129 129 127 124 126 127 126 127 127 126 126 126 126 129 131 129 128 127 126 125 127 126 126 127 127 127 127 128 128 124 126 128 134 140 132 126 128 129 128 128 127 125 127 129 129 128 127 127 128 128 127 127 127 124 119 113 109 112 113 112 110 106 99 112 142 151 150 147 140 138 132 127 131 134 131 129 126 124 122 121 120 122 125 126 126 127 127 127 130 132 133 133 132 130 130 131 133 130 126 126 129 131 131 130 129 129 129 128 127 129 130 130 129 128 126 126 127 127 126 127 128 127 127 127 127 127 128 128 127 126 127 128 127 126 126 127 127 127 126 125 121 118 124 126 126 126 126 127 127 126 126 125 126 127 128 127 128 128 129 128 127 128 125 125 128 125 125 127 128 127 127 128 126 123 122 122 127 128 128 128 127 126 127 129 130 128 130 132 132 131 129 128 128 128 128 125 124 126 126 125 125 123 124 128 128 128 132 132 125 147
108 128 130 128 127 126 123 121 121 122 123 123 124 126 127 129 128 126 128 127 127 128 128 129 130 128 125 125 127 129 128 127 129 126 126 130 129 128 130 130 127 127 127 126 127 127 128 129 128 125 126 128 126 128 131 128 126 127 126 124 127 128 126 125 126 127 127 127 128 125 124 127 135 141 132 127 128 129 128 128 127 125 127 129 129 127 126 127 128 128 129 128 127 125 123 118 112 113 113 113 111 105 103 115 134 142 153 156 144 138 135 129 128 130 127 125 122 122 123 122 121 122 124 124 125 128 129 127 130 133 132 131 131 131 130 131 132 129 125 126 130 132 132 129 127 127 128 130 128 128 130 129 128 127 127 127 127 127 126 127 127 127 127 127 128 128 128 128 127 126 127 128 127 126 126 127 127 127 126 126 121 116 121 127 127 126 126 128 128 125 124 125 127 128 128 128 128 128 128 129 128 128 125 124 128 126 124 125 129 130 128 128 127 124 122 124 127 128 128 130 129 126 125 128 130 130 131 132 130 129 128 127 127 126 127 125 125 127 123 121 123 124 126 130 130 129 132 130 124 148
109 129 129 127 126 125 123 122 123 124 124 123 123 124 126 129 128 126 128 127 128 129 128 128 129 127 125 126 127 130 129 128 128 125 125 130 131 129 129 128 126 125 127 128 129 128 129 130 127 124 127 129 128 128 129 128 126 127 125 123 127 128 126 126 127 127 126 126 129 127 125 126 134 140 131 128 129 128 128 129 127 125 126 128 129 128 126 126 128 129 129 128 127 126 125 122 117 115 112 112 113 109 104 111 126 134 146 154 147 141 136 129 129 129 125 123 121 122 123 123 122 123 125 125 125 128 129 129 131 134 132 131 131 131 130 129 130 129 126 127 130 132 131 128 127 127 129 130 127 127 130 129 128 127 128 128 127 126 126 127 127 127 127 127 128 129 128 128 127 127 127 126 126 127 126 127 127 127 126 126 120 113 119 128 131 129 127 128 127 123 121 125 127 127 127 128 129 128 127 129 129 129 126 125 128 127 126 124 126 130 128 128 128 126 124 127 129 127 127 130 130 128 125 125 128 130 132 130 128 128 128 127 126 125 127 126 126 128 122 116 121 126 128 132 131 129 131 127 124 150
110 129 129 127 125 124 124 124 125 126 125 124 121 122 126 128 127 127 128 127 129 130 128 127 128 126 126 127 127 129 129 128 127 124 125 130 131 130 127 127 125 126 127 127 128 128 129 130 126 124 127 128 128 128 128 127 128 128 125 124 127 128 126 126 128 127 126 125 128 128 126 127 134 138 131 128 129 128 128 129 128 126 127 128 128 128 127 127 127 128 128 127 127 127 127 125 122 120 113 109 113 114 105 105 121 129 134 140 143 144 138 130 131 131 127 127 125 123 123 124 125 126 127 128 128 127 128 130 133 134 132 131 130 130 130 128 129 128 126 127 129 131 131 129 127 128 129 130 127 127 129 129 127 127 128 128 127 126 126 127 128 128 127 127 128 129 128 127 127 127 127 126 126 126 126 127 127 126 126 127 121 111 118 129 132 130 127 127 127 123 121 125 127 126 126 126 130 129 126 128 132 131 126 126 128 127 128 125 123 127 128 128 129 128 125 128 130 127 127 129 130 129 127 125 125 128 131 129 126 127 128 126 125 126 128 127 125 127 123 115 120 125 128 133 131 130 132 128 126 150
110 129 129 127 126 124 124 126 127 127 127 126 121 121 126 126 125 127 128 127 129 130 128 128 128 126 126 128 128 128 129 128 127 125 126 130 130 129 127 126 125 127 128 124 126 128 129 130 126 125 127 127 127 128 127 127 128 129 126 125 128 127 125 127 128 128 126 125 128 127 125 127 134 140 133 127 128 128 128 128 128 127 127 127 127 127 127 127 127 128 127 127 127 129 128 126 125 123 117 110 112 113 104 103 116 122 119 122 133 141 138 134 136 137 135 135 132 123 123 129 130 127 127 130 130 127 127 130 133 135 134 131 129 129 129 128 128 128 127 127 127 129 131 130 128 128 129 130 127 126 129 129 128 128 128 127 126 126 127 127 128 128 127 127 127 128 128 127 126 127 128 127 127 127 126 126 127 127 126 128 121 113 118 127 130 130 127 127 127 124 121 124 126 126 125 126 129 128 125 128 134 133 125 125 129 128 129 127 123 125 129 129 128 127 125 128 129 128 127 130 131 129 128 126 125 126 130 128 125 127 128 124 123 128 129 126 125 126 124 119 120 123 127 132 132 131 132 129 127 149
110 128 128 128 126 124 124 127 127 127 128 127 122 120 125 125 123 126 128 126 127 128 128 130 129 127 126 127 128 127 128 129 128 126 127 129 129 128 127 127 126 129 129 123 123 127 128 129 127 126 127 126 126 128 127 127 127 128 127 126 128 127 125 126 129 128 126 126 127 126 125 126 134 143 136 127 127 127 127 128 129 129 128 127 126 127 127 127 128 127 127 126 128 129 129 127 126 125 121 116 113 109 103 103 110 109 103 110 127 135 135 136 140 143 143 144 138 127 127 134 133 127 125 131 132 129 128 131 134 135 133 130 128 129 129 128 128 129 128 127 127 128 130 130 128 128 129 130 127 126 129 130 129 128 127 126 126 127 127 127 128 128 127 127 127 127 128 128 126 127 127 127 128 128 126 126 127 127 126 127 122 115 118 123 127 130 128 128 128 124 122 125 126 126 126 127 129 126 125 128 134 132 124 126 130 127 127 129 126 126 127 127 126 125 127 129 128 128 128 131 132 128 127 128 127 126 127 127 125 128 128 122 123 128 127 125 125 126 125 122 123 123 125 131 133 132 132 131 129 149
110 126 128 129 128 127 126 126 125 127 129 128 124 120 122 123 124 126 127 126 126 127 127 129 131 128 126 127 127 128 128 129 128 126 128 129 128 128 127 126 127 129 130 126 123 126 127 127 126 125 125 126 127 127 127 127 128 127 127 126 127 127 125 126 129 128 126 127 128 126 125 126 134 145 138 127 127 128 127 127 129 130 129 128 126 126 127 127 128 127 126 127 128 129 128 128 127 125 124 122 118 110 104 104 102 95 91 104 127 134 131 132 139 149 150 148 142 132 132 135 133 127 126 131 131 129 130 133 135 134 133 129 127 129 129 129 128 128 128 127 128 128 129 128 128 129 129 128 126 126 129 130 129 128 126 126 127 127 127 127 128 128 128 127 127 127 127 127 127 126 127 128 129 128 126 126 127 128 127 126 121 116 117 121 126 129 128 129 128 125 125 126 125 126 127 128 127 126 127 131 132 128 123 128 131 125 125 130 129 126 124 125 125 124 128 130 127 128 130 131 130 125 124 129 132 127 124 126 127 130 126 121 125 127 125 125 126 127 126 124 125 124 124 130 134 131 130 132 131 150
110 126 127 129 129 128 127 126 125 127 128 128 125 122 120 121 125 126 125 126 126 127 127 128 131 129 126 126 128 129 129 127 126 126 128 129 128 128 127 126 127 128 130 129 125 125 127 126 124 122 123 126 127 128 127 127 128 128 127 126 126 126 125 127 128 127 125 127 128 127 126 127 134 146 141 129 127 128 128 127 128 129 128 128 126 126 127 127 128 128 126 127 129 129 128 127 127 126 125 125 124 116 108 105 97 88 88 102 125 130 126 130 141 152 151 149 144 137 134 133 133 129 127 131 131 130 131 133 134 132 132 129 127 128 128 128 126 127 129 129 129 129 128 127 127 130 130 127 126 127 128 130 129 128 126 126 127 127 127 127 128 128 128 128 127 127 126 127 127 126 126 128 129 128 127 126 128 128 127 126 121 116 116 120 125 127 127 129 129 128 127 126 124 125 126 126 127 128 129 132 130 125 125 131 131 125 124 128 130 127 124 125 125 124 127 128 127 127 129 130 127 123 123 128 133 128 123 127 129 129 126 124 127 126 126 127 126 127 126 123 124 125 124 128 132 131 130 132 133 152
110 127 127 127 129 129 127 126 126 127 128 127 126 125 121 121 123 124 124 124 125 128 128 128 130 129 125 125 129 131 129 126 125 126 128 130 128 126 126 128 127 126 130 130 126 126 127 127 124 122 124 126 127 129 128 126 128 128 126 126 125 125 125 127 129 128 126 125 126 127 127 127 133 145 142 130 127 129 129 127 128 129 128 127 127 127 127 127 127 127 127 128 129 129 127 126 127 128 126 126 126 122 115 107 97 90 90 102 119 118 119 133 148 152 147 146 143 138 133 132 132 131 128 131 132 130 130 133 133 130 131 130 127 126 126 127 126 127 130 129 129 130 128 126 127 130 129 126 127 127 128 130 129 127 126 127 127 127 127 127 128 127 128 129 127 127 126 126 126 126 127 127 128 128 127 127 127 127 127 126 121 117 117 119 123 126 126 127 128 129 129 127 123 124 126 127 129 130 131 130 128 125 127 131 130 124 123 128 130 128 126 126 126 124 125 126 127 127 127 129 127 122 124 128 131 128 125 127 129 128 126 127 129 127 128 129 127 126 125 122 123 126 126 126 128 130 131 132 133 153
111 127 126 126 129 129 127 126 127 128 127 126 127 128 125 122 121 122 123 122 123 128 130 130 129 128 126 125 129 130 128 126 125 126 128 131 129 126 127 128 126 124 128 129 126 126 127 129 125 123 125 126 127 129 128 126 128 129 127 126 126 125 124 126 128 129 128 126 125 126 126 126 130 143 142 131 128 128 128 127 127 128 128 127 127 127 127 127 127 127 127 128 129 129 127 125 127 128 127 127 126 125 122 114 104 99 95 101 113 112 115 132 145 147 145 144 140 135 133 132 132 131 130 132 133 130 129 131 131 129 130 130 127 125 126 128 128 128 129 129 129 129 128 127 127 129 128 126 126 127 129 130 128 127 127 128 128 127 127 127 127 127 128 128 127 127 127 126 126 126 128 128 127 128 128 127 127 127 127 125 122 117 118 120 122 125 127 128 127 127 128 128 124 122 126 128 129 130 130 128 127 128 128 129 129 124 124 129 130 129 128 127 126 125 124 126 128 127 126 128 127 122 124 127 128 128 127 128 128 127 126 127 129 129 128 129 128 125 124 123 123 127 128 125 126 130 132 131 132 152
112 127 125 126 131 131 126 125 127 128 127 126 127 129 128 124 120 121 121 119 122 129 131 130 129 128 127 127 129 129 127 126 125 125 128 131 129 128 128 127 126 124 126 128 126 126 128 128 126 124 126 128 129 129 127 125 126 129 128 126 126 125 124 125 127 128 129 128 127 126 124 123 127 140 143 133 129 128 128 127 126 127 128 127 127 127 127 127 127 127 127 128 129 129 126 126 128 129 128 127 126 126 125 120 114 108 102 101 110 113 118 130 136 139 143 142 136 132 132 132 132 132 131 132 132 129 128 129 130 128 129 129 126 125 128 130 128 127 128 128 128 128 128 127 129 128 126 126 127 128 130 130 128 127 127 128 128 128 127 127 126 126 127 127 128 128 127 126 125 126 128 128 127 127 128 127 128 128 127 125 121 116 118 122 123 124 128 129 126 125 128 129 124 121 126 128 129 130 129 127 127 130 130 128 127 124 125 130 128 127 130 129 126 125 125 128 129 127 127 127 127 125 125 127 128 128 127 128 128 126 125 126 130 130 128 130 128 124 124 123 124 129 129 126 128 131 131 130 129 149
112 126 124 126 132 131 126 126 128 127 127 126 126 128 129 127 123 121 119 117 122 129 131 130 128 127 127 127 129 128 127 127 127 125 127 130 130 130 129 127 126 124 126 127 126 127 128 127 127 125 125 129 130 129 127 124 124 129 129 126 127 126 125 125 126 127 128 129 129 127 124 122 124 137 146 137 128 129 129 127 125 127 128 127 127 127 128 127 127 127 126 127 129 128 126 127 128 128 128 127 126 127 127 124 120 116 110 107 110 113 121 130 132 134 137 136 132 130 131 132 132 131 130 131 130 129 127 127 129 128 128 128 126 127 130 131 128 126 127 128 128 128 128 126 128 128 125 126 127 128 130 131 129 128 127 128 128 128 127 127 126 126 127 127 128 128 128 127 125 126 128 128 127 127 128 127 128 129 127 125 121 116 119 124 124 123 127 129 125 125 129 129 125 123 125 126 128 130 128 126 126 129 130 129 128 124 125 129 126 125 131 131 127 125 124 127 128 127 127 125 126 127 127 129 130 127 127 130 129 127 124 125 130 129 128 131 128 123 121 120 124 130 129 127 131 134 131 129 128 147
112 126 124 126 131 130 127 127 128 127 125 126 127 128 129 128 125 122 118 114 120 129 130 129 129 127 125 127 128 129 127 128 128 125 125 129 131 131 129 128 126 123 126 127 127 128 128 126 126 126 126 126 128 129 127 123 124 129 129 126 127 126 125 125 126 126 126 128 130 128 125 124 124 134 148 142 130 129 129 127 126 127 127 128 127 128 128 127 126 126 126 127 128 128 127 128 128 127 127 128 126 127 128 126 123 121 117 113 113 115 120 130 132 131 131 132 130 130 131 131 131 129 129 129 128 128 127 127 128 127 128 128 128 129 130 131 128 126 127 127 128 129 128 125 125 127 126 127 128 127 129 132 131 128 126 127 128 128 126 127 127 126 127 128 127 127 128 127 125 126 127 128 127 127 127 127 128 129 127 125 121 117 119 123 125 125 125 128 127 127 131 129 125 124 126 125 127 130 127 126 126 127 129 130 129 124 124 127 126 127 131 130 128 125 123 127 129 130 127 123 123 125 127 130 132 129 127 129 129 129 127 125 126 126 128 132 129 122 118 118 124 129 129 128 132 135 133 130 129 147
112 126 125 127 130 128 127 128 128 126 125 127 127 129 129 128 125 123 118 115 120 127 128 128 129 126 124 126 128 129 128 128 128 127 126 130 130 129 129 128 125 124 127 128 128 129 127 125 125 128 127 124 125 129 127 123 124 128 127 127 127 126 124 125 126 126 125 127 130 128 126 126 126 132 146 147 134 128 127 127 127 128 127 127 128 128 129 127 125 126 127 127 128 128 128 128 128 126 126 127 127 128 128 126 125 125 123 119 118 117 120 127 130 129 129 130 128 128 130 129 129 129 129 128 126 127 127 127 126 126 129 130 129 129 130 130 128 126 126 127 128 128 127 123 124 127 128 129 128 126 128 132 132 129 126 126 128 128 126 127 128 126 127 128 127 126 127 127 126 127 127 127 128 127 127 128 129 129 127 125 122 118 118 123 129 127 125 127 128 130 131 128 124 125 127 125 126 127 125 128 127 125 127 129 129 124 123 125 127 130 132 128 126 125 124 127 130 132 128 121 121 122 125 129 132 131 127 128 128 130 130 126 123 125 128 131 129 120 116 120 124 128 129 129 132 134 134 131 130 148
112 127 126 127 128 127 127 127 126 125 127 128 127 129 130 128 126 123 119 118 121 124 125 128 130 127 124 125 127 128 128 128 128 128 129 131 129 128 128 128 125 125 127 127 129 129 126 125 126 127 126 123 125 129 127 124 126 128 126 126 128 126 124 124 125 126 124 125 128 128 126 126 127 130 142 151 139 127 127 127 128 128 127 127 127 128 129 126 125 126 127 127 127 128 128 128 128 127 126 127 127 128 128 127 126 126 126 124 122 121 122 125 127 128 126 128 127 125 128 128 128 129 129 128 125 126 127 127 126 126 129 130 129 129 130 129 128 126 127 128 128 126 125 123 124 128 129 128 128 126 129 132 131 128 126 127 128 128 126 127 128 126 127 128 127 126 127 126 127 127 127 127 128 127 127 128 129 128 127 125 123 118 117 124 130 128 125 126 129 132 130 126 124 126 127 127 127 124 124 130 128 125 128 128 127 125 124 126 127 131 132 127 125 124 125 128 131 132 126 119 121 125 126 127 130 131 129 128 128 129 129 125 124 125 126 129 128 120 119 122 122 124 127 129 131 132 132 131 131 152
112 128 127 127 127 126 127 126 125 127 130 128 126 129 129 129 127 123 121 121 122 120 122 127 131 128 125 125 127 128 128 129 129 129 129 131 130 128 127 128 126 125 126 127 128 129 127 126 126 126 124 123 127 130 128 125 127 129 127 125 127 126 123 123 125 125 124 125 127 128 126 126 127 130 138 152 143 127 127 127 127 128 127 127 127 128 128 126 126 127 127 127 127 128 128 128 128 127 127 127 126 127 128 127 126 126 127 126 124 124 124 124 126 126 125 126 126 125 128 129 129 129 128 127 126 126 127 127 128 128 127 127 128 128 128 129 128 127 127 128 128 125 124 124 126 129 129 127 127 127 129 132 130 128 127 128 128 127 126 127 127 127 128 128 127 126 126 126 127 127 127 127 127 127 128 128 128 128 128 125 123 120 119 124 128 127 125 126 129 131 130 125 125 127 127 127 127 124 124 130 129 127 129 127 126 126 127 127 126 128 131 129 126 124 124 128 131 131 124 119 124 130 128 125 126 128 130 130 129 129 127 126 127 125 122 126 127 123 125 125 120 121 124 128 131 131 130 130 132 153
112 128 127 127 126 125 126 125 126 129 131 128 126 127 128 129 128 126 123 123 121 117 120 127 130 128 127 126 126 127 129 129 129 128 128 130 130 127 128 129 127 124 125 126 126 128 127 127 127 125 122 124 130 131 127 125 127 129 127 125 126 126 124 124 125 125 125 124 125 127 125 125 127 130 136 151 145 128 127 127 127 127 127 128 127 127 128 126 126 127 127 127 127 128 128 127 128 128 127 128 126 127 128 128 127 127 127 126 126 125 125 125 125 126 125 126 126 125 127 128 128 127 127 128 128 127 127 127 129 129 125 125 127 127 127 129 127 127 128 128 127 124 124 125 127 130 129 127 127 127 129 131 130 128 127 128 129 127 126 127 127 127 128 128 126 126 126 126 126 127 127 127 127 127 128 128 128 128 127 125 124 122 120 123 126 126 126 128 128 128 130 127 125 127 127 126 128 127 126 129 128 129 129 126 124 126 129 128 125 126 130 130 127 123 122 127 131 130 124 123 128 131 129 125 125 127 129 130 131 129 126 126 127 123 119 123 125 126 129 128 122 121 124 126 129 130 128 128 131 154
113 127 127 127 127 124 125 126 127 130 131 128 126 126 127 128 129 129 124 122 120 117 120 127 128 127 127 127 127 127 128 129 128 127 127 129 129 127 128 129 127 123 124 126 125 127 127 127 127 125 121 125 131 131 126 125 128 129 127 125 124 126 126 125 126 126 126 124 125 127 126 124 127 131 134 148 148 131 127 127 127 127 127 128 128 127 128 127 126 127 127 127 128 128 127 127 128 127 128 129 127 127 128 128 127 127 127 127 127 126 125 124 124 126 126 127 127 125 127 128 128 126 125 129 129 127 127 127 129 128 126 126 126 126 127 129 128 127 128 128 126 125 124 124 126 130 129 126 126 127 130 131 130 129 127 128 128 127 127 128 126 126 128 128 127 126 126 126 126 127 127 127 127 127 127 128 129 128 127 125 125 123 121 124 124 125 128 128 127 126 128 128 125 126 126 127 128 128 127 128 128 128 128 127 125 125 128 129 126 126 130 130 127 124 123 126 129 129 126 127 130 130 128 126 126 127 128 129 130 128 125 126 126 122 120 123 124 125 130 130 127 126 125 125 128 126 122 125 131 155
113 127 127 128 127 124 125 126 128 130 129 127 127 127 126 126 129 129 125 122 120 120 121 124 126 126 127 127 128 127 126 127 128 128 128 128 128 128 128 128 127 125 125 126 126 126 126 126 127 125 123 125 129 130 127 126 126 128 126 125 124 126 128 127 127 126 125 125 128 129 126 123 127 131 132 143 150 137 127 127 127 128 128 128 127 127 127 127 127 126 126 128 128 127 126 127 128 127 127 129 129 128 127 127 127 127 127 127 126 126 125 123 122 125 127 129 127 125 128 129 128 126 125 128 128 127 127 126 127 128 127 127 126 126 127 128 128 128 128 126 125 126 126 124 125 129 128 126 127 128 130 130 131 131 128 128 128 127 128 127 126 126 128 128 127 126 127 126 126 127 127 128 128 127 127 128 129 128 126 125 125 124 123 124 123 124 128 129 127 125 127 128 124 124 127 128 128 128 127 127 128 127 127 129 128 126 128 129 126 127 129 129 128 126 125 125 125 128 129 128 129 129 128 126 127 127 128 128 129 127 126 125 125 122 123 126 124 123 128 131 130 129 127 125 127 122 117 124 132 156
112 126 128 129 127 125 125 126 128 129 127 126 127 128 126 125 128 129 126 123 122 123 121 121 124 124 125 127 128 128 126 126 127 129 129 128 127 127 127 127 127 126 126 127 127 126 126 126 127 126 126 125 126 128 129 126 124 126 127 125 125 128 129 128 127 126 125 126 130 131 125 123 126 130 132 138 149 143 130 127 128 128 127 127 127 127 127 127 126 127 127 128 128 126 125 127 128 128 128 128 129 128 127 127 128 128 127 127 125 126 127 123 119 123 127 129 128 127 129 129 128 127 125 126 127 127 127 127 127 127 128 127 126 127 128 127 128 129 129 125 124 126 127 124 124 127 127 127 129 128 129 130 132 132 128 127 127 128 128 126 125 127 129 128 126 126 127 126 126 127 127 128 128 127 127 128 129 127 126 125 125 123 123 124 124 124 125 127 126 126 128 128 125 125 127 128 127 127 127 127 127 125 126 130 130 128 127 128 127 127 128 129 128 127 126 126 124 128 130 128 128 129 128 126 126 127 128 128 127 126 127 127 125 124 125 128 125 121 126 129 129 130 127 126 129 122 116 123 130 156
113 126 128 129 128 126 125 126 128 128 126 127 127 127 126 124 126 129 128 125 124 124 120 119 122 122 124 127 129 128 126 126 128 129 129 127 127 127 127 127 127 126 127 128 128 128 126 126 126 126 127 126 124 126 128 125 123 125 126 126 126 127 128 128 128 127 125 126 131 131 125 124 126 129 131 134 145 147 134 128 128 128 126 126 128 127 127 127 126 128 128 128 128 125 125 127 128 128 128 128 128 128 126 126 128 129 128 127 125 125 126 122 117 119 127 131 130 129 131 130 128 128 126 125 126 127 127 127 126 126 127 127 126 128 128 127 127 130 129 125 124 126 127 125 124 125 128 129 130 128 128 130 132 131 128 127 126 127 129 126 126 128 128 128 126 126 127 127 127 127 127 128 128 128 128 128 128 127 126 125 124 122 121 124 126 126 125 125 126 127 130 129 127 127 126 127 126 127 128 127 127 125 127 130 129 128 127 128 127 127 128 128 128 126 126 129 126 127 129 129 128 127 128 127 125 127 128 128 126 125 127 128 128 127 125 127 124 122 126 126 125 128 128 128 130 123 118 123 127 155
114 127 127 127 127 127 126 126 128 127 126 128 128 127 126 125 127 129 128 127 127 126 118 116 122 123 125 127 128 128 126 127 129 128 127 127 127 127 127 127 126 126 128 129 129 128 126 126 126 125 127 127 124 124 126 125 123 124 125 127 128 127 125 126 129 128 127 128 130 129 126 125 126 128 130 131 139 147 140 130 129 128 126 126 127 127 128 127 126 128 128 128 128 126 125 127 128 128 128 128 128 128 127 126 128 129 128 127 126 125 125 122 114 114 125 132 132 129 132 131 128 128 127 126 127 128 127 127 127 126 127 127 126 128 128 127 127 128 128 126 125 126 127 125 125 127 129 130 130 128 128 131 132 129 129 128 126 126 128 128 127 127 126 127 127 126 127 126 126 127 128 128 128 128 127 127 128 127 126 125 125 122 121 124 126 127 126 125 126 128 130 128 127 127 126 125 125 128 128 127 126 126 128 128 127 127 128 128 127 126 127 127 127 124 125 130 129 128 129 129 128 127 128 128 125 126 128 128 127 125 126 128 129 129 125 124 123 124 127 126 124 125 127 129 130 125 121 121 123 157
114 127 127 126 126 128 128 127 127 126 126 128 128 127 126 126 127 129 128 126 128 128 119 114 121 125 126 128 129 127 126 128 129 126 126 126 126 127 127 127 126 125 127 129 128 127 125 125 126 125 126 126 125 125 126 126 124 124 126 128 129 126 122 125 131 130 128 130 130 127 126 126 126 127 129 129 133 145 146 135 129 128 126 126 127 127 128 127 126 128 127 128 128 127 126 127 128 128 128 128 127 128 128 127 127 128 128 127 125 125 126 124 113 111 122 132 133 131 133 132 128 127 127 127 128 129 127 127 127 126 127 128 127 126 126 127 127 126 127 127 126 126 126 125 127 129 130 129 129 128 128 131 132 129 128 128 126 126 128 128 128 127 126 127 127 127 127 126 126 127 128 128 127 127 127 127 128 128 127 126 125 122 122 125 125 125 126 128 128 128 129 127 127 126 125 125 127 130 129 127 126 126 127 127 125 127 129 129 126 126 127 126 127 124 123 128 129 131 130 129 129 128 128 127 125 126 126 128 129 126 126 127 128 129 125 123 124 125 128 128 125 124 127 129 127 125 124 120 122 158
113 127 126 126 127 128 129 128 127 126 126 128 127 127 127 126 127 129 127 126 127 128 119 114 121 125 126 129 129 127 127 128 127 125 125 126 126 127 128 127 126 124 126 128 128 126 125 126 127 126 125 125 125 127 127 127 126 125 126 128 128 125 122 125 131 130 128 129 129 127 126 127 127 128 128 127 129 139 147 141 130 127 127 127 127 126 128 127 127 128 127 127 128 128 127 127 128 128 128 128 127 128 128 127 127 128 127 127 125 125 127 124 114 109 119 129 132 131 132 131 128 127 127 127 129 130 128 128 127 126 126 128 128 125 125 127 127 126 127 127 126 127 126 125 127 130 131 129 129 129 129 132 131 129 128 127 126 126 128 128 127 127 127 127 126 126 128 127 126 127 127 128 127 127 127 126 127 128 128 127 125 121 122 126 125 122 125 129 128 128 128 126 127 126 125 126 128 131 129 127 127 127 128 128 125 126 129 129 126 125 126 125 127 126 123 124 128 133 131 129 131 129 128 126 126 126 124 126 129 126 126 125 125 127 126 124 126 126 129 130 126 126 129 128 123 123 127 122 123 157
111 126 125 126 127 128 128 128 128 129 128 127 127 127 128 126 127 127 127 126 125 125 119 117 124 126 126 128 128 126 126 126 126 125 126 126 126 127 128 128 126 124 125 128 128 126 126 127 127 126 126 126 126 127 128 128 128 127 127 127 127 125 123 125 128 128 128 128 129 128 126 126 129 129 128 127 128 134 144 146 135 127 127 128 127 125 127 127 128 129 127 126 127 128 127 127 128 128 128 127 127 128 128 127 127 127 127 126 126 126 127 125 115 108 116 126 130 130 132 132 130 128 127 128 130 129 129 128 128 126 126 128 128 125 125 126 126 126 127 126 125 127 127 126 125 129 132 130 130 129 131 132 130 128 128 127 126 126 127 128 127 127 128 128 126 126 127 127 127 127 127 128 128 127 127 125 126 128 128 127 125 120 121 126 126 122 124 129 128 127 126 125 125 125 124 124 127 130 129 128 129 128 129 130 126 125 128 130 127 125 125 123 127 128 124 125 126 131 130 129 132 130 128 126 125 126 124 125 128 127 126 125 125 127 126 127 128 128 129 129 127 128 130 126 121 123 128 123 125 157
110 124 124 125 127 127 127 128 129 132 131 128 128 128 128 127 127 126 126 125 123 122 119 122 128 128 127 127 125 124 125 125 125 125 126 127 128 128 128 128 127 125 126 127 127 126 127 127 126 125 126 126 126 126 128 129 128 128 127 127 126 126 125 125 126 127 128 128 130 129 127 127 129 128 127 127 128 132 140 148 140 128 127 128 127 125 126 128 128 128 127 127 127 127 127 127 129 129 128 127 127 128 127 127 127 127 127 127 127 127 127 125 118 108 113 123 127 129 131 132 130 129 128 129 129 129 128 129 130 127 126 128 128 126 125 125 126 126 127 125 124 126 127 126 125 128 132 132 132 131 132 133 129 127 128 127 126 127 127 128 128 128 128 128 127 126 126 128 128 127 127 127 127 127 127 126 127 128 128 127 125 121 119 124 126 123 124 126 126 126 126 124 123 124 123 122 124 129 129 130 132 130 129 128 126 125 128 131 129 127 125 123 127 129 126 126 127 129 128 128 131 128 128 127 125 126 126 126 126 127 127 126 126 127 127 129 131 129 128 129 128 129 129 124 121 124 126 122 125 160
106 122 124 125 126 127 126 127 129 133 132 129 129 129 128 126 125 125 125 123 121 122 122 126 129 129 126 125 124 125 125 125 125 125 127 128 128 129 128 127 126 125 126 127 127 127 127 127 126 125 126 126 125 126 128 129 129 128 127 126 126 125 125 125 126 128 129 130 130 128 128 128 128 127 126 127 129 132 136 147 143 129 127 128 127 126 127 128 128 126 126 127 127 127 127 128 129 129 128 127 127 127 128 127 127 127 127 127 127 128 127 125 120 110 110 119 126 129 131 131 130 130 129 129 129 128 127 129 132 129 126 128 128 126 126 125 125 126 126 124 123 127 127 127 126 127 131 133 133 131 133 133 128 127 128 127 126 127 127 127 128 128 128 128 128 127 127 128 128 127 127 126 126 127 127 127 127 128 128 126 126 123 118 120 125 124 123 123 125 127 126 123 123 124 122 122 125 128 129 132 132 130 128 125 124 126 129 130 129 128 125 124 126 126 125 128 131 130 127 127 128 127 128 129 126 126 127 127 125 125 125 123 124 128 129 131 133 131 130 131 129 129 128 124 123 124 124 120 123 163
102 122 125 127 128 127 127 127 128 130 130 130 131 129 128 126 124 124 124 122 122 124 126 127 129 128 126 125 125 126 126 126 125 125 127 129 128 128 128 127 126 126 127 127 127 127 126 126 126 125 126 126 126 127 128 128 128 127 126 126 126 125 124 125 127 129 130 130 129 126 127 128 128 127 127 128 130 131 134 146 143 129 127 127 127 127 128 128 127 126 126 127 128 127 127 128 129 128 128 128 126 127 128 126 126 127 128 128 127 128 127 125 123 114 107 114 124 128 131 130 129 130 130 130 130 128 127 131 132 129 127 128 127 126 127 126 123 124 126 124 124 127 127 127 126 128 130 133 133 132 134 133 128 127 128 127 127 127 127 127 127 127 127 128 128 128 128 127 127 127 127 126 126 127 127 127 127 127 127 127 127 126 120 119 122 123 122 122 124 128 126 122 123 125 122 124 128 128 128 131 130 128 127 124 124 126 129 130 129 127 125 123 124 122 122 131 137 133 129 128 126 125 127 129 126 125 127 127 125 122 122 120 125 131 129 131 132 130 133 135 130 127 126 126 126 125 126 121 121 162
98 124 127 128 128 127 128 128 126 128 129 131 132 128 126 126 125 124 124 124 124 126 127 126 128 128 126 126 126 127 126 126 127 125 126 128 128 127 127 127 127 127 127 127 128 127 126 126 127 125 125 125 126 128 129 127 127 126 126 127 126 125 125 126 128 131 131 130 128 126 126 127 129 129 128 127 128 130 135 148 142 128 127 128 127 127 128 127 127 127 127 127 128 127 127 128 128 127 128 128 126 126 127 127 127 127 128 127 127 127 127 126 125 116 106 110 122 128 131 131 129 129 129 130 130 129 128 131 132 129 127 128 128 126 127 126 123 124 126 123 123 126 127 126 126 128 131 133 132 132 134 134 130 128 128 127 127 127 127 127 127 127 127 127 128 128 128 127 127 127 127 127 126 127 127 126 127 128 127 127 127 127 124 120 120 122 123 123 126 128 126 123 125 125 123 125 129 127 125 127 128 126 126 124 124 127 128 129 127 125 124 122 123 121 121 133 140 134 131 129 125 125 127 128 124 124 125 125 125 123 123 125 132 134 129 129 130 130 133 133 127 126 128 128 127 125 127 125 122 157
96 125 128 128 127 126 128 128 126 126 128 130 130 127 125 126 126 126 126 127 126 128 127 126 127 128 126 126 127 127 126 128 130 126 124 125 126 126 126 128 129 128 129 130 128 125 124 125 126 124 124 125 126 129 130 128 126 125 126 127 127 126 125 125 127 130 129 129 129 127 125 125 130 134 133 125 123 127 137 149 141 128 127 128 127 126 127 127 127 128 127 127 128 127 127 128 128 127 127 128 127 126 126 127 128 127 127 127 127 127 127 127 126 119 107 109 120 126 130 130 129 129 129 129 129 129 129 131 133 129 127 129 128 125 126 125 125 125 126 122 122 126 127 127 127 129 131 132 132 131 133 136 133 129 128 127 127 127 127 127 128 128 127 127 127 127 128 127 126 127 127 127 126 128 128 126 127 128 128 127 126 126 126 124 120 122 126 126 128 127 126 126 126 126 124 124 127 127 125 125 125 124 123 123 124 127 127 126 124 123 125 125 125 125 125 132 137 134 129 126 124 126 129 127 123 125 126 125 127 126 127 131 134 134 129 128 129 131 130 125 122 127 131 129 126 124 128 129 127 150
96 126 127 127 126 126 128 128 127 127 127 128 128 126 126 127 127 126 127 128 127 128 128 126 126 127 125 126 127 127 128 131 134 130 122 121 124 126 126 127 128 128 133 135 130 124 121 124 125 122 121 122 125 129 131 129 126 125 126 128 128 126 126 125 126 128 127 128 129 127 124 124 132 141 138 123 117 125 138 149 139 127 128 128 127 126 127 128 127 128 127 127 128 127 127 128 128 127 127 127 127 126 126 128 129 127 127 127 127 126 127 127 127 121 109 109 118 124 128 129 129 128 128 128 129 129 130 131 133 129 127 130 128 124 124 125 126 125 124 123 123 126 127 127 127 129 130 132 132 130 133 138 135 131 128 127 127 126 126 127 128 128 127 127 127 127 127 127 126 127 127 126 126 128 129 127 128 128 128 127 126 126 127 126 123 123 127 128 129 127 127 128 127 127 126 125 126 126 126 125 125 124 121 120 122 124 124 123 123 125 128 128 128 128 127 130 133 130 125 123 125 127 129 129 125 127 129 128 129 128 130 130 129 130 129 129 131 132 127 118 118 129 133 130 128 126 128 129 128 147
96 126 126 126 127 127 127 127 127 128 127 126 127 127 128 128 126 126 128 128 127 128 127 126 126 126 125 125 127 129 131 135 135 131 123 120 125 128 126 123 124 128 135 137 132 127 122 123 126 123 118 116 121 128 132 131 128 125 126 129 129 126 126 125 125 127 126 128 129 127 123 124 135 145 139 122 115 123 139 148 137 127 128 128 127 127 128 127 127 127 127 127 129 127 126 127 128 128 126 127 127 127 127 128 128 127 127 127 127 127 127 126 126 122 113 110 116 122 126 128 128 128 128 128 129 129 129 131 134 129 126 131 128 124 124 125 126 124 123 124 124 126 127 127 127 129 130 131 132 131 133 137 135 132 130 127 127 126 126 127 128 129 128 128 127 126 127 127 127 127 127 125 125 129 130 128 127 127 128 127 126 126 127 127 125 124 126 128 129 127 127 127 127 127 127 126 126 126 127 126 126 125 121 119 120 120 119 122 127 132 133 130 129 128 126 126 126 123 121 122 125 126 129 131 129 130 131 130 130 128 129 128 125 128 132 132 132 130 126 116 118 130 132 132 131 129 128 127 127 145
97 124 125 126 128 128 126 126 127 128 126 126 127 127 128 128 126 127 128 127 127 127 125 124 125 127 126 127 130 134 135 134 132 131 126 122 128 130 125 119 120 129 135 135 131 130 127 123 127 127 118 111 116 124 131 135 129 125 127 132 130 126 126 123 122 124 125 129 133 129 122 124 136 143 137 124 119 122 137 145 135 128 128 127 127 127 128 127 127 126 126 128 129 127 126 127 128 128 126 126 127 127 127 127 127 127 128 128 127 127 126 125 124 123 117 113 117 122 123 125 126 127 128 129 129 129 128 130 134 129 126 130 129 125 124 125 126 124 124 125 125 126 127 127 127 128 130 131 132 132 134 136 134 133 131 128 127 127 126 126 128 129 128 127 126 126 127 127 127 127 127 125 125 129 131 129 127 127 128 128 127 127 127 127 125 124 125 128 128 128 128 127 127 127 127 127 126 126 127 127 127 126 122 119 119 118 118 123 132 137 136 132 129 127 124 121 118 118 120 121 122 123 129 132 129 133 135 132 129 126 127 128 128 132 134 131 127 127 126 118 121 131 131 132 131 129 129 127 126 145
97 123 125 126 127 127 126 126 127 127 126 126 126 127 128 127 127 127 127 126 126 126 124 123 125 127 127 130 136 138 134 129 130 131 127 125 129 130 127 120 120 130 133 132 128 129 130 125 127 130 122 113 114 120 131 138 128 122 127 131 129 126 128 124 119 121 125 133 138 132 124 123 132 136 133 128 124 124 133 140 133 128 128 126 126 128 128 127 127 126 127 129 129 127 126 127 128 127 126 127 127 127 127 127 127 127 128 128 127 126 125 124 123 123 120 116 119 123 122 122 124 126 128 129 129 129 127 130 133 129 126 129 128 126 126 126 125 124 125 126 126 126 126 127 127 128 129 131 132 132 134 136 134 132 132 131 128 127 126 126 127 129 128 127 126 126 127 127 128 128 127 125 125 129 131 128 127 128 127 127 127 127 128 126 125 124 126 128 127 128 128 127 127 127 127 126 126 126 126 127 128 127 123 121 120 121 122 126 132 136 135 133 129 127 124 119 115 118 121 119 117 119 128 131 128 133 136 132 128 125 125 129 135 138 132 125 122 128 127 119 125 132 131 131 128 128 131 128 125 145
96 124 126 127 127 126 127 127 126 126 127 126 126 128 128 127 127 128 127 126 126 126 125 123 124 127 129 135 137 134 129 127 130 131 127 126 130 130 131 127 123 128 130 128 125 125 129 127 128 130 126 120 119 122 130 136 125 120 126 127 126 128 132 130 121 120 123 132 137 133 129 125 125 128 129 129 128 127 132 135 130 128 128 127 126 128 128 128 127 127 127 128 129 128 126 127 127 126 126 127 128 127 127 126 127 128 128 126 126 125 124 123 122 123 123 121 121 122 121 121 123 126 128 129 129 128 128 130 131 128 127 129 126 125 126 126 126 125 125 125 126 126 126 127 127 128 129 131 132 132 134 137 135 130 132 132 129 127 126 126 127 128 128 127 127 126 126 127 129 128 126 124 125 130 131 128 127 128 126 127 127 128 129 127 125 125 126 127 127 127 128 127 126 126 126 126 126 127 126 127 129 128 124 121 122 126 129 128 128 131 132 131 129 128 125 122 120 121 122 118 113 115 126 131 129 132 132 130 128 125 124 131 141 139 128 120 122 131 125 119 128 133 130 129 126 129 132 128 125 145
95 125 127 127 126 127 128 127 125 126 127 126 127 128 128 126 127 128 127 127 127 126 126 124 123 127 134 138 133 126 126 128 131 130 126 126 130 132 134 130 126 125 126 128 126 122 125 129 130 129 128 126 125 126 129 131 123 119 123 124 126 131 134 133 127 123 121 126 132 133 133 127 123 124 126 128 128 129 132 132 129 128 128 127 127 127 128 128 127 127 127 128 129 128 127 127 127 126 127 128 127 126 126 126 127 127 126 124 124 124 124 123 121 123 126 126 123 120 120 123 125 126 127 128 128 127 129 130 129 127 128 128 126 125 125 126 126 126 125 126 127 126 126 126 127 128 129 131 133 132 133 137 137 133 132 131 129 127 126 127 127 127 127 127 127 127 125 127 129 128 126 124 126 130 130 128 128 128 126 126 127 128 129 128 126 125 125 126 127 127 127 127 126 126 126 126 127 128 127 126 128 128 125 123 124 128 131 129 127 128 129 129 128 128 126 124 124 123 122 120 111 109 123 132 131 132 129 128 127 125 128 135 139 134 125 121 127 131 122 118 129 133 130 128 128 130 131 127 126 146
94 125 127 127 126 128 129 127 125 127 128 127 126 128 128 126 127 128 127 127 128 127 126 125 124 130 138 135 125 123 126 130 131 129 126 127 131 134 132 129 126 125 126 129 126 120 123 131 131 128 129 129 127 126 127 129 126 121 120 124 129 132 131 130 129 125 121 124 130 134 133 128 125 124 124 126 127 130 132 131 129 129 128 127 127 127 127 128 128 127 127 128 129 128 127 127 127 126 127 128 127 126 126 126 127 126 123 121 123 123 122 123 121 124 128 129 125 119 119 125 127 126 127 128 128 127 128 130 130 127 127 128 127 125 123 126 127 126 126 126 126 126 126 126 127 127 129 131 133 132 131 134 141 139 132 131 129 127 127 127 127 127 126 128 128 126 125 127 130 128 126 125 127 130 129 129 128 127 126 126 127 128 129 128 127 125 125 126 127 127 127 127 126 126 126 127 128 128 127 126 126 126 125 126 126 128 130 129 127 128 128 128 127 128 127 126 124 123 123 122 112 106 119 130 133 133 130 129 126 126 132 137 134 127 123 124 131 130 119 118 127 133 131 129 130 130 130 127 126 146
93 124 127 127 126 128 129 126 125 127 128 127 126 128 129 127 126 127 127 127 127 128 128 126 127 134 135 128 122 124 129 132 129 127 128 129 133 132 128 126 127 127 127 128 125 119 123 131 132 129 131 131 127 125 126 130 129 124 122 124 128 130 128 129 129 126 122 125 130 133 132 127 126 127 125 124 126 130 132 130 129 130 128 126 127 128 127 127 128 127 127 128 128 127 126 127 127 126 126 128 127 126 126 125 123 124 123 121 121 120 121 120 122 127 130 130 127 121 117 123 129 128 127 129 128 127 126 127 129 128 128 129 128 124 123 125 126 126 126 126 126 127 127 126 126 127 129 131 133 132 130 132 144 143 132 131 129 127 127 127 128 127 126 127 128 124 124 128 130 128 127 125 127 129 129 129 128 127 126 126 127 129 129 128 127 125 125 126 126 127 127 127 126 126 128 128 128 127 127 126 125 125 126 127 127 128 129 127 127 128 128 128 127 128 128 125 123 124 123 122 114 111 118 127 132 132 131 131 130 130 134 134 128 125 124 127 132 127 118 118 125 132 131 130 131 131 131 128 126 145
93 124 126 127 127 128 127 127 126 127 128 127 126 128 129 128 125 126 127 126 126 130 133 129 129 132 129 124 123 127 132 131 127 127 130 131 132 130 125 124 126 128 128 127 124 120 123 129 133 132 131 131 127 124 125 129 130 126 124 124 126 127 128 129 129 126 124 126 130 131 130 127 126 128 126 123 125 131 132 129 129 130 127 126 128 128 127 127 128 127 128 128 128 127 126 127 127 126 126 127 126 126 125 121 120 123 124 123 121 120 120 116 118 129 133 134 130 123 117 121 130 131 128 129 130 129 126 124 129 130 128 128 126 124 123 124 125 125 125 126 127 127 127 127 126 127 128 131 133 132 132 136 144 142 133 132 130 128 128 128 127 127 126 127 127 124 124 128 130 129 127 126 127 129 129 129 128 127 126 126 127 129 128 128 127 126 126 126 126 126 127 128 126 127 128 128 127 126 126 126 124 125 127 126 126 127 127 126 126 127 129 129 128 129 128 123 123 124 122 119 117 117 120 126 129 128 129 135 138 136 133 126 123 126 128 130 129 122 119 120 125 130 129 131 133 133 133 129 125 144
94 124 126 127 128 127 126 127 127 127 127 127 127 128 130 129 124 124 127 125 127 134 136 131 128 125 124 125 125 129 132 129 127 129 132 132 130 128 125 123 125 129 129 127 124 121 124 127 132 133 131 131 128 125 124 127 130 127 125 125 125 126 127 129 128 127 125 126 129 129 129 128 127 128 127 123 124 131 132 130 129 128 126 126 128 128 128 128 127 127 127 128 129 128 126 126 127 126 126 126 125 124 120 118 121 125 125 123 122 121 119 111 112 125 135 138 134 126 119 121 128 131 131 131 131 130 125 122 127 129 129 127 124 122 123 124 124 125 126 126 127 127 127 127 126 126 127 130 133 134 136 139 144 140 134 133 130 129 129 128 127 127 127 128 127 124 124 127 130 129 126 126 127 128 128 129 128 127 126 126 127 128 128 128 127 126 126 126 126 124 125 127 126 127 129 128 127 126 126 126 125 125 125 124 125 126 126 126 126 127 128 129 129 129 127 124 124 125 122 119 119 119 120 125 128 129 129 137 147 141 130 122 120 128 132 130 124 118 120 125 128 128 127 131 134 133 133 130 126 142
96 123 125 126 127 127 126 127 127 127 127 129 129 129 130 129 124 124 126 125 129 136 134 128 125 121 122 127 128 131 132 128 128 131 132 130 128 127 127 124 123 127 131 129 123 123 127 126 129 132 131 131 129 126 123 126 129 128 127 127 127 126 126 127 127 127 126 126 128 128 129 130 128 128 127 125 125 130 131 131 130 127 126 126 127 128 128 128 127 127 127 128 129 128 126 126 126 126 125 124 123 121 119 120 126 127 124 122 122 121 117 111 112 121 132 138 138 129 121 122 124 128 134 136 132 130 127 122 123 127 129 127 123 121 123 124 125 125 126 127 128 128 127 127 126 125 126 130 134 138 140 139 142 140 135 133 130 129 129 129 127 126 127 128 127 124 123 127 131 129 126 125 128 129 128 128 128 127 127 127 127 127 128 128 127 126 126 126 126 123 121 124 125 126 130 129 126 126 127 126 125 124 122 122 123 126 127 125 126 128 128 128 128 126 125 126 125 124 122 122 121 118 120 129 136 135 132 137 145 139 128 121 120 129 133 128 121 118 123 128 129 128 127 131 132 130 131 131 128 142
99 121 123 124 125 126 126 127 127 126 128 130 131 129 128 128 127 126 127 128 131 134 128 123 124 122 123 128 130 132 130 127 129 131 131 129 127 127 128 126 122 125 132 130 123 125 129 125 126 131 130 130 130 126 123 126 128 128 127 127 129 128 126 125 126 127 127 126 128 129 130 130 128 127 127 127 128 128 129 130 130 127 126 126 127 127 128 127 127 127 127 128 129 128 126 126 125 125 123 120 119 120 123 124 127 127 122 120 121 119 115 115 116 120 127 134 139 130 120 122 125 129 135 137 133 131 129 123 120 122 127 129 124 122 123 125 126 126 127 128 128 128 128 128 127 125 126 130 134 140 141 137 139 141 139 133 129 129 130 129 127 126 127 129 127 122 122 128 132 130 125 124 129 131 128 127 127 127 127 127 127 128 128 128 127 127 126 126 126 124 119 120 123 124 129 129 124 123 127 128 125 122 121 122 122 125 127 126 125 128 128 126 126 124 125 128 127 125 125 128 124 117 122 138 145 140 135 133 135 132 126 123 122 130 132 126 122 122 126 127 128 130 127 128 130 129 129 129 128 144
103 121 121 121 123 126 126 127 127 126 129 132 132 130 127 127 128 128 128 131 131 129 124 122 125 124 124 128 131 131 128 126 129 130 130 130 127 127 127 125 122 125 133 130 123 126 130 125 126 130 130 130 129 127 125 126 128 128 126 126 130 129 125 125 126 127 126 124 128 131 130 130 129 127 127 129 130 128 128 129 129 127 126 126 127 127 127 127 127 127 128 128 128 127 126 125 124 122 118 116 117 123 127 127 126 125 120 119 121 120 118 118 119 120 123 130 136 130 121 123 130 132 132 133 132 132 130 126 121 119 123 127 125 123 124 126 127 127 128 128 129 129 129 129 128 126 126 129 136 140 139 136 139 144 141 132 128 128 130 129 127 126 127 128 127 122 122 129 132 129 124 124 129 131 129 127 127 127 127 127 128 129 128 127 127 127 126 126 127 125 122 122 121 121 128 129 123 121 123 127 126 122 120 119 120 125 126 125 123 125 127 124 125 126 128 132 131 128 131 134 129 119 125 140 143 138 133 130 128 125 124 124 126 131 130 126 123 125 128 126 128 132 127 125 128 129 128 127 128 146
105 124 123 121 122 124 124 126 127 127 130 134 132 129 127 127 128 128 130 132 129 125 122 123 127 126 125 129 132 130 127 126 129 129 130 130 128 126 125 122 122 128 133 128 123 127 130 126 127 129 129 129 127 127 126 124 126 129 128 128 131 128 124 125 127 127 124 122 129 132 130 130 129 128 127 129 130 129 128 128 128 127 127 126 126 127 127 127 128 127 128 128 128 127 125 124 122 118 115 116 120 124 127 126 125 123 117 116 122 124 122 120 120 121 123 128 132 131 125 124 131 132 130 131 131 130 131 129 124 119 119 123 124 123 125 127 128 129 129 129 129 129 130 130 129 128 128 130 137 139 137 138 143 144 136 132 128 126 129 130 128 127 127 127 126 122 123 130 132 129 124 124 130 130 129 128 127 127 127 127 128 129 127 126 126 127 127 127 127 126 126 125 123 122 127 127 123 121 121 125 126 123 117 111 117 128 121 119 123 123 125 127 130 130 132 137 138 133 135 135 131 125 124 133 136 133 130 128 126 123 122 124 129 133 130 125 122 127 131 125 130 134 126 124 126 127 128 127 127 148
106 127 126 122 121 122 123 124 126 127 131 134 132 128 128 127 126 128 132 133 128 124 121 124 128 127 126 129 131 130 127 126 128 128 129 130 128 126 123 121 123 130 132 126 124 129 130 128 128 129 128 127 127 128 127 123 124 129 130 130 131 128 124 126 127 126 122 122 130 132 130 130 129 128 127 128 129 130 129 127 127 127 128 127 126 126 127 128 128 127 127 128 128 126 124 121 117 115 117 120 122 122 123 123 123 121 117 117 124 125 123 122 122 123 124 127 131 131 128 126 129 131 130 131 130 128 129 129 126 121 120 122 122 123 126 128 129 130 130 131 130 130 131 131 130 130 130 132 137 137 136 140 146 139 132 133 128 125 128 130 130 128 126 126 126 121 123 131 132 128 124 125 130 129 129 128 127 126 127 128 129 128 127 126 126 126 127 128 127 127 127 127 125 124 126 126 124 124 123 126 127 124 116 108 116 127 110 105 120 126 130 134 135 133 133 140 142 136 134 133 131 128 123 126 132 131 127 126 126 124 123 125 131 134 130 126 123 128 131 125 131 133 125 125 125 125 128 127 126 149
105 129 128 126 123 122 123 123 125 127 130 133 132 129 128 126 125 127 132 132 128 124 121 125 128 128 127 128 129 129 128 128 127 126 127 130 129 125 122 121 125 130 130 124 125 129 131 131 130 129 127 127 128 129 126 121 122 127 130 132 131 128 125 127 128 125 122 124 131 131 130 130 128 128 128 128 129 130 129 127 126 127 128 127 126 125 128 129 128 127 127 127 128 126 123 118 112 116 121 121 119 117 118 121 120 118 120 122 125 125 123 124 124 125 125 127 129 130 129 128 129 131 132 130 128 127 127 127 125 123 123 122 122 123 125 128 130 130 131 132 131 131 131 132 132 132 132 133 137 136 135 141 144 132 132 136 129 126 127 129 130 128 126 125 126 121 123 131 131 129 125 126 130 129 128 128 127 126 126 128 129 128 126 126 127 126 127 128 127 127 127 127 126 125 126 125 125 126 127 128 128 125 120 113 118 121 97 89 114 132 141 142 137 134 132 139 142 136 132 131 130 126 123 126 131 130 126 125 125 124 125 128 129 131 129 127 126 128 128 125 131 132 123 125 126 124 127 128 128 149
103 128 127 129 126 124 125 125 125 126 128 130 130 129 128 126 125 126 131 130 127 124 123 127 129 129 127 126 127 128 128 129 127 125 125 128 129 126 123 123 126 129 128 125 126 129 132 133 131 128 127 127 129 129 125 120 122 127 131 133 131 128 126 127 127 125 122 125 131 130 130 130 128 129 129 127 129 130 128 127 126 127 128 128 126 125 128 129 128 128 126 126 127 125 120 113 111 119 123 118 115 116 120 122 119 117 123 126 125 125 124 125 126 126 126 126 127 128 129 129 130 132 132 130 128 126 125 125 124 125 125 124 123 123 125 127 130 130 130 132 132 132 132 133 134 134 133 134 136 136 134 140 142 131 134 137 129 126 127 129 128 127 126 126 126 121 124 132 132 129 126 126 129 129 128 127 126 126 126 128 128 127 127 128 127 126 126 127 127 128 128 127 126 126 126 125 125 126 127 128 128 126 124 120 121 116 93 84 110 134 146 146 138 133 132 137 140 134 130 130 128 123 125 129 130 129 127 125 125 125 128 129 127 128 126 129 129 128 126 124 130 130 122 126 126 124 128 129 130 149
102 128 127 128 127 126 129 129 127 126 128 128 127 128 128 126 124 127 131 127 125 125 125 128 130 130 126 124 126 127 127 128 128 126 123 126 130 129 124 123 127 128 127 128 127 129 131 132 132 129 127 127 128 129 125 121 122 128 131 132 131 129 127 126 126 125 124 125 130 129 130 130 128 130 129 127 129 130 128 127 127 126 127 127 127 127 128 129 128 127 125 125 127 124 114 108 111 117 121 116 113 120 126 125 117 117 125 127 124 124 125 126 126 126 126 126 126 127 129 130 131 131 132 130 128 126 125 124 125 126 126 125 124 124 125 127 129 130 130 131 132 132 133 134 135 135 135 135 135 134 130 137 143 135 135 135 128 126 129 130 127 126 128 127 126 121 124 133 131 128 126 126 128 129 128 127 126 126 126 127 128 127 128 129 128 127 126 126 127 127 128 129 127 126 125 125 126 125 126 128 128 127 126 125 123 115 97 91 109 133 143 142 136 131 131 138 137 130 128 129 128 125 126 129 130 129 129 126 125 128 129 127 126 126 125 129 129 128 125 124 129 128 123 128 126 124 129 130 132 150
102 129 127 126 126 128 129 130 129 128 128 128 126 126 126 126 124 126 129 126 125 126 126 128 131 130 124 123 125 127 128 127 128 124 121 127 132 130 123 122 128 128 129 129 128 128 128 131 133 130 127 127 128 128 125 121 122 128 131 131 131 128 127 127 126 126 125 127 129 128 129 129 128 130 130 127 128 129 128 127 127 126 125 127 129 128 128 128 127 125 124 125 128 123 110 106 109 111 119 119 115 122 130 127 118 119 126 126 124 124 125 126 127 126 126 125 126 126 128 130 130 131 132 131 129 127 125 125 126 126 125 125 124 124 125 127 129 129 130 131 132 132 133 134 135 135 135 135 135 133 129 134 143 142 138 132 126 126 130 131 128 127 128 127 126 121 126 133 130 127 126 127 128 129 128 127 127 126 126 127 127 127 129 129 129 127 125 126 127 127 128 129 127 126 125 125 126 125 125 127 128 127 127 126 123 116 105 101 110 126 135 136 133 125 125 138 139 130 128 131 130 128 128 128 128 129 131 128 127 128 127 126 126 126 126 128 127 125 124 123 127 127 126 130 127 125 129 129 132 153
102 129 127 125 126 129 129 128 129 128 128 130 128 126 124 124 123 125 129 127 127 126 126 129 131 127 123 124 126 128 130 129 126 121 121 129 132 128 121 123 129 130 130 130 127 127 127 130 134 131 127 126 128 128 124 122 123 128 131 131 130 128 127 128 127 125 125 128 129 128 129 129 128 131 130 127 128 129 129 127 127 127 125 127 129 128 128 128 126 123 124 127 128 121 108 105 105 107 118 122 120 123 129 127 121 121 124 125 124 124 125 126 127 126 126 125 126 126 128 129 130 130 131 132 131 129 126 125 126 125 125 124 125 124 125 127 129 129 130 130 131 132 133 134 136 136 135 136 135 132 129 133 140 145 141 130 124 127 130 131 130 127 127 127 126 122 127 132 129 127 126 127 128 128 127 127 127 126 126 127 127 127 129 130 128 126 125 127 127 127 128 129 128 126 125 125 125 125 124 126 127 127 127 126 124 120 112 107 109 115 126 134 131 119 120 134 139 133 133 135 132 129 128 128 126 128 132 131 129 129 127 126 127 127 126 126 125 124 124 123 126 127 128 129 127 127 129 128 134 157
102 128 127 126 127 129 128 127 128 127 128 131 131 127 124 122 123 125 128 128 128 127 127 130 130 124 123 125 128 131 132 129 123 119 123 130 130 124 121 125 131 132 131 129 126 126 127 130 133 130 127 127 127 126 124 122 124 127 130 130 131 129 127 128 127 125 125 127 129 129 128 128 129 132 129 127 128 129 129 127 127 127 127 127 128 127 127 127 125 123 126 128 126 117 108 104 101 108 119 123 125 125 127 125 122 122 123 125 125 125 125 126 127 127 126 126 126 127 128 128 129 129 131 132 131 130 127 126 126 124 124 124 125 125 126 128 129 130 130 130 131 132 133 134 135 135 136 136 136 132 130 134 138 143 142 132 125 127 128 131 131 128 127 127 126 123 127 131 129 127 126 127 128 128 127 126 127 127 126 127 127 127 129 129 128 126 126 127 127 128 129 128 128 127 126 125 125 126 125 124 126 127 127 126 125 123 116 109 109 112 122 133 128 118 120 127 130 131 135 136 131 127 128 130 127 126 130 130 132 131 127 127 129 130 127 125 124 125 125 124 127 128 128 128 129 131 129 127 137 157
102 127 126 127 128 128 128 126 127 127 128 131 131 128 124 122 123 125 126 127 128 129 129 131 129 124 122 125 129 132 132 128 122 118 124 131 130 123 121 127 131 130 131 130 126 126 129 131 130 129 128 127 127 126 125 124 123 126 129 129 131 131 126 127 127 125 124 126 129 129 128 128 130 132 128 127 129 129 129 127 127 127 127 128 128 127 126 126 125 124 127 128 123 112 109 103 98 111 121 124 126 128 125 122 122 123 123 124 125 125 126 127 127 127 127 126 126 127 128 128 128 129 131 132 131 129 127 127 126 124 123 123 125 126 126 128 130 130 130 130 130 132 133 134 135 136 137 137 136 133 131 134 137 137 140 138 129 126 127 130 131 128 128 128 126 123 128 131 129 127 126 127 128 127 127 126 127 127 127 128 127 127 128 128 128 126 126 126 126 128 129 128 128 127 126 126 125 125 124 124 126 128 127 125 125 124 119 112 112 118 125 129 123 119 124 125 123 125 131 132 128 126 129 133 130 126 127 128 133 131 126 128 131 132 130 126 124 125 126 127 129 128 128 131 133 132 127 127 136 153
102 127 126 126 128 129 128 125 127 128 127 130 130 129 126 124 124 124 124 125 128 131 131 131 129 124 123 125 129 133 133 127 121 118 123 131 131 124 122 127 129 128 132 132 126 125 129 131 129 128 128 127 128 128 127 124 124 127 127 127 131 131 127 127 127 123 123 126 130 130 129 129 130 132 128 127 129 129 128 127 127 126 127 129 128 127 125 124 125 125 126 126 120 112 111 101 96 113 124 124 124 129 125 121 123 123 123 124 125 126 126 127 127 127 127 127 127 127 128 128 129 129 130 132 131 128 127 127 127 125 123 123 125 126 127 128 130 131 130 130 130 132 133 134 135 137 138 137 136 134 132 134 136 134 136 140 133 126 125 130 131 129 128 128 126 123 127 131 129 128 126 127 128 127 127 127 126 127 128 128 128 127 127 127 128 127 127 125 125 128 128 127 128 127 127 128 126 124 123 124 126 128 127 124 124 124 122 118 118 124 127 127 122 120 125 129 126 124 126 127 126 128 130 131 129 126 127 128 131 126 124 129 130 132 130 124 121 126 128 127 128 128 130 137 136 129 126 129 133 148
102 127 126 126 128 129 127 125 127 128 126 128 129 130 129 127 125 122 123 124 128 131 132 131 128 122 122 127 130 132 132 126 121 119 123 131 132 127 124 126 127 128 133 132 127 124 127 131 129 128 128 127 128 128 126 123 125 128 125 125 132 131 127 127 126 124 125 126 129 130 129 130 131 131 128 127 130 129 127 126 127 127 127 129 128 127 125 124 127 126 124 121 119 116 111 97 97 116 126 124 122 127 127 122 122 123 124 125 126 126 126 127 127 127 128 128 127 127 127 128 128 129 130 131 131 128 127 127 127 125 123 124 126 127 127 128 131 131 130 130 130 131 132 133 135 137 139 138 136 135 134 135 136 134 135 138 134 125 122 129 132 128 128 128 126 124 127 130 130 129 126 126 127 127 127 126 126 127 128 129 128 127 127 127 128 128 127 125 125 127 128 127 128 127 127 128 126 124 122 123 127 129 127 123 122 124 125 123 123 127 128 127 125 122 125 130 127 124 126 127 126 128 127 126 126 129 133 131 127 123 122 126 127 128 126 119 121 131 131 124 124 127 132 140 136 126 127 131 130 146
102 126 126 126 128 128 127 126 128 127 124 127 129 131 132 129 125 122 122 123 127 131 132 130 125 120 123 129 131 131 130 126 123 121 123 129 132 130 127 126 126 128 132 132 127 123 126 130 130 129 129 127 128 128 125 122 127 129 125 126 132 130 126 126 125 125 128 128 128 129 128 130 132 131 127 127 130 128 127 126 126 127 128 127 127 127 125 126 127 125 121 117 118 117 107 96 101 117 126 123 121 126 128 125 123 123 124 126 127 127 127 127 127 128 128 128 127 127 127 127 127 129 130 131 130 128 127 127 127 125 124 124 126 127 127 129 131 131 130 130 130 131 132 132 134 136 139 139 136 136 136 137 136 135 136 135 132 125 122 129 132 128 128 127 126 125 127 129 130 129 126 125 126 128 128 127 126 127 128 128 128 127 127 127 127 127 126 126 126 127 127 128 128 127 127 129 127 125 122 123 127 128 128 124 123 125 127 126 126 128 126 123 125 126 126 127 120 118 129 134 130 123 114 115 124 139 150 138 125 122 121 122 124 127 122 120 128 135 131 121 121 125 131 140 136 127 128 130 128 147
102 125 126 127 128 128 128 127 128 126 123 127 129 131 133 129 125 125 123 120 124 130 131 129 123 119 125 130 130 129 130 128 124 121 123 128 131 132 129 126 126 130 132 131 127 123 125 130 131 129 130 127 127 128 124 122 127 129 126 127 131 128 125 125 125 126 130 129 129 129 129 131 132 130 126 126 129 128 128 127 126 127 127 126 126 126 127 128 127 123 120 117 116 113 104 98 105 118 125 124 122 125 127 126 124 124 125 127 128 128 128 128 128 128 129 128 127 126 126 126 127 128 130 132 131 129 127 127 126 125 124 125 126 127 128 129 131 131 130 130 130 131 131 132 133 135 138 139 138 137 137 137 137 138 137 133 130 126 123 128 132 128 127 127 126 126 127 130 130 129 126 125 126 128 128 127 127 127 127 127 126 127 128 128 127 126 126 127 127 127 127 128 127 127 127 129 128 126 124 124 126 127 127 124 121 123 127 129 129 127 120 115 123 132 132 122 111 114 131 141 137 120 101 107 125 147 161 143 124 120 120 120 124 126 123 127 135 134 127 121 123 123 127 137 136 129 127 127 128 151
102 124 125 127 129 129 128 126 127 126 124 127 129 132 133 129 126 127 125 118 120 126 129 129 123 121 126 131 129 129 131 130 124 121 123 127 131 132 129 126 126 130 131 131 128 124 125 130 131 130 129 127 126 128 126 123 126 128 126 127 129 129 126 125 125 126 129 130 131 130 131 131 129 128 126 126 129 128 128 127 127 127 125 124 125 126 128 130 126 121 121 119 114 108 104 101 108 120 124 124 123 124 125 126 125 125 126 127 128 128 128 128 128 128 129 128 127 125 125 126 127 128 130 131 132 130 127 126 126 125 125 125 126 128 129 130 130 131 130 130 131 130 130 131 132 135 137 139 139 136 136 137 139 140 136 131 129 127 124 127 131 128 127 127 127 126 127 130 130 128 126 126 127 127 127 127 128 128 127 126 126 127 127 127 126 125 127 128 128 128 128 128 127 127 127 128 129 128 126 126 126 126 127 124 120 121 126 130 130 126 113 110 124 137 136 120 108 114 130 140 140 124 106 113 129 143 150 140 127 120 119 121 125 128 127 132 134 127 122 126 131 124 121 131 134 130 125 125 130 155
102 124 124 127 130 130 128 126 126 126 125 127 129 132 132 128 126 127 127 119 115 121 126 129 127 125 127 129 129 130 132 131 125 122 125 128 131 132 128 125 127 129 130 131 130 126 126 130 130 129 127 125 126 129 129 124 124 126 126 126 129 129 126 125 126 128 129 130 132 132 133 130 127 127 126 127 128 128 128 128 127 127 125 123 124 125 129 131 125 119 121 118 112 108 104 102 109 121 123 124 124 123 124 125 125 126 127 127 128 128 128 128 128 128 129 128 127 125 126 127 127 128 129 130 132 130 127 126 125 125 125 127 128 128 129 130 130 131 130 130 131 131 131 131 132 134 136 139 140 135 135 140 141 140 132 129 130 128 125 126 130 129 127 127 127 126 126 129 129 128 127 127 127 126 126 127 128 128 127 126 126 126 126 126 125 126 128 129 129 129 128 127 126 126 127 128 129 129 128 127 127 127 126 125 122 122 125 128 128 125 113 111 124 134 132 120 112 117 128 135 137 128 116 120 130 134 133 132 130 124 121 123 128 131 130 130 128 121 119 128 136 128 121 127 130 128 126 126 132 160
103 123 124 127 130 130 128 127 126 126 126 127 128 131 131 128 126 126 127 121 114 115 123 129 129 128 127 127 128 131 132 130 126 124 127 130 132 131 126 125 127 128 129 131 132 129 128 127 126 127 128 127 128 129 129 126 124 125 126 127 129 130 126 123 127 130 130 132 133 132 131 128 126 127 127 127 128 127 128 128 127 126 124 123 123 125 130 131 125 121 121 114 112 111 101 101 113 122 122 124 125 124 124 125 125 126 127 127 128 128 128 128 128 128 129 129 127 126 126 127 128 129 128 129 131 130 127 126 126 125 126 128 129 129 129 130 130 130 130 130 131 131 131 131 131 132 135 140 140 133 134 142 144 137 127 127 131 129 125 125 131 130 128 127 128 126 125 128 129 128 127 127 127 126 126 127 128 127 127 126 126 126 126 126 126 127 128 129 129 129 128 127 126 126 127 128 129 129 128 127 127 127 126 126 125 124 125 125 126 125 118 115 122 124 122 120 118 120 126 128 128 127 120 121 128 130 129 129 131 127 123 128 131 131 129 125 126 123 120 124 132 131 127 130 127 128 131 132 136 164
102 124 126 127 129 130 129 126 126 126 126 127 128 130 131 129 126 126 128 124 115 111 122 130 129 127 125 125 127 130 132 130 128 127 128 130 133 131 125 125 127 127 129 133 133 130 127 125 122 127 131 129 128 126 127 126 124 125 126 128 131 130 125 123 129 132 132 133 132 130 127 126 127 128 127 127 128 128 128 127 126 125 124 124 124 126 129 126 126 127 121 109 113 111 94 102 119 123 122 123 124 124 124 124 125 126 127 128 128 128 128 128 128 128 128 129 128 127 126 126 128 128 128 128 130 129 127 126 126 126 126 128 130 130 130 130 130 130 131 131 131 132 132 131 132 132 135 140 139 133 134 143 145 134 126 128 130 129 126 125 131 131 128 127 128 126 125 128 129 129 128 127 126 126 126 127 127 127 126 126 127 127 127 127 127 127 128 128 128 128 128 127 127 127 127 127 128 129 128 127 127 127 127 126 126 126 125 124 124 125 123 121 122 118 117 120 119 119 123 121 115 119 123 124 126 127 130 132 131 124 121 130 130 129 127 124 128 129 126 123 126 130 132 133 125 128 137 139 140 166
102 126 128 128 128 128 128 125 126 126 126 127 128 129 131 130 126 127 128 126 118 113 122 132 130 123 119 120 125 129 130 130 131 130 129 130 133 131 126 125 127 127 129 133 133 130 126 124 123 129 132 128 127 125 126 125 124 127 127 129 131 129 124 125 131 134 133 131 130 129 126 125 128 129 127 126 128 128 128 127 125 124 124 124 124 127 126 121 127 132 122 108 109 104 93 108 124 125 123 123 123 124 124 125 125 126 127 128 128 127 128 128 129 129 129 129 128 127 126 126 127 128 128 128 129 128 128 126 126 127 127 128 130 131 130 130 130 130 132 131 131 132 132 132 132 132 135 139 138 133 134 142 144 134 128 129 127 129 128 127 130 130 127 127 128 126 126 128 129 128 127 127 126 125 126 127 127 127 126 127 128 128 128 127 127 126 126 127 126 128 128 128 128 128 127 127 128 129 129 128 127 127 127 127 126 126 126 125 125 125 125 125 125 122 121 122 119 119 121 118 110 114 124 124 118 121 130 130 131 124 118 126 130 131 126 118 125 134 133 127 125 127 130 133 124 127 142 144 142 167
103 128 128 128 128 127 126 125 125 126 127 129 129 129 130 129 126 127 128 127 124 118 121 132 133 123 113 114 123 128 128 128 131 131 129 130 132 131 128 125 126 126 128 132 134 132 127 126 127 130 129 126 126 127 127 125 125 126 127 130 132 128 126 128 132 133 131 128 129 129 126 125 127 129 128 126 128 128 128 127 124 123 123 123 124 126 125 121 130 135 123 106 97 96 103 117 125 126 124 123 123 123 124 125 126 127 128 128 128 128 127 128 129 129 129 129 128 127 126 126 126 127 128 129 129 128 128 127 126 127 127 128 130 130 130 129 130 130 131 132 132 132 131 131 132 133 136 139 137 133 133 142 144 135 130 128 126 129 130 128 129 128 127 128 128 127 127 127 128 127 127 127 126 126 126 127 128 128 127 127 126 126 127 126 125 125 125 126 126 129 130 129 129 130 128 127 127 129 130 128 126 127 128 128 127 127 127 126 126 126 126 125 126 126 125 124 123 123 124 122 117 118 125 122 109 112 125 123 128 131 119 123 135 137 123 109 115 129 136 133 126 120 125 135 127 127 144 147 140 166
104 128 126 127 129 127 126 125 124 126 129 131 129 128 129 128 126 127 128 127 127 122 121 129 133 125 111 111 121 127 126 125 128 130 129 131 132 131 128 125 126 127 128 130 134 133 128 130 131 129 127 125 125 128 128 126 124 124 127 131 132 129 128 131 132 131 128 126 128 129 126 125 127 129 128 127 128 128 128 126 124 123 122 121 121 123 124 127 132 131 119 99 88 98 118 124 124 126 125 124 124 124 124 125 126 127 127 128 128 128 127 128 129 129 129 128 127 126 126 125 126 127 128 129 129 128 127 128 127 127 127 128 129 129 129 129 130 130 131 132 132 132 131 131 132 134 137 140 137 132 134 142 144 136 129 126 127 130 130 128 128 127 127 128 128 128 127 127 126 126 127 127 127 127 125 126 126 127 127 127 124 124 128 127 125 126 126 127 129 131 130 129 130 129 127 127 127 129 130 128 126 126 128 128 127 127 126 127 128 127 126 125 125 126 126 125 125 127 126 125 124 124 125 122 111 110 120 122 127 134 125 126 136 138 124 108 106 117 131 137 127 114 117 132 131 130 144 145 137 162
105 128 126 127 129 128 127 125 124 127 130 130 128 127 129 128 126 127 128 127 127 125 123 127 132 127 115 112 120 124 123 123 125 127 128 132 134 131 129 127 128 129 130 130 131 132 130 131 131 129 128 125 125 127 127 125 123 125 129 132 132 131 131 131 130 129 127 125 127 129 127 126 127 129 128 127 128 128 127 126 125 123 120 118 120 123 124 128 128 123 111 96 93 108 124 126 124 126 126 126 125 124 124 125 126 127 127 128 128 128 127 128 129 129 128 127 126 125 125 126 127 127 128 130 130 128 127 129 128 127 127 128 128 128 129 129 129 129 130 132 132 132 131 130 131 134 138 140 137 133 136 143 143 136 129 127 129 130 129 128 127 127 128 128 128 128 127 126 126 125 125 125 126 128 125 123 125 126 129 129 124 124 130 129 127 127 127 128 131 131 129 128 129 128 127 128 128 129 130 128 126 126 127 127 127 127 126 127 128 128 128 126 125 126 126 126 126 127 126 126 126 126 125 123 118 114 118 124 127 131 130 129 133 134 128 117 108 111 125 133 130 120 112 123 134 135 139 141 135 156
105 128 127 127 128 129 128 125 124 127 129 129 127 127 129 128 126 127 128 127 127 127 125 126 129 129 122 116 121 123 120 120 121 123 126 131 134 132 130 129 128 129 131 129 128 131 130 129 130 131 130 126 125 127 126 125 124 126 129 133 133 132 130 129 129 128 127 126 126 128 128 127 127 128 128 127 128 128 127 125 124 122 117 117 122 126 126 123 118 113 108 103 106 116 123 125 125 127 127 127 126 125 125 126 126 126 128 128 128 127 128 129 129 128 128 127 126 125 125 126 127 127 128 129 130 128 127 129 129 128 128 128 128 127 128 128 129 129 130 132 132 132 131 130 130 134 138 140 137 136 140 142 139 136 132 128 129 129 129 128 127 127 128 128 128 127 126 127 125 121 121 123 125 129 126 124 127 128 132 131 126 125 129 130 128 126 126 128 129 129 129 128 127 127 128 128 128 128 129 129 128 127 126 127 127 127 126 126 127 129 129 127 126 126 126 126 127 127 126 126 127 126 125 124 122 119 119 124 126 129 131 129 129 132 130 125 114 112 122 128 133 128 113 120 136 136 133 137 133 150
103 128 129 127 127 129 129 125 124 128 129 129 128 127 128 127 126 127 128 127 128 128 126 126 128 130 128 122 124 124 120 119 117 118 122 128 133 133 131 128 127 129 132 129 127 130 129 128 130 131 129 125 126 127 126 127 127 127 130 135 135 131 127 126 128 128 127 126 127 128 128 127 127 128 128 128 128 127 126 124 122 119 115 117 122 123 128 124 110 105 109 113 117 120 121 123 126 127 127 126 125 125 126 126 126 127 127 128 128 127 128 129 129 128 127 127 126 125 125 126 127 128 128 129 129 128 127 128 129 129 128 128 127 127 127 128 129 129 130 131 132 132 131 130 130 135 139 140 136 136 142 142 136 135 133 128 128 128 129 128 127 127 127 128 127 125 125 125 123 120 120 124 127 130 129 128 129 128 129 128 125 126 128 128 127 124 126 128 127 129 131 130 128 128 130 130 128 128 129 130 129 127 126 127 127 127 126 126 126 129 130 128 127 127 126 125 126 127 127 126 127 127 126 125 125 123 122 124 125 125 125 125 127 130 130 127 120 117 123 128 135 127 113 122 136 136 132 133 130 146
103 129 130 127 127 128 128 125 125 128 130 129 128 127 126 126 126 128 129 127 127 128 126 127 129 130 129 126 126 126 124 122 118 116 117 123 130 132 129 125 126 130 133 130 128 128 129 131 131 128 126 125 127 127 126 129 131 129 130 135 134 129 125 125 128 128 127 127 128 128 127 126 127 128 128 127 127 127 125 123 120 117 116 118 117 111 123 137 117 101 110 116 122 124 121 122 126 127 127 127 125 125 126 126 127 127 127 127 127 127 128 129 129 128 126 126 125 125 125 126 128 129 129 129 129 128 127 128 129 129 128 128 127 127 127 128 129 130 130 131 133 133 132 131 133 137 138 138 134 135 144 145 136 132 130 128 129 128 129 128 128 128 126 127 126 122 122 123 124 125 126 128 129 129 127 128 127 124 123 121 124 130 130 126 124 124 127 130 128 129 133 133 130 128 130 130 128 128 129 129 129 127 127 127 127 127 126 126 126 128 129 128 128 127 126 125 125 126 127 127 127 126 125 126 127 126 125 126 126 122 120 123 127 129 128 127 125 124 125 129 132 123 115 124 134 134 132 130 126 145
102 128 129 128 128 128 127 125 124 128 130 129 129 127 125 124 126 130 130 127 127 128 128 128 129 129 128 127 127 127 127 126 123 119 115 117 125 129 126 124 126 130 132 131 128 128 129 133 132 126 124 126 128 127 126 130 133 132 131 133 131 127 125 126 128 127 126 128 129 128 126 126 127 128 128 127 127 126 124 123 118 115 116 116 111 101 114 147 133 102 108 116 123 127 123 123 126 127 127 127 127 126 126 126 127 127 127 127 127 128 128 129 128 127 126 125 125 125 126 126 128 128 129 129 129 128 128 128 128 129 128 127 127 127 127 128 129 130 130 131 133 133 133 133 136 139 137 134 133 138 146 145 134 128 128 130 131 128 127 128 128 128 126 125 124 122 123 124 127 130 131 128 126 125 123 123 122 120 120 122 129 135 133 126 123 128 131 133 131 129 132 132 129 128 128 129 128 128 129 128 127 127 127 127 127 126 127 127 127 127 127 127 129 128 127 125 124 125 126 127 127 126 125 127 128 128 128 128 127 123 120 123 128 129 126 126 128 127 127 128 127 120 118 124 131 133 130 126 124 148
101 127 129 129 129 129 129 125 123 127 129 130 130 128 125 123 126 131 130 128 127 129 129 128 128 128 127 127 127 127 128 128 127 125 118 113 119 125 125 125 128 129 129 129 129 128 128 132 132 127 125 127 129 127 126 130 134 136 132 131 130 127 126 127 128 127 126 127 128 128 126 127 128 129 127 127 127 125 123 122 116 113 113 110 110 108 117 145 132 101 108 118 123 127 125 124 126 127 128 128 129 128 126 126 126 126 126 128 128 128 129 128 127 126 125 124 125 126 126 127 127 128 128 129 129 129 128 128 128 128 128 127 127 127 127 128 129 130 130 131 133 134 134 135 138 139 136 133 135 140 142 139 132 130 129 131 130 127 126 127 128 127 126 126 126 125 126 127 128 130 128 123 120 121 119 119 122 122 125 132 136 136 134 129 125 130 132 132 131 128 130 129 128 127 127 128 128 129 129 128 127 127 127 127 126 126 127 127 127 127 126 127 129 129 127 126 125 125 125 126 127 125 124 126 128 129 129 128 128 126 123 124 128 128 125 125 127 126 126 126 122 119 120 125 130 131 126 122 125 157
101 127 129 129 129 130 130 125 123 124 128 130 129 128 127 124 126 130 130 128 128 130 130 127 127 128 126 126 127 127 129 129 127 127 123 114 114 122 126 129 130 127 125 125 128 128 126 128 131 131 128 128 129 128 129 132 135 136 131 129 129 127 126 127 127 127 127 126 127 127 127 128 129 128 127 126 127 126 124 121 114 111 109 103 111 122 129 137 118 99 112 123 124 126 126 126 126 126 128 130 130 129 126 126 127 126 125 129 130 129 128 127 126 125 124 123 124 126 126 127 127 127 128 129 129 129 129 128 128 128 128 127 127 127 127 128 129 130 130 131 133 134 135 137 138 139 137 136 138 138 134 134 135 134 132 130 128 126 126 127 128 128 127 128 128 127 127 126 125 124 122 117 116 121 123 124 129 130 132 138 137 132 132 130 127 128 129 129 129 128 129 128 127 127 127 128 128 128 128 127 127 127 127 127 126 126 126 127 127 127 126 127 128 128 127 127 126 126 124 125 127 126 125 125 127 129 129 129 128 127 126 126 127 128 125 124 123 120 120 124 121 115 119 127 130 131 126 123 129 164
103 127 129 129 129 129 128 126 123 124 127 127 128 128 127 126 127 129 129 128 129 130 130 126 126 128 126 125 127 128 128 128 128 129 127 117 112 122 131 131 129 126 122 121 124 126 123 123 128 132 131 130 131 131 135 135 134 133 129 128 128 128 126 127 127 128 127 126 126 127 128 128 128 127 126 125 127 128 124 119 113 112 109 98 109 125 129 128 112 106 118 125 125 127 127 127 126 126 129 131 131 129 126 128 130 127 125 128 130 129 128 126 124 123 123 123 124 126 126 126 126 127 128 128 129 128 128 129 128 128 128 128 127 127 127 128 128 130 131 130 132 135 137 137 138 139 139 138 139 136 130 133 138 137 132 127 126 126 126 128 129 129 128 128 127 126 123 121 120 120 120 118 121 128 132 133 134 133 134 135 131 128 129 129 127 127 127 128 128 128 128 128 127 127 127 127 128 128 127 127 127 127 127 127 126 126 126 127 128 127 127 128 128 127 127 127 127 126 125 125 126 126 125 125 125 127 129 129 129 128 127 127 127 128 126 125 122 114 111 119 119 111 118 132 134 132 129 128 133 166
106 125 128 128 129 127 126 126 125 126 126 126 128 128 127 128 129 128 128 127 128 131 130 127 125 126 125 126 129 129 127 127 129 131 128 119 115 126 134 129 128 128 125 121 120 122 119 118 125 130 131 132 133 135 139 138 132 130 128 127 128 128 127 127 128 127 126 126 127 128 129 129 127 126 125 124 126 127 125 120 113 112 111 100 102 116 121 121 117 118 123 125 126 127 128 127 127 127 130 132 131 128 127 130 133 128 125 128 130 128 126 125 123 121 121 123 125 126 126 126 126 127 128 128 128 128 128 129 129 129 128 127 127 127 128 128 128 129 130 130 131 135 138 137 138 141 141 137 137 136 133 137 138 134 127 125 127 128 128 129 129 128 126 123 122 123 120 117 121 125 127 127 129 135 136 135 133 130 130 129 127 127 128 128 126 127 128 128 128 128 128 128 127 127 127 127 127 128 127 127 127 127 127 127 126 126 125 127 128 127 128 129 128 127 127 127 127 127 126 126 126 125 125 126 125 126 127 129 129 127 127 127 128 128 127 126 125 117 111 117 116 107 113 131 135 131 129 130 135 168
107 126 127 128 128 126 125 126 127 126 126 128 128 127 127 129 129 128 127 127 128 130 130 127 125 125 126 129 130 129 127 127 128 129 126 121 121 130 131 126 127 130 128 123 121 122 116 114 122 126 128 132 135 140 142 136 130 128 127 127 128 128 127 127 127 127 126 126 127 129 130 129 127 125 124 125 126 126 125 123 116 111 111 102 97 107 116 122 123 124 125 125 126 127 127 127 129 130 131 132 130 128 128 131 133 128 125 128 129 126 124 123 122 120 121 124 126 126 126 126 126 127 127 128 128 128 128 129 129 129 128 127 127 127 128 128 128 129 130 131 132 135 138 137 138 142 141 136 135 137 139 139 133 129 126 127 130 130 128 128 127 126 123 116 118 125 125 124 126 130 134 133 131 134 133 131 130 128 127 126 126 127 129 128 126 127 128 127 128 128 128 128 127 127 127 127 127 127 127 127 127 127 127 127 126 126 125 127 127 126 128 130 128 127 127 127 127 127 127 127 126 124 125 126 126 127 127 127 128 127 126 125 128 129 128 127 127 124 122 122 117 110 109 120 127 125 123 124 135 175
107 128 128 127 127 126 125 126 127 127 128 129 128 128 127 127 128 127 127 127 129 130 129 126 125 126 128 130 131 129 126 126 126 126 124 124 127 131 129 126 127 129 128 125 125 125 116 112 119 124 128 132 137 144 141 132 128 128 127 126 127 127 127 127 127 127 126 127 128 129 130 129 127 125 124 125 126 125 125 127 120 110 108 101 95 102 115 124 125 125 126 126 125 125 126 127 130 132 133 133 131 129 129 133 131 126 125 128 127 123 122 121 119 120 122 125 127 127 126 126 127 127 127 127 128 128 128 129 129 129 128 127 127 128 128 129 129 129 130 132 134 135 136 135 137 139 139 139 138 141 141 134 129 130 130 130 131 129 127 125 122 123 122 117 121 129 132 131 130 131 134 132 129 130 129 128 128 128 127 125 125 128 129 128 127 127 127 127 127 128 127 127 127 127 128 127 127 127 127 127 127 127 127 127 126 126 126 127 126 126 128 129 128 127 127 127 128 128 127 127 126 124 124 126 127 128 127 126 128 127 126 125 126 128 128 128 128 127 128 127 123 120 115 113 115 114 112 116 137 183
107 129 129 127 126 127 126 126 127 128 128 128 128 128 127 126 127 127 127 128 129 129 128 126 125 127 129 130 130 129 126 126 126 125 125 128 129 129 128 125 125 126 127 127 128 126 115 111 119 125 129 134 141 144 136 128 128 128 127 126 127 127 127 127 127 127 126 127 128 129 130 129 126 125 125 124 125 127 127 128 124 115 107 100 97 100 113 122 124 125 126 126 125 124 125 127 130 132 134 134 132 129 131 135 131 124 124 125 124 123 121 120 119 120 124 126 127 127 127 127 127 127 127 127 128 128 128 128 129 129 128 128 128 128 128 129 129 130 131 133 134 134 132 131 135 137 140 145 144 141 136 130 131 135 133 130 128 126 125 123 120 123 126 127 129 130 132 132 130 129 130 129 128 128 128 127 128 128 127 126 126 127 128 128 127 127 127 127 127 127 127 127 127 128 128 127 127 127 127 127 127 128 127 127 126 126 127 127 127 126 128 128 128 127 127 127 127 127 127 128 127 125 124 124 126 128 127 127 128 128 126 125 125 126 127 128 127 127 128 127 126 127 125 119 112 105 103 111 136 184
106 128 129 128 127 127 127 126 128 129 128 128 128 126 126 126 126 127 127 128 128 129 128 125 126 127 129 130 130 129 126 126 126 126 127 129 128 127 126 124 125 126 127 128 127 122 114 115 123 127 132 139 144 140 130 127 128 128 126 126 127 127 127 127 127 127 126 127 128 129 129 128 125 125 125 123 125 130 129 127 126 122 110 101 99 101 110 116 119 122 125 126 125 124 124 127 129 132 135 135 133 130 134 137 129 122 122 121 121 123 121 120 120 121 125 126 127 127 127 127 126 127 127 127 128 128 128 128 128 129 128 128 128 128 128 129 129 130 132 134 133 131 129 130 137 142 145 147 142 135 133 133 135 136 132 127 125 124 125 123 123 127 130 132 131 129 129 129 129 128 129 128 128 127 127 127 127 128 127 127 127 127 128 128 128 127 127 127 127 127 127 127 127 128 128 127 126 127 127 127 128 128 127 127 126 126 127 127 127 127 127 127 127 127 127 127 127 127 127 128 127 126 124 124 126 127 127 127 129 129 126 125 126 126 126 127 126 127 128 126 126 128 129 126 119 112 108 108 125 174
105 127 128 129 128 128 127 127 128 129 128 127 127 125 126 127 127 127 127 128 128 129 128 125 126 128 129 129 129 128 127 126 127 127 128 128 127 126 126 124 125 126 126 125 123 119 118 121 126 130 136 143 143 134 128 128 127 127 126 126 127 127 127 127 127 127 127 127 129 129 128 126 125 125 125 123 125 131 130 127 126 125 118 107 101 104 109 110 112 118 123 124 125 125 125 127 129 131 134 136 134 133 139 138 125 118 119 118 120 123 122 121 121 122 125 126 127 127 127 127 126 127 127 127 128 128 128 128 128 129 128 129 129 129 129 129 129 130 132 132 130 128 129 133 146 152 146 141 135 132 135 136 134 132 128 125 124 126 126 125 127 130 131 131 130 128 128 128 128 128 128 128 127 127 127 127 127 127 127 127 127 127 127 127 128 128 127 127 127 127 127 127 127 128 128 127 126 127 127 127 128 128 128 126 126 126 127 127 127 127 127 127 127 127 127 127 127 127 127 128 127 126 124 124 126 127 127 128 129 129 127 125 126 127 127 126 126 127 127 126 125 126 129 129 126 124 120 112 117 156
106 126 127 129 128 128 127 127 128 128 128 127 126 125 125 127 127 127 128 128 127 128 128 125 125 128 129 129 127 128 127 127 127 127 127 126 125 126 125 123 124 124 124 124 123 124 126 128 130 133 138 141 137 130 128 127 126 127 126 126 127 127 126 127 127 127 127 128 129 129 127 125 125 126 125 123 125 131 130 127 126 126 125 117 108 107 108 106 107 114 119 119 122 125 126 128 130 130 132 136 137 138 142 137 120 112 117 118 119 122 123 122 123 124 125 126 126 127 126 126 126 127 127 127 128 128 128 128 128 129 129 129 130 130 129 128 128 130 131 130 128 128 133 142 156 154 140 135 134 134 135 134 130 128 127 126 127 129 127 127 128 130 130 129 128 128 127 127 127 127 127 128 127 127 127 127 127 127 128 127 127 127 127 127 127 127 127 127 127 127 127 127 127 128 128 127 126 126 127 127 128 128 128 126 126 126 127 127 128 127 127 127 127 127 127 127 127 127 127 128 127 125 124 124 126 127 126 127 129 128 127 127 127 127 127 127 127 127 127 126 125 124 127 128 127 128 128 124 123 142
106 127 128 129 128 127 128 128 128 127 127 126 126 126 126 128 128 128 129 128 126 127 127 124 123 126 129 129 127 127 127 127 126 127 126 124 125 124 122 122 124 124 124 126 129 132 133 133 133 135 137 135 131 129 128 126 126 127 127 126 127 127 126 127 127 127 127 129 130 128 126 124 125 126 126 124 125 129 128 127 127 126 127 125 119 113 109 107 106 111 113 110 116 123 126 128 130 129 130 137 142 143 142 133 115 108 115 116 118 123 124 124 124 126 126 126 126 126 126 126 127 127 127 127 128 128 128 128 128 129 130 130 130 130 129 127 127 131 131 127 126 133 144 151 154 147 137 136 135 133 131 131 128 126 127 129 129 128 127 127 128 129 129 128 128 128 127 127 127 126 127 128 127 127 127 127 127 127 128 127 127 127 127 127 127 127 127 127 127 127 127 127 127 128 128 127 127 126 127 128 128 128 128 127 126 127 127 127 128 128 127 127 127 127 127 127 126 127 128 128 127 125 123 124 127 127 126 126 128 127 127 127 128 128 128 128 127 127 127 127 126 124 126 127 126 127 129 130 129 137
107 127 128 128 127 127 128 129 128 127 126 126 127 126 127 128 127 128 127 126 125 126 125 122 122 126 130 129 127 126 126 125 125 127 126 124 125 125 123 123 127 129 129 129 132 135 136 135 133 133 132 129 128 128 128 126 126 127 127 127 127 126 126 127 127 127 127 129 130 128 125 123 125 126 126 125 125 126 127 129 129 126 126 129 127 120 116 114 112 111 109 104 108 117 122 127 129 126 127 141 153 147 135 123 110 108 112 113 117 122 126 125 125 127 127 126 126 125 125 126 127 127 127 127 128 128 128 128 128 129 131 132 131 129 128 127 128 131 129 124 130 148 158 149 144 142 138 135 132 129 129 130 128 127 128 129 129 128 128 127 128 128 128 128 127 128 127 127 127 126 127 128 128 127 127 127 127 127 128 127 127 127 127 127 127 127 127 128 127 127 127 127 127 128 128 127 126 126 127 127 127 128 128 127 127 127 127 127 127 127 127 127 127 127 127 126 126 127 128 128 127 126 123 124 127 127 125 125 127 127 127 127 128 128 128 128 127 127 127 127 127 126 126 126 126 125 127 129 130 139
107 126 128 127 126 126 128 129 128 127 126 127 127 127 127 127 126 125 124 124 124 126 127 125 125 128 130 129 128 127 125 124 124 127 127 125 125 127 126 125 128 132 132 131 132 133 135 132 129 129 129 127 126 128 129 127 126 126 127 127 126 126 127 127 127 128 128 129 130 127 125 124 125 126 125 126 126 124 125 129 131 127 125 129 128 124 123 124 121 117 113 108 108 109 113 124 127 121 125 146 159 144 125 115 108 109 110 110 115 123 127 127 126 128 128 127 126 125 125 126 127 127 127 127 128 128 128 128 128 129 132 134 132 128 126 127 129 130 125 125 143 165 158 140 139 140 135 131 129 128 128 129 129 128 128 128 128 128 128 127 127 128 128 128 127 127 127 127 127 127 127 128 128 128 127 127 127 127 128 127 126 127 127 127 127 127 127 128 127 127 126 126 127 128 128 127 126 127 127 127 127 128 128 127 127 127 127 127 127 127 127 127 128 127 127 126 126 127 128 128 127 126 124 124 126 127 126 124 126 128 128 128 127 127 127 127 127 128 127 127 127 127 127 126 126 126 126 127 128 140
106 125 128 127 126 127 128 130 129 127 126 126 128 128 127 127 125 122 122 125 127 129 129 128 128 130 128 127 127 127 126 125 124 126 128 127 126 129 128 126 128 131 131 130 131 132 132 129 128 128 127 127 126 128 129 128 126 126 127 127 126 126 127 127 127 129 129 129 128 126 124 124 126 126 125 125 126 123 123 128 132 129 127 127 126 124 125 128 127 124 122 118 116 112 110 120 122 117 125 145 152 133 117 111 109 110 109 107 114 124 127 127 127 128 128 127 127 126 126 127 127 126 126 127 128 128 128 128 129 129 133 135 132 128 125 126 129 129 129 135 155 167 150 137 138 136 129 127 129 129 128 129 129 129 127 126 128 129 128 127 127 127 128 128 127 127 127 127 127 128 128 128 128 128 127 127 127 127 127 127 126 127 127 127 127 127 128 128 127 127 126 126 127 128 128 127 126 127 127 127 127 127 128 128 127 127 127 127 127 127 127 127 128 128 127 125 126 127 128 128 128 126 125 125 125 127 127 124 124 128 129 128 126 126 127 127 127 127 128 127 127 126 127 127 126 128 127 126 126 140
106 125 128 127 127 128 129 130 128 126 126 126 128 129 128 125 123 123 125 128 130 130 128 128 130 129 126 126 127 126 127 127 126 126 128 128 127 129 128 126 128 129 128 128 132 133 130 128 128 128 127 128 127 127 128 128 127 125 126 127 127 126 126 127 128 129 129 128 127 125 124 125 126 126 125 125 125 124 123 126 130 132 130 127 125 124 125 128 128 128 127 125 124 121 116 120 121 120 125 136 137 123 113 111 109 110 110 107 113 123 126 127 127 127 128 128 127 127 127 127 126 126 126 126 127 127 127 129 130 130 133 135 132 129 125 125 129 136 144 147 153 155 145 135 134 132 127 127 129 129 128 129 129 128 127 126 128 129 128 127 127 127 127 128 127 127 127 127 128 128 128 128 128 127 127 127 126 126 127 126 126 127 127 127 127 127 128 128 127 127 126 126 127 127 128 127 127 127 127 127 127 127 128 127 127 127 127 127 127 127 127 127 128 128 127 125 126 127 127 128 127 126 125 125 125 126 128 125 123 125 129 129 125 125 127 128 127 126 128 129 128 126 126 127 126 128 128 126 126 140
106 127 128 127 128 129 129 128 126 125 126 127 127 129 127 122 123 129 129 129 130 130 128 127 130 128 124 124 126 127 128 130 127 126 128 127 126 129 128 126 127 128 127 128 132 132 128 127 128 127 127 128 126 126 127 129 128 126 126 127 127 126 126 128 128 128 128 128 127 124 124 126 125 125 126 126 125 124 123 124 128 133 132 127 127 127 125 126 127 128 128 127 128 127 125 125 124 125 125 128 127 118 114 113 109 109 109 107 113 118 123 126 125 126 128 128 127 128 127 125 126 126 125 126 127 127 127 129 130 131 134 134 132 129 124 127 136 149 156 150 144 144 140 132 131 130 127 127 127 127 128 129 129 128 127 127 127 128 127 127 127 127 127 128 128 127 127 127 128 128 128 128 128 127 127 127 126 126 126 126 126 127 127 127 127 127 128 128 127 127 127 126 127 127 128 127 127 127 127 127 127 127 128 127 127 127 127 127 127 127 127 127 128 128 127 126 126 126 127 128 127 125 125 126 126 126 128 127 123 123 127 128 126 127 127 128 127 126 128 130 129 126 126 127 126 127 128 127 128 140
107 127 128 128 129 129 126 125 126 127 127 127 127 127 123 119 126 135 132 127 128 130 129 128 129 127 123 122 125 129 131 130 128 127 127 126 127 129 127 126 126 127 129 130 131 130 128 127 128 128 127 127 126 125 127 129 128 127 127 127 126 126 126 128 129 126 127 128 127 125 125 126 124 124 126 126 125 124 124 125 128 131 131 127 128 129 127 126 126 126 126 127 129 128 128 129 129 127 126 127 125 121 119 117 112 112 110 109 114 114 119 123 120 122 127 126 126 128 125 122 124 125 126 126 127 127 127 128 130 132 134 135 132 129 127 136 150 155 151 143 138 137 134 129 130 129 127 126 126 127 129 130 130 128 127 127 127 126 127 128 128 127 128 128 127 127 127 128 128 127 128 128 128 127 126 126 126 126 126 126 127 127 127 127 127 127 128 128 127 127 127 127 127 127 128 128 127 127 127 127 127 128 128 127 127 126 127 127 127 127 127 127 128 128 127 126 126 126 127 128 126 125 125 127 127 126 127 127 125 122 124 127 128 129 127 126 127 127 128 129 128 127 126 127 126 127 128 127 128 140
108 126 128 130 130 129 125 123 126 128 127 127 127 125 119 120 130 137 133 127 128 130 129 128 129 126 122 122 125 131 133 131 128 126 125 126 129 129 127 125 125 127 131 132 130 129 127 127 129 128 127 126 125 126 128 128 127 127 128 127 126 126 127 128 129 126 125 127 127 125 126 126 123 123 126 125 124 124 126 128 128 128 129 128 126 128 130 129 126 125 126 126 129 129 128 129 129 128 127 127 127 126 126 123 119 118 116 116 118 115 115 119 117 120 125 122 122 123 119 119 121 121 124 126 127 128 127 127 130 133 136 136 132 133 139 147 154 150 141 136 133 132 131 129 128 127 127 126 126 128 129 130 129 128 127 127 127 125 126 128 128 128 128 128 127 127 127 127 127 127 127 128 128 127 126 126 126 126 127 127 127 127 127 127 127 127 127 128 127 127 127 127 127 127 128 128 127 127 127 127 127 128 128 127 127 126 127 127 127 127 126 127 128 129 128 126 126 126 127 127 126 125 125 126 128 126 126 126 126 122 122 127 129 129 127 126 127 127 128 128 128 127 126 126 126 128 128 127 128 140
109 125 127 130 130 129 125 123 125 127 127 127 127 124 119 121 131 136 133 128 129 130 128 128 129 126 122 122 125 131 133 130 128 126 123 126 130 130 127 126 125 127 132 132 130 128 127 127 128 128 127 125 125 127 128 128 127 127 128 127 126 127 128 128 128 126 125 126 126 125 126 124 122 124 127 126 123 124 128 129 127 126 130 128 124 127 130 129 127 127 127 127 129 130 129 127 127 128 128 127 127 128 128 127 125 124 123 123 122 119 118 122 121 122 124 121 121 118 113 117 119 118 121 123 121 128 128 123 126 133 139 136 134 141 147 147 145 141 134 132 129 129 130 128 127 127 127 127 127 128 129 129 129 127 127 127 127 126 127 128 128 128 127 127 127 128 128 127 127 127 127 128 128 127 126 126 126 126 127 127 127 126 127 128 127 127 127 127 127 128 128 127 126 127 128 128 127 127 127 127 127 128 128 127 127 126 127 128 127 127 126 127 128 128 128 127 126 127 127 127 127 126 125 126 127 127 126 126 126 123 123 127 129 128 127 127 126 127 128 128 128 127 126 126 127 128 127 126 127 141
108 125 126 129 131 130 127 124 124 126 127 127 127 124 119 122 129 134 133 130 131 131 128 127 128 127 122 121 126 130 131 128 128 126 124 127 130 130 128 127 126 129 132 131 129 128 126 126 126 127 127 125 126 127 128 129 128 127 127 127 127 128 128 128 127 127 126 125 125 125 126 123 121 125 127 127 125 126 129 129 126 125 129 127 125 127 127 126 126 127 130 131 131 131 129 127 126 126 127 127 128 128 127 127 127 127 127 127 126 124 123 126 126 124 126 124 124 120 117 120 122 122 122 118 113 125 130 120 122 132 137 135 136 142 144 140 136 134 130 129 128 127 128 127 127 128 128 128 128 128 128 128 128 128 127 127 127 127 127 128 128 128 127 127 127 128 128 127 127 126 127 127 127 127 127 126 126 126 127 128 127 125 127 129 127 127 127 127 128 128 128 127 126 127 128 128 127 126 127 127 127 128 128 127 126 126 127 128 127 127 126 127 127 128 128 127 127 127 127 127 127 126 126 125 126 126 127 127 127 125 125 127 127 126 127 127 126 127 128 128 129 128 126 126 126 127 126 125 126 143
108 125 127 128 130 131 128 125 124 124 127 128 127 125 120 122 126 130 132 131 132 132 129 127 128 128 123 122 127 128 127 127 128 127 126 128 129 129 129 127 128 132 132 129 128 127 126 125 126 128 127 125 126 128 129 129 128 127 126 126 127 129 129 127 126 126 126 125 124 124 124 122 123 126 127 127 127 128 128 128 126 126 127 126 128 128 126 124 123 125 130 132 132 132 130 128 126 126 126 128 128 127 126 126 126 127 128 127 127 127 125 127 128 127 127 127 127 125 124 124 126 127 126 120 115 124 130 123 122 129 132 131 133 136 136 134 129 129 128 128 127 127 127 128 128 128 128 127 127 127 127 128 129 129 128 127 127 127 127 128 127 128 127 127 127 128 128 127 126 126 127 127 127 127 127 126 126 127 128 128 127 125 127 129 127 127 127 127 128 128 128 127 126 127 128 128 128 126 127 127 127 128 128 127 126 126 127 128 127 127 127 127 127 127 127 127 127 127 127 127 127 126 126 125 125 126 128 128 127 126 126 127 127 127 126 126 126 126 126 127 129 129 126 126 126 126 126 125 127 143
109 124 126 127 129 130 128 126 125 124 126 128 128 128 124 123 124 125 128 129 131 132 131 129 128 128 125 123 126 126 125 126 127 128 130 130 128 128 128 127 130 134 132 129 127 126 126 126 126 127 127 126 126 128 128 128 128 127 126 126 127 129 129 127 125 125 127 126 124 123 123 124 125 125 127 127 128 129 128 126 126 127 126 127 129 128 125 124 124 125 128 129 131 132 130 128 126 125 127 129 128 127 127 125 125 127 128 126 127 128 125 126 128 128 129 129 127 126 127 127 126 129 129 126 123 125 128 127 126 128 129 128 129 130 130 129 127 127 127 127 127 127 128 128 128 127 127 127 127 127 128 129 130 129 128 127 127 127 127 127 127 127 127 127 127 127 127 127 126 127 127 126 126 127 127 126 127 128 128 128 127 126 127 128 126 126 128 128 128 128 128 127 126 127 128 129 127 126 127 127 127 128 127 126 126 127 127 128 128 127 127 127 127 127 127 128 127 127 127 127 127 126 126 125 125 127 128 129 127 125 126 127 128 127 126 126 126 126 125 126 129 129 125 125 126 126 125 126 128 142
112 123 124 126 127 129 128 127 126 126 126 127 128 129 126 126 125 123 124 127 128 130 131 129 127 127 126 125 125 125 125 125 126 130 133 130 129 129 128 128 132 134 131 129 126 125 127 128 127 127 127 126 126 127 128 127 127 128 127 127 128 128 128 127 124 124 126 126 125 122 123 126 126 125 127 127 127 129 128 125 126 128 128 129 128 126 124 125 126 127 127 127 131 132 129 126 126 124 128 129 127 130 129 125 125 127 127 126 127 128 126 125 126 128 129 128 126 126 128 128 127 128 130 128 127 126 127 127 128 128 128 128 128 127 127 127 127 127 126 127 128 128 128 128 126 126 126 127 127 128 130 130 129 128 128 127 126 126 127 127 127 127 128 128 128 127 126 126 127 127 127 125 125 127 127 126 129 130 128 127 126 127 127 126 125 126 129 129 128 128 128 127 126 127 128 128 127 126 127 127 127 127 127 126 126 127 127 128 128 127 127 127 127 128 128 128 127 127 127 127 127 126 126 125 126 127 128 128 127 125 125 127 128 128 127 127 127 127 126 126 127 127 125 124 125 125 125 127 130 142
115 124 122 124 125 127 128 126 127 128 127 126 126 127 127 128 127 125 126 126 126 128 129 126 125 124 125 125 124 125 127 125 126 130 131 130 129 129 129 131 137 135 131 129 126 125 126 128 128 128 127 126 126 128 128 127 127 128 128 127 127 127 128 127 125 124 126 126 124 122 125 127 125 126 128 126 127 129 125 124 127 129 129 130 128 124 122 124 128 128 127 127 130 131 128 126 126 124 127 127 125 131 131 125 126 129 128 127 127 127 127 126 126 127 129 128 126 125 127 127 127 128 129 129 128 127 127 127 128 128 128 130 129 127 127 126 126 127 127 128 129 129 128 126 125 125 127 128 129 129 130 129 129 128 127 127 126 126 126 126 127 127 128 128 128 126 126 126 127 127 127 125 125 127 127 126 130 130 128 127 126 127 127 126 125 127 129 128 128 128 128 127 127 127 128 128 127 126 127 128 127 127 127 126 126 127 127 128 128 127 127 126 127 128 128 128 127 127 127 127 127 126 126 126 126 127 127 128 128 126 125 126 128 128 127 127 127 128 127 126 126 126 126 125 125 124 124 128 131 142
116 126 124 122 122 125 127 126 127 128 128 126 124 125 127 127 127 127 128 127 128 129 128 126 124 123 124 125 124 125 127 125 125 126 127 126 126 128 130 136 144 139 131 130 127 125 126 128 128 128 127 125 126 129 128 127 126 128 129 128 127 127 127 127 125 124 125 125 123 123 126 126 125 129 128 125 128 128 124 124 128 129 130 130 127 123 122 124 128 129 129 127 129 130 127 127 126 125 126 125 125 130 130 125 127 130 129 128 127 127 127 128 127 127 128 129 127 126 126 126 127 128 129 129 128 127 127 128 128 127 128 130 129 127 126 125 126 128 128 128 129 129 127 126 125 126 128 129 129 129 129 129 128 127 127 127 127 126 126 126 127 128 128 128 127 126 126 126 127 127 127 126 125 126 126 127 130 130 128 126 126 127 127 126 125 127 129 128 127 128 128 128 127 127 128 127 127 127 128 128 127 127 127 127 126 127 127 127 127 127 126 126 127 128 128 128 127 127 127 127 127 126 125 126 127 127 127 128 128 126 125 126 127 128 127 126 128 128 128 126 126 127 127 126 126 124 123 126 129 141
115 127 126 123 121 124 127 126 127 128 128 125 123 125 127 127 126 127 127 127 129 130 128 127 126 124 125 125 124 125 126 126 126 125 124 124 126 127 129 139 147 140 131 129 127 126 127 127 127 127 127 126 127 128 128 127 126 128 128 128 127 127 126 126 126 125 125 124 122 124 126 124 126 131 128 126 128 126 125 126 128 129 130 129 126 124 123 125 128 129 129 127 128 129 127 126 126 127 126 125 125 129 129 125 127 130 130 128 128 126 125 128 129 127 127 129 130 128 125 126 127 127 129 129 128 127 127 129 128 127 128 129 128 126 125 126 127 129 128 128 128 128 126 126 127 127 128 129 129 129 128 128 127 126 127 127 127 126 127 127 127 127 128 128 127 126 126 126 127 127 127 126 125 125 127 129 130 129 127 126 126 127 127 126 125 127 129 128 127 128 128 128 127 127 127 127 127 127 128 128 127 126 127 127 127 127 127 127 127 127 126 126 126 128 128 128 127 127 126 127 127 126 125 125 127 127 127 128 128 126 125 125 127 128 127 126 128 129 128 126 126 128 127 127 127 125 125 126 127 139
114 127 128 125 122 124 127 127 126 127 128 126 123 125 127 127 125 125 125 126 129 130 127 126 126 127 128 126 125 125 125 127 127 125 125 126 126 126 130 139 143 136 130 128 127 127 127 127 126 126 128 129 127 127 127 127 127 128 128 127 127 126 126 126 126 125 125 124 123 126 125 122 128 132 128 127 127 124 125 126 127 130 130 129 127 125 125 127 127 128 129 127 127 128 126 125 126 127 126 124 124 129 128 126 126 129 130 128 128 125 124 128 129 126 127 130 130 128 125 126 128 126 128 129 129 130 128 128 129 128 127 127 126 126 127 128 128 128 128 128 128 127 126 127 128 127 128 129 129 128 128 127 126 126 127 127 127 127 127 127 127 127 127 127 127 127 126 127 127 127 126 126 125 125 127 130 130 129 127 126 126 127 127 126 125 128 130 128 127 128 128 127 127 127 127 127 128 127 128 127 126 127 128 128 127 127 127 127 127 126 126 126 127 128 129 129 128 127 126 127 127 127 125 124 126 127 127 128 128 126 125 125 126 128 127 127 128 128 128 127 127 127 127 128 127 126 126 127 128 138
113 127 127 127 125 125 127 127 126 127 129 127 125 125 127 126 125 125 126 126 127 128 127 125 126 128 128 126 126 126 126 128 128 126 125 127 126 127 132 138 138 132 129 128 127 128 128 127 126 126 129 129 128 127 126 127 127 127 128 127 127 126 125 126 126 126 126 124 123 126 125 124 129 131 127 127 125 124 125 126 129 130 129 128 127 126 127 128 127 127 127 126 127 127 124 124 127 129 127 122 125 129 127 126 127 130 131 128 127 125 124 129 129 127 129 130 129 127 126 127 128 127 127 128 131 131 127 127 129 128 127 126 126 126 127 128 127 127 127 128 128 128 127 128 128 127 128 128 128 128 128 127 126 126 127 127 127 127 127 127 127 127 127 127 127 126 126 127 127 127 126 126 126 126 128 130 129 128 127 126 126 127 127 125 125 128 129 127 127 127 127 127 127 127 126 128 129 128 127 127 125 127 129 128 127 127 127 127 127 125 125 126 128 128 129 129 128 127 126 127 128 127 126 125 126 126 126 128 128 127 126 125 124 126 128 128 128 128 128 127 127 127 126 127 128 126 126 128 129 137
113 127 127 128 127 125 126 126 125 127 129 127 126 127 128 127 126 126 126 125 126 128 128 126 126 127 126 127 128 127 126 128 128 127 126 126 127 129 131 134 134 130 127 127 128 128 128 127 126 127 128 129 128 126 126 127 127 127 127 127 127 126 125 126 127 126 126 125 124 125 125 126 130 129 126 126 124 124 126 128 130 130 128 127 126 126 127 129 128 127 126 125 127 126 123 123 126 129 128 123 128 129 125 126 127 130 130 127 127 125 123 129 129 127 130 130 127 127 126 127 129 128 127 128 131 130 127 127 129 127 126 127 127 126 127 127 127 127 128 128 129 128 128 128 128 127 128 128 128 128 127 126 126 126 127 127 127 127 127 127 127 127 127 127 126 126 127 127 127 126 125 126 127 128 129 128 128 128 127 126 127 127 127 125 126 128 128 127 126 126 127 127 127 127 127 128 129 128 127 126 126 127 129 128 127 127 127 127 126 124 125 127 129 129 128 128 128 127 127 127 127 127 126 126 126 125 126 128 128 127 126 125 123 123 127 129 129 128 127 127 128 127 125 127 129 127 126 128 130 137
113 127 128 129 127 126 127 126 126 127 128 127 126 128 128 126 127 128 125 124 126 129 128 127 127 126 126 129 129 127 126 127 128 128 127 126 127 128 129 131 132 129 127 127 128 128 127 127 127 127 128 128 127 126 126 127 127 128 127 127 127 126 125 126 127 127 126 125 125 126 124 126 129 129 127 125 123 125 127 128 130 130 127 126 127 127 128 129 128 128 126 126 126 126 124 124 125 129 128 124 128 128 127 126 127 129 128 127 128 127 123 127 129 128 130 130 128 126 125 127 130 129 129 130 129 128 127 127 128 126 127 128 127 126 126 127 127 128 128 128 128 129 128 128 127 127 128 128 128 128 127 126 126 126 127 127 127 127 127 127 127 127 127 127 126 126 127 127 127 125 125 126 128 129 129 127 128 129 127 127 127 127 127 125 126 127 126 125 125 128 128 127 127 128 128 128 128 128 127 127 127 128 128 127 127 127 128 127 125 124 125 128 130 130 128 128 128 128 128 128 127 127 126 126 126 126 126 127 127 127 127 125 123 122 126 129 129 128 127 127 129 127 125 127 129 127 126 129 130 137
113 127 128 128 127 127 127 126 126 125 126 127 127 128 128 126 126 127 126 125 127 130 129 127 127 126 126 128 129 127 126 127 127 127 127 127 127 127 129 131 131 130 128 127 127 127 127 127 127 127 128 128 127 126 126 126 127 128 127 127 127 126 126 126 127 128 126 124 126 126 125 125 127 128 128 124 124 127 128 129 129 129 126 126 127 127 127 128 129 128 127 127 126 126 125 125 125 129 128 124 125 126 129 128 127 128 127 127 129 127 123 125 128 130 129 129 129 126 124 127 130 129 130 131 128 126 126 127 128 126 127 128 126 125 127 128 127 128 129 128 128 128 128 128 127 127 127 128 128 128 128 127 126 126 127 127 127 127 127 127 127 127 126 127 126 127 127 127 126 125 125 126 127 129 129 126 127 129 128 127 127 127 126 125 125 126 125 124 125 130 130 127 127 129 129 128 127 127 127 127 128 128 128 127 126 127 128 127 126 126 127 128 129 129 128 127 128 128 128 128 127 127 126 126 126 127 127 126 126 127 127 126 123 120 124 128 128 128 127 128 129 127 125 126 129 128 127 129 130 137
113 127 128 128 128 128 127 126 125 125 127 128 128 128 127 126 125 126 127 126 128 131 129 127 127 127 126 127 128 128 126 126 127 127 126 127 126 127 129 132 132 130 128 127 127 127 127 127 127 127 127 127 127 126 126 126 127 128 128 128 127 126 126 125 127 128 126 124 126 127 125 126 126 127 128 125 125 128 129 129 128 128 126 126 127 128 128 127 128 128 127 127 127 126 125 124 127 130 126 124 123 126 130 128 128 128 127 128 129 126 124 124 128 131 127 127 130 127 125 129 130 129 129 130 128 125 125 127 128 127 126 127 126 126 128 129 128 128 129 128 128 128 128 127 127 127 127 127 128 128 128 127 126 126 127 127 127 127 127 127 127 127 126 126 127 127 128 127 125 125 127 127 127 129 129 127 127 128 128 127 127 127 125 124 124 126 126 125 127 130 129 127 127 128 128 127 127 127 127 127 128 129 128 127 125 125 128 127 126 128 128 128 129 128 127 127 128 128 129 128 127 127 126 126 126 127 127 127 126 127 127 126 123 120 122 127 127 127 127 129 129 127 126 125 128 130 128 129 129 137
113 128 128 128 128 127 126 124 125 127 128 128 127 127 127 127 126 127 127 126 128 131 128 127 128 127 126 126 128 128 127 126 127 126 126 127 126 127 129 131 132 130 129 127 127 127 127 128 127 127 127 127 127 127 126 126 126 128 128 128 127 126 126 126 127 127 125 124 126 126 125 127 126 127 127 125 127 128 128 128 127 128 127 126 127 128 129 128 128 127 127 128 127 126 124 124 128 129 125 125 124 126 129 127 128 128 127 130 128 125 126 126 128 130 126 127 130 127 126 130 130 128 128 128 127 126 126 128 128 127 126 126 127 128 128 129 128 127 128 128 128 128 128 127 126 127 127 127 127 128 128 127 126 126 127 127 127 127 127 127 127 127 127 126 127 128 128 127 125 125 127 127 127 128 128 127 127 127 127 128 127 126 124 123 125 127 128 128 128 128 127 127 127 128 128 127 127 128 127 127 128 129 129 127 125 125 127 127 126 128 129 128 129 128 127 127 128 128 129 129 128 127 126 126 126 127 127 127 126 126 127 126 124 121 121 125 128 126 126 129 129 127 125 125 129 134 130 129 128 136
114 129 129 128 127 126 125 124 126 128 128 128 126 126 126 127 128 128 128 125 126 129 128 126 128 128 126 127 128 128 127 127 127 126 126 127 126 127 129 130 131 130 128 127 126 127 127 127 127 127 127 128 128 127 127 126 126 127 128 128 127 127 125 127 128 127 125 123 126 126 125 127 127 128 127 125 128 128 127 127 127 128 126 125 127 130 129 128 128 126 127 128 127 126 122 123 128 128 125 127 125 126 128 127 129 128 128 130 128 124 126 127 130 129 125 128 131 126 126 130 130 128 127 127 126 127 128 128 126 126 127 128 128 128 128 128 128 127 127 128 128 128 128 127 126 127 127 127 127 127 128 128 126 126 126 127 127 127 127 127 127 127 127 127 127 128 128 127 126 126 127 127 127 127 127 126 127 127 126 128 127 125 124 124 127 129 128 128 128 127 127 127 128 127 128 128 128 128 126 126 127 129 129 127 126 126 127 127 127 128 128 129 129 128 126 127 128 128 129 129 128 127 126 126 126 127 127 127 126 126 126 126 125 122 119 123 128 126 125 127 130 127 124 124 132 137 132 129 126 135
113 129 129 128 127 126 125 124 128 129 128 128 126 126 127 128 127 128 128 125 125 128 128 126 127 128 126 126 128 127 128 127 127 127 126 127 126 127 129 130 130 130 128 127 126 127 127 127 127 127 127 128 128 127 127 126 127 127 127 127 126 127 126 127 128 127 125 123 126 126 126 127 127 129 127 125 128 127 127 127 128 129 126 124 128 130 128 127 128 127 127 128 127 126 121 122 128 127 126 127 125 126 127 127 130 128 128 130 129 124 126 129 129 126 126 130 130 126 127 129 129 127 127 126 126 128 129 128 126 126 127 129 128 127 126 128 129 127 127 128 128 128 127 127 126 127 127 127 127 127 128 127 126 126 126 127 127 127 127 127 127 127 127 127 127 128 127 127 126 127 128 128 127 126 126 126 128 128 126 127 127 124 125 127 128 128 127 127 127 127 127 128 128 127 128 128 128 127 127 126 127 128 128 128 127 127 127 128 128 128 128 128 129 128 126 126 127 128 128 129 128 127 126 126 127 126 127 127 126 126 126 127 126 124 118 121 128 127 124 125 129 128 124 125 134 138 132 129 125 135
113 128 130 129 127 126 126 125 127 128 128 128 126 126 128 128 126 128 128 126 126 128 127 126 127 128 126 126 128 128 128 127 127 128 126 127 127 127 130 131 130 129 127 127 127 126 127 128 128 127 127 128 128 127 127 127 127 126 127 127 126 127 128 127 127 127 125 124 126 127 127 127 127 128 127 126 127 126 127 128 128 129 126 124 127 130 128 127 128 127 128 128 127 126 122 124 128 127 127 127 124 126 127 128 130 128 127 130 129 125 127 129 127 126 129 130 128 127 128 128 127 127 127 127 127 128 128 127 127 127 128 129 128 125 125 129 130 128 127 128 128 128 127 127 126 127 128 128 127 127 127 127 126 126 127 127 127 127 127 127 127 127 127 127 127 128 127 126 126 127 128 128 127 126 125 126 128 128 126 126 126 125 127 128 127 126 126 127 128 128 127 128 128 127 127 127 128 127 127 126 127 127 127 128 128 127 127 128 128 128 128 128 128 128 126 126 126 127 128 129 128 127 126 127 127 126 127 127 126 126 126 127 127 124 119 120 127 127 124 125 128 127 124 126 136 137 131 128 125 135
113 128 129 129 127 127 128 126 125 126 128 129 127 126 128 128 126 127 128 127 127 128 127 126 127 128 126 125 128 129 128 126 127 128 126 127 128 128 129 130 129 127 127 127 127 126 127 129 128 127 127 128 128 127 127 127 127 126 126 127 126 128 128 126 126 127 126 126 126 127 128 128 127 127 125 126 127 126 128 128 128 129 126 125 127 129 128 128 128 128 128 128 127 125 123 125 127 126 128 126 124 126 126 128 130 127 127 129 127 126 128 128 126 126 129 130 128 128 128 127 127 126 127 128 127 127 127 127 128 128 128 128 127 125 125 129 130 128 127 127 127 127 127 127 127 127 128 128 127 127 127 127 126 126 127 127 127 127 127 127 127 127 127 127 128 128 127 126 126 127 128 128 127 126 126 126 127 127 126 126 127 127 128 128 126 125 126 128 129 129 127 127 128 127 127 127 127 127 127 127 127 127 127 128 128 127 127 129 129 129 129 128 128 128 127 125 126 127 128 128 128 128 126 127 127 126 127 127 126 126 126 127 127 125 121 121 125 127 126 125 126 125 124 127 135 135 130 127 126 136
113 127 128 128 127 128 128 125 124 127 128 130 128 126 127 127 126 127 128 127 127 127 127 127 128 127 125 124 127 130 128 127 127 128 127 129 129 128 128 128 127 127 128 128 127 126 128 129 128 127 127 127 127 127 127 127 126 125 126 127 127 128 127 126 126 126 126 127 126 127 128 128 127 126 124 126 127 126 129 129 127 128 125 125 128 129 128 128 128 128 129 128 126 124 124 126 128 127 127 126 125 126 126 129 129 126 127 129 125 126 129 128 126 128 128 129 128 128 127 127 127 126 127 128 127 127 127 127 128 128 127 128 128 126 126 128 129 128 127 127 127 127 127 127 127 127 128 128 127 127 127 127 126 126 127 127 127 127 126 126 127 127 127 128 128 128 127 126 126 127 128 128 127 126 126 125 126 127 126 126 127 127 127 127 126 126 127 129 129 128 127 126 128 128 126 127 127 127 127 127 127 127 127 128 128 127 128 130 129 129 128 128 127 128 127 125 125 126 127 128 128 128 127 127 127 127 127 128 127 126 126 127 127 126 123 122 125 127 127 126 126 125 125 127 131 133 129 127 126 137
113 127 128 127 127 128 126 122 124 128 129 130 128 127 128 128 126 126 129 128 127 127 127 127 128 126 124 125 127 130 129 127 127 127 129 130 130 128 127 126 127 128 129 128 127 127 128 128 127 127 127 127 127 128 127 127 126 125 126 127 127 128 127 126 126 126 126 127 127 127 127 128 127 126 124 126 127 127 129 129 127 127 126 127 128 128 128 128 128 129 129 127 125 124 124 127 129 128 127 126 126 126 126 128 128 125 128 129 124 126 130 128 127 129 128 128 128 127 126 126 127 127 128 128 127 128 127 127 127 126 127 128 129 128 127 128 128 128 127 127 127 127 127 127 127 127 128 128 127 127 127 127 126 126 127 127 127 126 126 126 127 127 127 128 128 127 126 126 127 127 128 127 126 126 125 125 126 127 127 127 127 126 126 126 127 128 128 128 128 128 126 126 128 128 126 126 126 126 128 128 127 127 128 128 128 129 129 129 129 128 127 127 127 128 127 126 125 126 127 128 128 127 127 127 127 127 128 128 127 126 126 127 127 126 124 123 125 127 127 127 127 125 125 126 129 131 128 127 127 137
113 126 128 128 128 127 123 120 123 129 130 129 127 128 129 127 126 127 130 129 127 128 127 127 128 126 125 126 127 129 129 128 128 128 130 131 130 128 126 126 127 128 129 128 127 127 128 127 126 126 127 127 128 128 127 127 126 126 126 126 127 128 128 127 126 126 126 126 127 127 127 127 127 126 125 126 127 128 129 128 126 126 127 128 128 128 128 128 128 129 128 127 125 124 124 127 129 128 128 127 126 127 126 127 128 126 128 128 124 126 129 127 127 129 129 128 128 127 126 126 126 127 128 128 128 128 126 127 126 126 127 128 130 129 128 128 128 128 127 127 127 128 127 127 127 127 128 128 127 127 127 127 127 126 127 127 127 126 126 126 127 127 128 128 128 127 126 127 127 127 127 126 125 126 126 125 126 128 128 127 127 126 125 127 128 128 128 128 128 128 126 126 127 127 127 126 126 127 128 128 127 127 128 129 129 129 129 129 129 128 126 126 127 128 127 126 126 126 126 127 127 127 127 127 127 128 128 128 127 126 126 127 127 126 125 124 125 126 127 126 127 126 125 125 129 131 128 127 128 137
114 126 127 128 128 124 119 119 124 129 130 127 125 128 130 127 126 128 131 128 127 129 127 125 127 128 126 126 128 129 128 128 129 130 131 131 130 128 126 126 127 127 129 128 127 127 127 126 125 126 128 129 128 127 127 127 127 126 125 126 127 128 128 127 127 126 126 126 128 128 126 126 126 127 126 126 127 128 128 128 126 126 127 128 128 128 128 129 128 128 128 127 125 124 126 127 128 128 128 127 127 127 126 127 127 126 128 127 125 127 129 127 127 129 129 128 127 127 127 126 126 127 127 128 128 127 126 126 127 127 128 129 129 129 128 128 128 127 127 127 127 128 127 127 126 127 128 128 128 127 127 127 127 126 127 127 127 126 126 126 127 128 128 128 128 127 126 127 127 127 127 126 124 125 127 125 126 128 127 126 127 126 125 128 128 127 128 128 128 127 127 127 127 127 127 127 126 127 128 128 127 126 128 130 129 129 129 129 129 127 126 126 127 128 128 127 126 126 126 127 126 127 127 127 128 128 128 128 126 125 126 127 127 126 126 125 124 126 126 125 126 127 125 124 129 132 128 127 128 138
114 127 128 127 126 121 116 120 126 130 130 126 125 129 131 127 126 129 130 128 127 128 126 123 126 129 126 125 128 130 128 128 130 132 134 132 129 128 127 127 127 127 128 128 127 127 126 125 126 127 128 128 128 127 127 127 127 127 126 126 127 128 128 127 127 127 126 126 127 128 127 125 125 127 127 127 127 127 128 128 127 126 127 128 129 128 128 128 128 127 127 127 125 125 126 127 128 128 127 127 127 127 126 127 127 127 128 127 125 127 128 128 128 129 129 127 127 127 127 127 127 126 126 127 127 126 126 127 128 128 128 128 128 128 128 128 128 127 127 127 127 128 127 126 126 127 128 128 127 127 127 127 127 127 127 127 127 126 126 126 127 128 129 128 128 127 127 127 127 127 127 126 124 125 127 126 126 128 126 126 127 127 126 127 128 127 127 127 127 127 127 128 128 128 127 126 126 127 127 128 128 127 128 130 129 128 128 128 129 128 126 127 127 128 128 127 127 126 125 126 126 127 127 128 128 128 128 127 125 125 126 127 127 127 126 125 124 124 126 126 126 126 125 124 129 133 129 127 128 138
114 127 128 125 123 118 118 124 127 128 130 128 127 129 130 127 127 129 129 128 126 126 125 124 126 128 125 124 128 131 129 128 130 133 136 133 129 128 127 128 128 128 127 127 127 127 126 125 126 128 128 127 127 128 127 127 128 128 126 126 127 128 128 126 126 128 127 126 127 129 128 125 125 126 127 128 127 127 128 128 127 126 127 128 128 128 128 128 127 127 127 127 126 127 127 127 128 127 126 127 127 127 126 127 127 127 128 127 126 127 128 128 128 129 128 127 126 128 128 127 127 126 126 126 126 126 127 128 129 129 128 127 127 127 128 128 128 127 127 127 127 127 127 126 127 127 128 128 127 127 127 128 127 127 127 127 127 126 126 126 127 128 129 128 128 127 126 127 127 127 126 125 125 126 128 127 126 127 125 126 128 127 126 127 128 127 126 126 127 128 128 128 128 128 127 127 126 126 127 129 129 128 128 129 128 127 127 128 129 128 127 127 127 127 128 128 128 127 125 125 126 127 127 127 128 128 128 127 126 126 127 127 127 127 127 125 123 123 125 126 125 125 125 125 130 134 130 127 127 137
113 126 128 124 119 117 121 126 126 127 129 130 127 127 129 128 128 129 130 129 126 125 126 126 126 126 124 125 129 132 129 127 130 133 136 133 129 128 127 129 129 128 127 127 127 127 126 125 126 128 128 126 126 127 127 127 127 127 126 127 128 128 128 126 126 128 128 126 127 128 128 126 126 126 126 127 127 127 128 128 126 125 127 128 128 127 127 127 127 127 127 126 127 128 127 126 127 127 127 127 127 127 127 127 127 127 127 127 127 128 128 128 128 129 128 126 125 127 128 127 127 126 125 126 127 127 128 129 129 128 128 127 127 127 128 128 128 128 127 127 127 127 127 127 127 127 128 127 127 127 127 128 128 127 127 127 126 126 126 127 127 128 129 129 128 127 126 126 126 127 126 125 124 127 129 127 126 126 125 126 128 128 126 126 127 127 126 126 128 128 129 129 128 127 127 128 128 127 127 129 129 128 128 128 127 126 127 128 129 129 127 127 127 127 127 128 128 127 125 125 125 127 127 127 128 128 128 127 127 127 127 127 127 127 127 126 123 122 124 126 125 125 125 126 130 133 131 128 127 137
113 126 127 122 117 119 124 126 126 126 128 128 127 126 129 129 127 128 130 128 126 127 128 127 127 124 123 126 130 132 129 128 130 133 136 132 129 128 128 129 128 127 127 127 127 126 126 126 126 128 128 126 126 127 128 128 127 127 126 127 128 128 127 127 126 128 128 126 127 127 126 126 126 126 127 127 127 128 128 127 125 125 128 129 128 127 127 127 127 128 126 126 128 128 127 126 126 127 128 128 127 127 127 127 128 127 127 126 127 128 128 128 128 128 127 127 126 127 128 127 127 126 125 127 128 128 129 129 128 127 127 127 127 127 128 128 128 128 128 127 127 127 127 127 127 128 128 127 126 127 127 128 128 127 127 127 126 126 126 127 127 128 129 129 128 127 126 126 126 127 126 124 125 128 129 127 126 126 126 126 128 128 126 126 127 127 126 126 128 128 128 129 128 126 127 129 129 128 128 128 128 128 128 127 126 126 127 128 129 129 128 127 126 126 127 128 129 128 125 124 125 126 127 127 128 128 128 127 127 127 127 127 127 127 127 126 124 121 122 126 127 126 126 126 128 130 130 130 128 137
113 127 125 119 118 122 125 127 126 126 127 127 127 127 130 128 125 129 130 127 126 128 129 128 127 123 123 127 130 131 130 130 132 134 135 132 130 129 128 127 127 127 128 127 127 126 125 126 128 128 128 126 125 126 128 129 128 127 126 126 128 128 127 127 127 128 128 126 126 126 126 126 126 127 127 127 127 128 128 127 125 125 128 129 128 127 127 128 127 127 126 126 128 129 127 126 127 127 128 127 127 128 127 127 128 127 126 126 127 128 128 128 127 127 127 127 127 127 126 126 126 126 126 128 129 128 129 128 127 126 127 128 127 127 127 128 127 128 128 127 127 127 127 127 127 128 128 127 127 127 127 128 128 127 127 127 126 127 126 127 127 128 128 128 128 127 126 126 126 126 126 125 126 127 127 127 126 126 127 126 127 127 127 127 127 127 127 127 128 128 128 129 128 127 128 129 129 128 128 128 127 128 127 126 125 126 127 128 129 129 128 127 126 126 127 127 129 128 126 124 125 126 127 127 127 128 128 128 128 127 127 126 127 127 127 126 125 121 120 124 128 127 127 126 126 128 128 131 132 139
113 126 121 116 119 124 127 128 126 125 127 128 128 128 129 127 125 129 129 126 126 128 129 128 128 124 124 127 127 131 131 131 133 133 135 134 130 129 127 126 126 127 128 127 127 126 125 126 128 128 127 127 125 126 128 129 128 127 125 126 128 128 128 127 127 128 128 127 126 126 126 126 126 126 127 127 127 128 129 127 125 126 128 129 128 127 127 128 127 126 126 127 128 128 127 127 128 128 128 127 127 128 126 127 128 126 126 126 128 128 128 127 126 126 128 128 127 126 126 126 126 127 127 128 128 128 128 128 127 126 128 129 128 127 127 128 127 128 128 127 126 127 127 127 127 128 127 127 127 127 127 128 128 127 127 127 127 127 127 127 127 127 128 128 128 127 126 127 127 126 126 126 126 126 126 126 127 127 127 126 126 126 126 128 128 127 126 126 128 128 128 129 129 128 129 129 128 128 128 128 127 127 127 126 125 126 127 128 128 129 128 127 126 126 127 127 128 128 126 125 124 126 127 127 127 127 128 128 128 127 126 126 127 127 127 127 125 122 119 122 127 128 126 124 126 126 126 131 135 142
113 124 117 116 121 126 127 128 127 126 128 130 128 127 127 126 126 129 127 125 127 129 128 127 127 126 126 127 127 131 131 129 131 134 137 134 130 128 127 126 127 127 127 127 127 127 126 126 127 128 128 127 126 125 127 129 129 127 125 126 127 128 128 127 127 128 128 127 126 127 127 126 125 125 127 127 127 128 128 126 126 127 127 128 128 127 128 128 126 125 126 127 128 128 127 128 127 128 128 127 127 127 127 127 127 126 126 127 128 127 127 126 126 127 128 129 127 126 125 126 127 128 128 128 128 127 127 127 127 126 128 129 127 127 127 128 128 128 127 127 126 127 127 127 128 127 127 127 127 128 128 128 128 127 127 127 127 127 127 127 127 127 128 128 127 126 126 127 126 126 126 127 127 126 125 126 127 127 127 127 126 125 126 128 129 128 126 126 127 128 128 129 130 129 129 128 128 127 127 127 127 127 127 126 126 127 127 127 128 129 128 127 126 126 127 127 128 128 127 125 124 125 127 127 127 127 128 128 128 127 126 126 127 127 127 126 125 123 120 121 126 128 126 123 126 127 126 130 135 144
111 121 117 119 123 126 127 127 127 127 129 130 128 126 127 127 128 129 126 125 127 130 129 125 125 127 128 128 129 131 129 127 131 138 138 132 130 128 127 127 127 127 127 126 127 127 127 126 126 128 129 128 127 125 126 129 129 127 126 126 127 127 127 126 127 129 129 127 126 127 127 127 126 125 126 127 127 128 128 126 126 127 127 128 128 128 129 128 126 125 126 127 128 128 128 128 127 128 129 128 127 127 127 126 126 126 126 128 128 127 125 126 127 127 128 128 127 126 125 127 128 128 128 128 127 127 126 126 128 127 128 129 127 127 127 128 127 127 127 127 126 127 128 128 128 127 126 127 127 128 128 128 127 127 127 127 127 127 127 127 127 127 128 128 127 127 127 127 126 126 127 127 127 126 125 126 127 127 126 126 126 127 127 128 129 128 127 125 127 129 129 130 129 129 129 128 127 127 127 127 127 127 127 126 126 127 127 127 128 128 128 127 127 126 127 127 128 128 128 127 124 124 126 127 127 127 127 128 128 127 126 126 127 127 127 126 125 123 121 121 124 126 125 124 127 127 125 128 133 145
108 120 120 123 124 126 127 127 126 127 128 129 128 127 127 127 128 130 127 125 126 129 128 123 123 127 129 130 131 130 127 126 134 141 137 130 129 128 127 127 128 127 127 126 126 127 127 127 126 127 128 128 127 126 126 128 128 127 127 127 126 126 126 127 127 128 129 128 127 127 127 126 125 125 126 127 127 128 128 126 126 127 127 127 128 129 129 127 126 125 126 127 128 128 128 128 127 127 128 129 128 127 127 126 126 126 127 128 128 126 125 126 127 127 128 128 127 127 126 127 128 128 128 127 127 126 126 127 129 128 128 127 127 127 127 128 127 127 127 127 127 127 128 128 127 127 126 127 127 128 128 128 127 127 127 127 127 127 127 127 127 127 127 127 127 127 126 126 126 126 127 127 127 126 125 126 127 127 127 126 127 128 128 127 128 128 127 126 128 129 129 129 129 129 128 127 127 126 127 127 127 127 127 126 127 127 127 127 127 128 128 127 127 127 127 127 127 128 128 128 125 124 126 127 128 127 127 128 128 127 126 127 127 127 126 126 126 124 122 121 123 125 124 126 129 127 124 126 131 147
105 120 123 125 125 126 126 126 126 126 128 129 128 128 127 126 128 130 128 125 125 127 127 124 125 127 129 131 132 129 125 127 138 141 134 129 128 127 127 127 128 127 127 126 126 126 127 127 127 127 128 128 127 127 127 127 128 127 127 127 126 126 126 127 127 128 129 128 127 127 127 126 125 125 127 127 127 127 128 127 126 127 128 128 128 129 128 127 125 125 126 127 128 127 127 128 127 127 128 129 129 127 127 126 126 127 128 128 127 126 126 126 126 127 128 128 128 127 127 128 128 127 127 127 126 126 126 128 129 128 128 127 127 127 127 128 127 127 127 127 127 127 128 128 127 127 127 127 127 127 128 128 127 127 127 128 128 127 127 127 127 127 127 128 127 127 126 126 125 127 128 127 127 127 125 125 126 127 127 126 127 128 128 127 126 127 128 128 129 129 128 128 128 129 128 127 127 127 127 127 127 128 127 126 126 127 127 127 127 128 127 126 126 127 128 128 128 128 128 129 125 123 125 127 128 128 128 128 128 127 127 127 127 126 126 126 126 125 123 120 122 125 124 126 130 127 123 125 132 148
103 123 125 126 126 127 126 126 127 127 128 129 128 127 126 125 129 130 128 125 125 127 127 125 127 128 128 130 130 128 126 131 140 138 131 129 127 127 127 128 128 127 127 126 125 126 127 127 128 129 128 128 127 127 127 127 127 127 126 126 126 126 126 127 127 128 129 129 127 127 127 126 125 125 127 127 127 127 128 126 127 127 128 129 128 128 127 126 125 126 126 127 128 127 127 127 128 127 127 128 128 127 127 126 125 128 129 128 126 125 126 127 126 127 127 128 128 126 127 128 128 127 127 126 126 127 127 129 129 128 127 127 127 127 127 127 127 127 127 127 127 127 128 127 127 127 127 127 127 127 128 128 127 127 127 128 128 127 127 127 127 127 128 128 127 126 125 126 125 126 128 127 127 127 127 126 126 127 127 127 126 127 128 128 126 127 128 130 130 128 128 127 128 128 128 127 127 127 127 127 127 128 127 126 126 126 127 128 128 128 127 126 126 127 128 128 128 127 128 129 125 123 124 127 128 128 128 128 127 128 128 128 127 126 126 126 126 125 123 119 121 126 124 125 129 127 124 125 132 148
102 125 126 127 127 128 125 126 129 128 127 128 127 126 125 126 129 130 127 124 124 128 128 126 129 130 128 129 129 128 129 134 138 133 129 128 127 127 127 128 128 127 126 125 125 126 127 127 129 130 129 128 127 127 127 127 127 127 125 125 127 127 126 127 128 128 128 128 127 128 128 127 125 126 127 127 126 127 127 127 127 127 128 129 128 127 126 126 125 126 127 128 128 128 127 128 128 127 126 127 128 128 127 125 125 128 129 128 126 125 127 128 127 127 128 128 127 126 127 129 128 127 126 125 126 128 128 128 129 128 127 127 127 127 127 127 127 127 127 127 127 127 127 127 127 127 127 127 127 127 127 128 127 127 127 128 128 128 127 127 127 127 128 128 127 126 125 126 126 126 126 127 127 128 128 127 126 126 127 127 127 126 127 127 127 127 129 130 129 128 127 127 128 128 128 128 127 128 128 127 127 128 127 126 126 126 128 128 128 128 126 125 126 127 128 129 128 127 128 129 126 123 124 126 128 128 128 128 127 128 127 128 128 126 125 126 126 126 123 120 121 124 123 124 128 128 126 126 131 147
103 125 126 128 128 128 125 125 128 128 128 127 127 127 127 127 128 130 128 123 123 128 128 126 130 132 129 128 129 130 131 133 133 130 127 127 128 128 128 128 128 127 125 125 126 127 127 127 129 130 129 128 127 127 127 127 127 127 125 126 128 127 126 126 127 128 128 127 126 128 128 127 126 126 127 127 126 127 128 127 127 128 128 129 128 127 126 126 126 126 127 128 128 127 128 128 128 127 126 126 128 128 127 126 126 128 129 128 126 125 127 128 128 127 127 127 127 127 128 129 128 127 125 125 127 128 128 128 128 128 127 127 127 127 127 127 127 127 127 127 128 128 127 127 127 127 128 128 127 127 127 127 127 126 127 128 128 128 128 127 127 127 127 127 127 127 126 126 126 124 124 127 128 129 129 127 127 126 126 128 128 127 127 127 127 128 129 129 128 127 127 127 128 127 127 128 128 128 128 127 127 128 127 126 125 126 128 129 128 127 126 125 126 127 128 129 128 127 128 129 128 124 124 126 127 128 129 128 128 128 127 127 128 126 125 126 127 126 124 122 122 124 124 125 127 128 127 127 129 143
105 127 128 128 128 128 127 126 126 127 128 127 127 128 128 127 127 129 129 124 123 128 128 126 129 132 129 127 129 131 131 131 130 128 127 126 127 129 129 128 127 126 124 125 127 127 127 127 129 130 129 128 127 127 127 126 127 127 126 126 127 126 126 127 127 128 128 127 127 127 128 128 127 126 127 128 127 127 127 126 127 128 128 128 127 126 126 126 126 127 127 127 127 127 128 128 128 127 126 126 128 128 127 126 127 128 128 128 126 126 126 127 128 127 127 127 127 128 128 128 127 126 125 127 128 128 128 128 128 128 127 127 127 127 127 127 127 127 127 128 128 128 127 127 127 127 128 128 127 126 126 127 127 126 127 128 128 128 128 127 127 126 126 127 127 127 127 126 125 123 125 128 128 129 129 128 127 127 127 127 128 127 127 127 127 128 128 128 127 127 127 128 128 127 127 128 128 128 128 127 127 128 127 126 125 126 128 129 128 127 126 125 126 127 128 128 127 126 127 129 129 125 123 125 127 128 129 128 127 127 127 127 127 127 126 126 126 126 125 123 123 124 125 126 128 129 128 127 128 139
109 128 128 128 127 127 128 127 126 127 128 127 127 128 128 126 126 129 128 126 126 129 128 126 127 129 128 128 129 130 130 129 128 128 127 126 126 128 128 127 127 127 125 125 127 127 127 127 129 130 128 128 128 127 127 126 127 127 127 127 126 126 127 127 127 128 128 127 127 127 128 129 127 126 127 128 127 127 126 126 128 129 128 128 127 126 126 126 126 127 128 128 127 126 127 128 128 127 126 126 127 129 128 126 127 128 128 128 127 126 126 126 127 127 126 128 128 128 128 127 127 125 126 128 128 128 127 128 128 128 127 127 127 127 127 127 127 127 127 128 128 128 127 127 127 128 128 129 127 126 126 126 127 127 127 128 128 128 128 127 127 126 126 127 128 128 127 126 124 123 127 129 129 128 128 128 128 128 127 127 128 128 127 127 127 127 128 128 127 127 128 128 128 127 126 128 128 128 128 127 127 128 127 126 126 126 128 129 128 127 126 125 126 126 127 128 127 126 127 130 129 126 123 125 127 129 129 128 127 127 127 127 127 127 126 126 126 127 126 125 124 124 125 127 128 128 128 128 127 136
111 129 128 128 127 127 127 127 127 127 128 127 127 129 128 126 126 128 128 126 127 129 128 126 127 127 127 129 129 129 129 128 127 127 127 126 127 128 127 127 128 127 126 126 127 126 126 127 128 129 128 127 127 127 126 126 127 127 127 127 126 126 127 127 127 127 128 128 128 127 127 128 127 127 127 128 127 126 126 127 127 128 128 127 127 126 126 126 126 127 128 128 127 126 127 128 127 126 126 127 128 129 128 127 127 128 127 127 127 127 126 126 126 127 127 128 128 127 127 127 127 126 127 129 128 127 127 128 128 128 128 127 127 126 126 127 127 127 128 128 128 127 127 127 127 128 128 128 127 126 126 126 127 127 127 128 128 127 127 128 127 126 126 127 127 127 127 126 124 125 128 129 128 128 127 127 128 128 128 127 128 128 127 127 127 127 127 127 127 127 128 128 127 126 126 128 128 128 128 127 128 128 128 126 126 126 127 128 128 127 127 126 127 126 126 127 127 127 127 129 129 125 123 125 127 129 130 128 126 126 127 127 127 127 126 126 126 126 126 126 125 124 125 127 128 128 127 127 127 136
112 129 129 128 127 126 126 127 127 128 128 126 126 129 128 126 126 128 128 126 127 129 129 127 127 127 128 130 129 128 128 127 127 127 127 127 127 127 126 127 129 128 127 127 127 126 126 126 128 128 128 127 127 127 127 127 127 128 127 127 126 126 126 127 127 127 127 128 128 128 127 127 127 128 128 128 127 126 126 127 127 127 127 127 126 127 127 126 126 127 128 128 127 127 127 127 126 126 127 127 129 129 128 127 127 127 127 127 127 127 126 126 126 127 128 128 127 126 125 127 128 127 128 128 128 127 127 128 128 127 127 127 127 126 126 127 127 127 128 128 128 127 127 127 128 128 128 127 126 126 127 126 127 127 127 128 128 127 127 128 128 126 126 127 127 127 126 126 126 126 128 128 128 127 127 127 128 128 127 127 127 128 128 128 127 127 127 127 127 127 128 128 127 126 127 128 128 128 128 128 128 128 128 127 126 126 127 128 128 127 127 127 127 126 126 127 127 127 127 129 129 125 124 125 127 129 130 127 126 126 127 127 127 127 126 126 126 126 126 126 125 124 125 128 128 128 126 126 127 137
113 128 129 128 127 125 126 128 127 127 128 126 125 128 128 126 126 128 129 126 126 130 129 127 127 127 128 130 129 127 126 127 127 127 127 127 127 126 126 128 129 128 128 127 127 126 125 126 128 129 128 127 126 126 127 127 128 128 127 128 127 126 125 126 127 127 127 127 128 128 127 126 126 128 129 128 127 127 126 127 127 127 127 127 126 127 128 127 127 127 128 128 127 127 127 127 127 127 127 128 128 129 127 127 127 127 127 127 127 127 126 126 126 128 128 127 126 125 125 128 129 127 128 128 128 127 127 128 128 127 127 127 127 127 127 127 127 127 128 128 128 127 127 127 127 128 127 127 126 127 127 127 127 127 128 128 127 127 127 128 128 126 126 127 127 126 125 125 127 128 128 128 128 127 127 128 128 128 127 126 127 128 129 128 127 126 126 126 126 128 129 129 127 126 127 128 128 127 127 128 128 128 128 127 126 126 127 128 127 128 127 126 126 126 127 127 127 127 127 128 128 126 124 124 127 129 130 128 126 126 127 128 127 127 126 126 125 126 126 126 126 124 125 127 128 127 126 126 127 137
114 128 128 127 127 125 126 128 127 127 129 127 125 127 128 127 127 127 128 127 127 130 129 127 127 128 129 130 128 126 126 127 128 128 127 127 127 127 126 127 129 128 128 127 127 126 126 126 128 129 127 126 125 126 127 127 128 128 126 128 129 127 125 126 127 127 127 126 128 129 127 126 126 128 129 128 127 127 127 127 126 126 127 127 126 127 128 128 127 127 127 128 127 127 127 127 128 127 127 127 128 128 127 127 127 127 127 128 128 127 126 126 127 127 127 126 126 125 127 128 127 127 128 128 128 128 128 128 128 127 127 127 127 127 127 127 127 127 128 128 127 127 128 128 127 127 126 126 127 127 127 127 127 127 127 128 127 127 127 128 127 126 126 127 126 126 125 125 128 129 128 128 128 128 128 128 128 128 127 126 127 128 129 128 127 126 126 125 126 128 129 129 127 126 127 128 128 127 127 127 127 127 128 127 127 127 127 128 128 128 127 126 126 126 127 128 127 127 127 128 128 127 124 124 127 129 129 128 126 127 127 127 127 127 126 125 125 126 126 126 126 125 125 126 128 127 126 127 127 137
114 128 128 127 127 126 126 128 127 126 129 128 126 126 127 127 127 127 128 127 128 131 129 127 127 129 130 129 127 125 125 127 128 128 127 127 127 127 127 127 128 128 127 127 126 126 126 127 128 128 127 125 126 127 127 127 129 128 126 128 129 127 126 126 127 127 126 126 128 128 127 127 126 127 127 128 128 127 127 127 126 126 128 128 127 127 128 128 127 127 127 127 127 127 127 127 128 128 127 127 128 128 127 127 127 127 127 128 128 127 126 126 127 127 126 126 126 127 128 128 126 126 128 128 128 128 128 128 128 127 127 126 127 127 127 127 127 127 128 128 127 127 128 128 127 127 126 126 127 127 127 127 127 127 127 128 128 128 127 127 127 126 126 127 126 126 125 125 127 128 128 128 128 128 128 128 129 129 127 126 127 128 129 128 127 126 126 125 126 128 129 129 127 127 127 128 128 127 127 127 127 127 127 127 127 127 127 128 128 128 127 126 126 127 127 127 127 127 127 128 129 127 125 124 126 128 129 128 126 126 127 127 127 127 126 125 126 126 126 126 126 125 125 126 127 127 127 128 127 137
113 128 128 126 126 127 127 128 127 126 128 129 127 126 126 127 127 128 128 126 127 131 129 127 128 129 130 128 127 125 126 126 127 128 128 127 127 127 128 128 127 127 127 127 126 126 127 129 129 128 127 126 126 127 126 127 129 128 127 127 128 127 126 127 127 127 125 126 127 128 127 127 127 127 127 128 127 126 128 128 125 125 128 129 128 127 127 127 127 127 127 128 128 127 127 127 128 128 127 127 127 127 127 126 127 127 127 128 127 127 126 126 127 127 125 126 128 128 128 128 126 126 127 129 128 128 128 128 128 127 127 127 127 127 127 127 128 127 127 128 127 127 128 128 128 127 126 126 127 127 128 128 127 127 127 127 128 128 127 127 127 126 127 127 126 126 126 125 127 128 128 129 128 128 128 128 129 129 127 126 127 128 129 128 126 125 126 126 126 128 129 129 127 127 127 128 127 127 127 127 127 127 127 127 127 126 127 128 128 128 127 126 126 127 127 127 127 127 127 128 129 127 125 125 126 128 129 127 126 126 126 127 127 126 126 126 126 126 126 126 126 125 125 126 127 127 127 128 127 136
112 127 128 127 127 128 128 128 127 126 128 128 127 127 126 126 128 128 127 126 127 130 130 128 128 129 129 128 127 125 125 127 127 127 128 127 126 127 128 128 128 127 126 126 126 126 128 129 128 128 127 127 127 127 126 127 128 128 127 127 127 127 126 127 128 127 126 125 127 128 128 127 127 128 128 128 127 127 128 127 125 125 127 128 128 128 127 127 127 127 127 128 128 127 127 127 127 128 127 128 127 127 127 126 127 127 127 127 127 127 126 126 127 127 126 126 128 128 127 127 125 125 128 129 129 128 128 128 127 126 126 127 127 127 127 127 128 127 127 128 127 127 128 128 128 127 127 126 127 127 128 128 127 126 127 127 128 128 127 127 127 127 127 127 126 126 125 126 127 128 128 129 129 128 128 128 129 129 128 126 126 128 128 128 126 125 125 126 127 128 129 128 128 127 127 128 127 127 127 127 127 128 128 127 127 126 126 127 128 129 127 126 126 126 127 127 128 127 127 128 129 127 125 124 126 128 129 128 127 126 126 127 127 126 126 126 127 127 126 125 125 125 125 127 128 127 127 128 127 136
112 126 127 127 128 129 127 126 127 127 128 128 128 128 126 127 127 127 127 127 128 130 129 128 128 129 129 128 127 125 125 127 127 127 128 128 126 127 128 128 128 127 126 125 126 127 129 128 127 128 128 128 127 127 126 127 127 127 127 127 127 127 126 127 128 127 126 125 126 128 128 127 127 128 128 127 127 127 127 127 126 126 126 128 129 128 127 127 127 127 127 128 128 127 126 126 127 128 128 128 127 127 127 126 127 127 128 127 127 127 126 127 127 127 127 127 128 128 127 126 125 125 128 130 129 128 127 128 127 126 126 127 127 127 127 128 128 127 127 128 127 127 127 127 128 128 127 127 127 127 128 128 127 126 127 128 128 127 127 127 127 126 126 127 126 126 125 126 127 128 128 129 129 128 128 128 128 129 129 127 126 127 128 128 126 125 125 126 127 128 128 128 128 127 127 127 127 127 127 127 128 128 128 127 126 126 126 127 128 129 128 126 125 125 126 128 128 128 127 128 129 128 124 123 125 128 129 129 127 127 126 127 127 126 126 126 127 127 126 125 125 126 126 127 128 127 127 128 127 136
113 125 127 127 128 129 126 126 127 127 128 127 128 128 128 127 126 126 126 127 129 130 129 128 127 128 129 128 127 125 125 127 127 127 128 128 127 126 127 127 128 127 126 125 126 128 129 128 127 128 129 128 127 127 127 127 127 127 127 127 127 127 126 127 128 127 126 126 127 129 129 127 127 127 128 127 127 127 127 127 127 127 126 127 129 128 128 127 127 127 128 128 128 127 126 126 127 128 127 127 128 127 127 126 127 128 128 127 127 127 127 127 127 127 127 127 127 127 127 127 126 125 128 130 128 128 127 127 127 126 126 127 127 127 127 128 128 127 128 128 127 127 127 127 127 128 128 127 128 128 128 127 127 127 127 128 128 127 127 127 127 126 126 126 126 126 125 126 128 129 129 129 130 129 128 128 128 128 129 127 126 126 127 127 127 126 126 127 127 127 128 128 127 127 127 127 127 127 126 126 128 129 129 127 126 127 127 128 128 128 127 126 125 125 126 128 128 128 128 128 129 128 124 123 125 128 130 130 128 127 126 127 127 126 126 126 127 126 125 125 125 125 126 127 128 127 126 128 127 136
114 126 127 126 127 128 126 126 126 127 129 128 127 129 128 127 125 126 127 129 130 130 129 127 126 127 129 128 127 126 126 127 127 126 127 127 127 127 127 127 126 127 127 126 126 128 129 127 127 128 129 128 127 127 127 127 126 126 126 127 127 127 126 127 128 127 127 126 127 129 128 127 127 127 128 127 127 127 127 127 127 127 127 127 128 128 128 128 127 127 127 128 128 127 126 126 127 127 127 127 127 127 127 127 127 127 127 127 127 127 127 127 127 127 127 127 126 126 128 128 127 126 128 129 128 128 127 127 127 126 126 127 127 127 127 127 127 127 127 128 127 127 127 127 127 128 128 128 128 128 127 127 127 127 127 128 128 127 127 127 127 126 126 126 125 126 125 126 128 129 129 130 130 129 128 127 127 128 128 127 126 125 126 127 127 127 127 127 127 127 128 128 127 127 127 127 127 127 126 126 128 129 129 127 126 127 128 129 128 127 127 125 124 125 127 128 129 128 127 128 129 128 124 123 125 127 130 130 128 127 127 127 127 126 126 126 126 126 125 126 125 125 125 126 128 127 126 127 127 137
115 127 126 126 127 128 127 126 125 127 129 128 127 128 128 127 127 127 129 129 129 129 128 126 126 127 128 128 127 126 127 128 127 126 126 127 127 127 128 128 126 126 127 127 127 128 128 128 126 128 129 128 127 127 127 127 126 126 126 127 127 127 126 126 127 128 127 126 128 129 128 127 127 128 128 127 127 127 127 127 127 127 127 126 126 128 129 128 127 127 127 128 128 127 127 127 127 127 127 127 127 128 127 127 127 127 127 126 126 127 128 127 127 127 127 127 125 126 129 129 127 127 127 128 128 127 127 127 127 126 127 127 127 127 127 127 127 127 127 127 127 127 127 127 127 128 128 128 128 128 127 127 127 127 127 127 127 127 127 127 127 126 125 125 125 126 126 127 128 128 129 130 130 129 128 127 127 127 127 127 126 126 126 127 127 128 127 127 127 127 128 128 127 127 127 126 126 126 126 126 127 128 128 127 127 128 129 129 128 127 126 125 125 126 127 129 129 127 127 128 129 128 125 124 125 127 129 129 128 127 127 127 127 126 126 126 126 125 125 126 126 125 125 126 127 126 126 127 127 138
114 127 127 127 128 127 127 126 126 126 128 128 126 127 128 129 129 129 128 128 128 128 127 126 126 127 128 127 127 127 128 128 127 126 126 126 126 128 129 128 126 126 127 127 127 128 128 128 126 127 129 128 127 127 127 127 126 126 127 127 127 127 126 126 127 128 126 126 128 127 127 127 128 128 128 127 127 127 127 127 128 128 127 125 126 128 129 128 127 127 127 128 128 127 127 127 127 127 126 127 127 127 127 127 127 127 127 126 125 127 128 128 127 127 127 127 126 127 129 129 128 127 127 127 128 127 127 127 127 127 127 127 127 127 127 127 128 128 127 127 127 127 127 127 127 127 128 128 128 127 128 128 128 127 127 127 127 127 127 127 127 126 125 125 125 126 127 127 128 128 129 130 129 129 128 127 127 127 126 126 126 126 126 127 127 127 127 127 127 128 128 128 127 127 126 126 126 126 126 126 127 127 127 127 127 128 129 129 128 127 126 124 125 126 128 130 129 127 127 128 129 128 125 125 125 127 129 129 128 127 127 127 126 126 126 126 126 126 126 126 126 125 124 125 126 126 126 126 127 139
113 127 127 129 128 127 126 127 127 125 126 128 127 128 129 130 130 129 128 127 127 127 125 126 127 127 127 126 126 128 129 128 127 126 126 126 126 127 128 128 127 127 128 127 127 127 127 127 127 127 128 128 128 128 128 127 127 127 127 126 126 127 126 126 128 128 126 126 128 127 127 128 128 128 128 127 127 127 127 127 128 127 127 126 126 128 128 128 127 127 127 128 128 128 128 127 127 127 126 127 127 127 127 127 126 126 126 126 125 127 129 128 127 127 126 127 128 128 128 128 128 127 127 127 127 127 127 127 127 127 127 127 127 127 127 127 128 128 127 127 127 127 127 127 127 127 128 128 128 127 128 128 128 127 126 126 127 127 127 127 127 126 125 125 126 127 127 128 128 128 129 129 129 128 128 127 127 127 126 126 127 126 126 127 127 127 127 127 127 128 129 128 127 127 126 126 126 126 126 126 127 127 127 127 127 128 129 129 129 128 126 124 125 126 128 130 129 127 126 128 129 128 126 126 126 127 128 128 128 127 126 127 126 126 126 126 127 127 126 127 126 126 125 124 125 126 126 126 127 139
112 128 128 128 127 126 127 127 127 127 127 128 129 130 130 130 130 128 127 127 127 126 125 127 128 127 127 126 127 129 129 127 127 126 126 127 127 126 127 127 127 128 128 127 127 127 127 127 127 128 127 127 128 128 128 127 127 127 127 125 126 128 127 127 127 127 126 127 128 128 127 127 128 128 128 127 126 127 127 127 128 128 127 126 126 127 128 127 127 127 128 128 128 128 128 127 127 127 126 127 127 127 127 127 126 126 126 126 125 127 128 128 127 127 126 128 129 128 128 128 128 127 127 127 127 128 127 127 127 126 127 127 127 127 127 127 128 128 127 127 127 127 127 127 127 127 128 127 127 127 128 129 128 127 127 126 127 127 127 128 127 126 125 125 126 127 127 128 128 128 129 129 129 128 128 127 127 127 127 127 126 126 126 126 127 126 127 127 128 128 128 127 127 127 127 127 126 126 126 126 127 127 127 127 127 128 129 129 129 128 127 125 125 126 128 129 129 126 126 128 129 128 126 126 126 127 128 128 128 127 126 127 127 126 126 126 127 127 127 127 127 126 125 124 125 127 126 125 127 139
113 129 128 126 125 125 127 127 126 128 129 129 130 130 130 130 129 128 127 127 126 126 126 127 127 126 126 127 127 128 128 127 127 127 127 128 127 126 126 127 126 127 127 126 127 127 127 127 127 128 127 127 128 128 128 128 127 127 126 125 126 128 128 127 127 126 126 126 128 128 127 127 127 128 128 126 126 127 128 127 128 129 127 126 126 127 127 127 126 127 128 129 129 128 128 127 127 127 126 127 127 128 127 126 126 126 127 126 126 127 127 127 127 128 128 128 128 128 128 128 128 127 126 127 127 127 127 127 127 126 127 127 127 127 127 127 128 128 127 127 127 127 127 127 127 127 127 127 127 128 128 129 128 127 127 127 127 127 127 128 127 125 125 126 127 127 127 128 128 129 129 128 128 128 128 127 127 128 128 127 126 125 125 126 126 126 127 128 128 128 128 127 127 127 128 127 126 125 125 125 127 127 127 127 127 128 129 129 129 129 127 126 125 126 127 128 128 126 126 127 128 128 127 126 126 127 128 129 128 126 126 127 127 126 126 126 127 128 127 127 126 126 125 123 124 128 126 125 127 138
113 129 128 126 125 125 127 127 126 128 131 131 130 129 129 129 128 128 127 126 126 127 127 127 126 126 126 127 128 128 128 128 127 127 127 127 127 126 127 127 125 126 127 126 127 128 127 127 127 127 128 127 127 127 128 128 128 127 126 125 126 128 128 128 127 126 126 126 128 128 127 127 127 128 127 126 127 127 128 127 128 129 127 126 126 126 127 127 127 127 128 129 129 129 127 127 127 127 127 127 127 127 127 126 126 126 127 127 126 127 127 127 127 128 129 128 128 127 127 128 128 127 126 127 127 127 127 127 127 127 127 127 127 127 127 127 128 128 127 127 127 127 128 127 127 127 127 127 127 128 129 129 128 127 127 127 127 127 127 127 126 125 125 126 127 128 128 128 129 129 128 128 128 128 128 127 127 128 128 127 126 125 125 125 125 126 127 128 128 128 128 128 127 127 128 128 126 125 125 125 127 128 127 127 127 128 129 130 130 129 128 126 126 127 127 128 127 126 126 127 128 128 127 126 125 127 128 129 128 127 126 127 127 126 126 126 126 128 127 126 126 126 126 124 124 127 126 126 127 138
112 127 128 127 126 125 126 128 127 127 132 132 130 129 128 128 128 128 127 125 126 128 127 126 126 126 126 127 127 128 129 129 128 127 127 127 127 127 127 127 125 126 127 126 127 128 127 126 126 127 128 127 127 127 128 129 129 127 127 126 126 127 128 128 127 127 126 126 128 128 127 127 127 128 127 126 126 127 128 128 128 128 128 126 125 126 127 127 127 127 127 128 130 129 127 127 127 127 127 127 127 127 127 126 127 127 127 127 127 127 127 127 128 128 128 128 128 127 127 127 128 127 126 127 127 127 127 127 127 127 127 127 127 127 127 127 128 128 128 128 128 128 128 127 127 126 126 127 127 128 129 129 128 127 127 127 127 128 127 126 125 125 126 127 127 128 128 129 129 129 127 127 128 128 128 127 127 128 128 127 126 126 125 124 125 126 128 128 128 128 128 128 128 128 128 128 127 125 125 125 127 127 127 126 126 127 128 129 130 129 128 126 126 127 127 127 127 126 126 127 128 128 127 125 125 127 129 129 128 127 126 126 127 126 127 126 126 127 127 126 126 126 126 124 125 126 126 126 128 138
112 126 127 128 127 126 127 128 128 129 131 131 129 128 128 127 128 128 127 126 126 127 127 125 126 128 127 126 127 128 129 129 127 127 126 126 127 127 128 127 126 126 126 126 127 128 127 126 127 128 128 127 127 127 127 128 128 128 127 126 125 127 128 128 128 127 126 126 128 128 127 127 127 127 127 126 126 126 128 129 128 128 128 127 126 126 127 127 127 127 127 128 129 128 127 127 127 127 127 127 127 127 127 127 127 127 127 127 127 127 127 127 128 128 128 128 127 127 127 127 128 127 126 127 127 127 127 127 127 127 127 127 127 127 127 127 128 128 128 128 128 128 128 127 126 126 126 127 127 128 129 128 127 126 127 127 127 128 128 125 124 125 127 127 128 128 128 129 129 128 127 127 128 128 128 128 128 128 128 127 126 126 125 124 125 126 128 128 128 128 128 128 128 128 128 128 127 126 126 126 127 127 127 126 126 127 128 129 129 129 127 126 126 127 128 127 127 126 126 127 128 128 126 125 126 127 128 129 128 127 126 126 127 127 127 126 126 127 126 126 126 127 126 125 125 126 126 126 128 138
112 126 128 127 127 126 127 129 129 130 130 130 129 128 127 127 128 127 127 126 126 127 126 125 127 128 127 127 128 129 129 128 127 126 126 127 128 128 128 128 127 127 126 126 127 127 126 126 127 128 128 128 127 127 126 127 128 128 127 126 125 126 129 129 128 127 126 126 127 128 127 127 126 127 128 126 126 127 128 129 128 128 128 127 126 127 127 128 127 127 127 128 129 128 127 127 127 127 127 127 127 127 127 127 127 127 127 127 127 127 128 128 128 128 127 127 127 127 127 127 128 127 126 127 127 127 127 127 127 128 127 127 127 127 127 127 128 128 128 128 128 128 128 126 125 125 127 127 128 128 129 128 127 126 126 127 127 128 128 125 124 126 127 128 128 128 128 128 128 128 127 128 128 128 128 128 128 128 127 127 126 126 125 125 125 126 127 128 127 127 128 128 128 128 128 127 127 126 127 127 127 127 127 126 126 126 127 128 129 128 127 126 126 127 128 128 128 127 126 127 128 127 126 126 126 127 128 128 128 127 126 126 127 127 127 126 126 126 126 126 126 127 126 125 125 125 125 126 128 138
111 127 129 127 127 126 127 130 131 130 129 129 128 127 127 127 128 127 126 126 127 127 125 125 127 128 127 127 128 129 129 127 126 125 126 128 128 128 128 128 127 127 127 127 127 126 126 126 127 129 128 127 127 127 126 126 127 128 127 126 125 127 129 129 128 127 127 127 127 127 127 126 126 127 128 126 126 127 128 128 127 127 128 127 127 127 128 128 127 127 126 126 128 128 127 127 127 127 126 126 127 128 127 127 127 127 127 127 127 127 127 128 128 127 127 127 127 127 127 128 128 127 127 127 127 127 127 127 127 127 127 127 127 127 127 127 128 128 128 128 128 128 127 126 125 126 127 127 128 129 129 128 127 126 126 127 127 128 127 125 125 126 127 128 129 128 128 128 127 127 128 128 128 128 128 128 128 128 127 127 126 126 126 125 126 126 127 128 127 128 129 128 127 127 127 127 127 126 127 128 128 128 127 126 126 126 127 128 128 128 127 126 126 127 128 128 128 127 127 127 128 127 126 126 126 127 128 128 128 128 127 126 127 127 127 126 126 126 126 126 127 127 126 126 125 124 124 125 128 140
111 128 130 127 126 126 128 131 131 129 129 129 127 127 127 127 128 127 126 126 127 127 126 126 127 128 127 126 127 128 129 126 125 125 126 129 129 128 128 128 127 127 127 127 127 126 126 126 127 129 128 127 127 127 126 125 127 127 127 127 126 127 129 128 127 127 127 128 127 127 127 126 126 127 127 127 127 128 128 127 127 127 127 127 126 127 129 128 127 127 126 125 128 130 127 127 127 127 125 126 128 127 128 127 127 128 128 128 127 127 127 127 128 127 127 127 127 127 127 128 128 127 127 127 127 127 127 127 127 127 127 127 127 127 127 127 128 128 127 128 128 127 127 126 125 126 127 128 128 128 129 128 127 127 126 127 127 128 127 125 125 126 127 129 129 128 128 127 126 127 127 127 128 128 128 128 128 128 127 126 126 126 126 126 126 126 127 127 127 128 129 128 127 127 128 127 127 127 127 128 128 128 127 126 126 126 127 128 127 127 126 126 127 128 128 128 128 127 127 127 128 127 126 126 127 127 128 128 127 127 127 127 127 126 127 126 126 126 126 126 127 127 127 126 125 124 123 124 129 140
112 129 130 127 125 125 130 133 130 129 129 129 127 126 127 127 127 128 127 127 127 127 126 126 127 127 127 126 127 128 129 126 125 126 127 129 129 128 128 127 127 127 127 127 127 127 127 126 127 128 128 127 127 126 126 126 127 126 126 128 127 126 128 128 126 126 128 128 128 128 127 126 125 127 127 127 128 127 127 127 127 127 127 127 126 128 130 128 127 126 126 125 128 130 128 128 127 126 124 126 128 127 127 128 128 128 128 128 127 127 127 127 128 127 127 127 127 127 127 128 128 127 127 127 127 127 127 127 127 127 127 127 127 127 128 128 128 127 127 128 127 127 127 126 126 127 127 128 128 128 129 128 127 127 127 127 127 127 126 125 126 127 128 129 129 128 128 127 126 127 127 127 128 128 128 128 128 128 127 126 126 126 126 126 126 126 127 127 127 128 128 128 127 127 128 127 127 127 127 128 128 128 127 126 126 126 128 128 127 127 126 126 127 128 128 128 127 127 127 128 127 127 126 126 127 127 128 127 127 127 127 127 127 126 126 126 126 127 126 126 127 127 127 126 125 124 123 124 129 141
112 127 129 127 125 127 132 132 129 129 129 129 127 126 126 126 126 128 128 127 127 127 127 127 127 126 127 127 128 128 128 126 125 126 127 129 128 128 128 127 127 126 126 127 128 128 127 127 127 128 127 127 127 126 126 127 127 127 127 127 127 126 127 127 126 126 128 129 128 128 127 127 125 126 128 127 127 127 127 127 127 127 127 127 126 128 130 128 127 126 126 126 128 129 127 127 127 126 125 125 127 127 128 129 128 128 128 128 127 126 126 127 128 127 127 127 127 127 127 127 127 127 127 127 128 127 127 128 127 127 127 127 127 127 128 128 128 127 127 127 127 127 127 127 127 127 127 128 128 128 128 128 128 127 127 127 126 126 126 126 126 127 128 129 129 128 128 127 126 126 127 128 128 128 127 127 128 128 127 126 126 126 126 126 126 126 127 127 127 128 128 128 127 127 128 127 127 127 127 128 128 128 128 127 126 127 127 127 127 127 126 126 127 128 128 128 127 127 127 127 127 127 127 127 127 127 127 127 126 126 126 127 126 126 126 126 127 127 126 126 127 127 127 126 125 124 124 124 128 140
112 126 128 127 126 130 134 131 128 128 128 128 127 126 126 125 126 127 128 127 127 128 128 127 126 126 127 128 128 128 128 127 126 126 128 128 126 127 129 128 127 126 125 127 128 129 127 126 127 128 128 127 127 127 127 127 127 128 128 127 127 126 127 126 126 126 128 128 129 129 128 127 126 126 127 127 127 126 126 127 128 127 127 127 126 128 130 128 127 126 126 127 128 128 127 127 127 126 125 125 127 129 129 128 128 128 128 127 126 126 126 127 127 127 127 127 127 127 127 127 127 127 127 127 128 128 128 128 127 127 127 127 127 127 128 128 128 127 126 126 126 127 127 127 127 127 127 128 128 128 128 128 128 127 127 127 126 126 126 126 127 128 129 129 129 128 128 127 126 126 127 128 128 128 127 127 128 127 127 126 126 127 127 126 126 126 127 127 127 127 127 127 128 128 128 127 127 127 127 128 128 128 128 127 127 127 127 127 127 127 126 127 127 128 128 128 127 127 127 127 127 127 127 127 127 127 127 127 126 126 126 126 126 126 126 126 127 127 127 126 127 127 126 126 125 124 125 125 128 139
112 126 127 127 127 132 133 129 127 127 128 128 127 126 125 126 127 127 127 127 127 128 128 127 126 126 127 128 128 128 128 127 126 126 128 128 126 127 129 129 127 126 126 127 128 128 126 126 127 128 128 127 127 127 127 127 127 128 128 127 127 127 127 126 126 126 127 128 128 129 128 127 126 127 127 127 126 126 126 127 128 127 127 127 126 128 129 128 127 126 127 127 128 128 127 127 127 126 125 126 128 130 129 128 128 128 128 127 126 126 126 127 127 127 127 127 127 127 127 126 127 127 127 127 128 128 128 128 128 127 127 127 127 127 127 128 128 128 126 126 126 127 127 127 127 127 127 128 128 128 127 127 127 127 126 127 127 126 126 126 127 129 129 129 128 128 127 126 126 126 127 128 129 128 127 127 127 127 127 127 127 127 127 126 126 127 127 127 126 127 127 127 128 128 128 127 127 127 127 127 128 128 128 128 127 127 127 127 127 127 126 127 127 128 128 127 128 128 127 127 127 127 127 127 127 127 127 126 126 126 126 126 126 126 126 127 127 127 127 127 127 127 126 126 125 125 125 126 127 138
111 127 127 127 129 133 132 129 127 127 128 129 128 126 126 127 127 127 127 127 128 128 128 127 126 127 127 127 128 128 128 127 126 126 127 127 126 127 128 128 127 126 126 127 127 127 126 126 127 128 128 127 127 127 127 127 127 128 128 127 127 127 126 126 126 127 127 127 127 129 129 127 126 127 127 127 127 126 127 128 128 128 127 127 127 128 128 127 127 126 127 127 128 127 127 127 126 126 126 127 128 129 128 128 128 128 128 127 126 126 126 127 127 127 127 127 127 127 126 125 126 127 128 127 128 128 128 128 128 127 127 127 127 127 127 128 128 127 127 126 127 127 127 127 127 127 127 128 128 128 127 127 127 126 126 127 127 127 126 127 128 129 129 129 128 127 127 126 126 126 127 128 128 128 128 128 128 127 127 127 127 127 127 126 126 127 127 127 126 126 127 127 127 128 128 128 127 127 127 127 127 128 128 128 127 127 127 127 127 127 127 127 127 128 128 127 127 127 127 127 127 127 127 127 127 126 126 126 125 126 126 125 126 127 127 127 127 127 127 127 127 127 126 126 126 125 125 125 126 138
110 127 128 128 131 132 131 129 127 127 128 129 128 126 126 127 127 126 126 127 128 128 127 127 126 126 126 127 128 128 128 127 126 126 126 127 127 127 127 127 127 127 127 127 127 127 127 127 127 128 128 128 127 127 127 127 128 128 127 127 127 127 126 126 127 127 127 127 127 128 129 127 126 127 127 127 127 127 127 127 128 128 127 127 127 128 128 127 127 127 127 127 127 127 126 126 127 127 127 127 127 128 128 128 128 128 128 127 127 127 126 126 127 127 128 127 127 127 126 125 126 127 128 127 128 128 128 128 128 128 127 127 127 127 127 127 127 127 127 127 127 127 127 127 127 127 127 128 128 128 128 127 126 125 126 127 127 127 127 127 128 130 130 128 127 127 127 126 126 126 127 128 128 128 128 129 128 127 127 126 127 127 127 126 126 127 127 127 127 127 127 127 127 127 128 128 127 127 127 127 127 128 128 127 127 127 127 127 127 127 127 127 127 127 127 127 127 127 128 128 128 128 127 127 127 126 126 126 125 125 126 126 127 127 127 127 127 127 127 127 127 127 126 126 127 125 124 124 126 139
110 128 128 129 131 131 129 129 129 127 127 128 128 127 127 126 126 126 126 127 128 128 128 127 126 125 126 127 128 129 128 127 125 125 127 127 127 127 127 127 127 127 127 127 127 127 127 127 127 127 128 128 127 127 127 128 128 127 127 127 127 126 126 127 127 127 128 128 127 128 128 127 127 128 128 128 127 127 127 127 128 128 127 127 127 127 127 127 127 127 127 127 127 127 125 126 128 128 128 127 127 127 128 128 128 127 127 127 127 127 126 126 127 127 128 127 127 127 126 126 126 127 128 128 128 128 128 128 127 128 127 127 127 127 127 127 127 127 127 127 127 128 128 127 127 127 127 128 128 128 128 127 126 125 126 126 127 127 127 128 129 130 129 128 127 128 127 126 125 126 127 127 128 128 128 128 128 127 127 126 127 127 127 127 126 127 127 127 127 128 128 127 127 127 128 128 127 127 127 127 128 128 127 127 127 127 127 127 127 127 127 127 127 127 126 127 127 128 128 128 128 128 127 127 127 126 126 126 124 124 125 126 127 127 127 127 127 127 127 127 127 127 126 126 127 125 124 124 125 139
111 127 129 130 130 129 129 130 129 128 127 127 128 128 127 126 125 125 127 127 128 128 128 127 125 125 127 127 128 129 127 125 125 126 128 128 127 127 128 128 127 127 127 127 127 127 127 128 127 127 128 128 127 127 128 128 128 127 127 127 127 126 125 127 127 126 128 129 128 128 127 126 127 128 128 127 127 126 127 127 128 128 127 127 127 126 127 127 128 128 127 127 127 127 126 125 127 128 128 128 127 127 128 128 128 127 127 127 127 127 126 126 127 128 128 127 127 127 126 127 126 127 127 127 128 128 128 128 127 128 127 127 127 127 127 127 127 127 127 127 127 128 128 128 127 127 127 127 127 127 128 128 126 125 125 126 127 127 127 128 129 129 129 127 128 128 127 126 125 126 127 127 128 127 127 127 128 127 127 126 127 128 128 127 127 127 127 127 127 128 128 128 127 127 127 127 127 127 127 127 128 128 128 127 127 127 127 127 127 127 127 127 127 127 126 127 127 128 128 128 128 128 127 127 127 127 126 126 125 124 125 126 127 127 127 127 127 128 128 127 127 127 126 126 126 125 124 124 125 139
111 126 129 131 129 128 129 130 129 129 128 127 128 128 127 126 125 125 127 128 128 128 127 126 124 125 128 127 127 127 125 124 126 127 129 129 128 127 128 127 126 126 127 127 127 127 128 128 128 127 128 127 126 127 128 128 128 128 128 127 127 126 125 126 127 127 128 129 128 127 127 126 127 128 128 127 126 126 127 127 128 128 127 127 127 127 127 128 128 128 127 127 127 127 126 125 125 127 128 128 127 127 128 127 128 128 127 127 127 127 127 127 127 128 128 128 128 127 127 127 127 127 127 127 127 128 127 127 127 128 127 127 127 126 127 127 127 127 127 127 127 128 128 128 127 127 128 127 126 127 127 128 127 125 125 126 127 127 127 128 129 129 128 127 128 128 127 126 126 126 127 127 128 127 126 126 127 127 127 127 127 128 128 128 127 126 127 127 127 127 128 128 127 127 127 127 127 127 127 128 127 128 128 128 127 126 127 128 127 127 127 127 127 127 127 127 128 128 127 127 128 128 127 127 127 126 126 126 126 125 125 126 126 126 126 126 127 128 128 127 127 127 126 126 126 125 125 125 126 138
111 126 129 131 129 127 129 130 130 129 128 127 127 127 127 127 126 126 127 128 128 128 127 125 125 126 128 127 127 126 124 125 129 129 128 128 127 126 126 127 126 126 127 127 127 127 128 128 128 128 128 127 127 127 128 128 128 128 128 128 127 126 126 126 127 127 128 128 128 127 126 127 127 128 127 126 126 126 127 127 128 127 125 126 128 128 128 128 128 127 127 127 127 127 127 126 126 127 128 128 128 128 128 127 127 128 128 127 127 127 127 127 127 127 128 128 128 127 127 127 126 126 127 127 127 128 127 127 128 128 127 127 127 126 127 127 127 127 128 127 127 128 128 128 128 127 127 127 127 126 127 128 128 126 125 126 126 127 128 129 128 128 127 127 128 128 127 127 126 126 127 128 128 126 125 126 126 127 127 127 127 128 129 128 127 126 126 127 127 127 127 128 127 127 127 128 128 128 128 128 127 127 128 128 127 127 127 128 128 127 127 127 126 127 127 127 127 127 127 127 128 128 127 127 126 126 125 126 126 126 127 127 127 126 126 127 127 128 128 127 126 126 126 125 124 125 127 126 126 137
111 127 129 131 130 126 128 130 130 129 128 127 127 127 127 127 127 126 126 127 128 128 126 125 126 127 127 126 126 126 125 127 129 127 127 127 127 126 126 128 127 127 128 129 128 127 127 127 128 128 127 126 127 128 128 128 129 129 129 128 127 127 126 126 126 127 128 127 128 127 127 127 127 127 127 126 126 127 127 127 127 126 125 126 128 128 128 128 128 128 128 127 126 126 127 126 127 127 127 128 128 128 128 127 127 128 128 128 127 127 127 127 127 127 128 128 127 127 127 126 126 127 127 127 128 128 127 128 128 127 127 126 127 127 126 127 127 127 127 127 127 128 129 129 128 127 127 127 127 127 127 127 128 127 126 125 126 127 128 128 128 127 127 128 128 128 127 126 126 127 127 128 128 126 125 125 126 127 127 127 127 128 129 127 126 126 126 127 127 127 127 127 127 127 127 128 128 128 128 128 127 127 127 127 127 127 127 128 128 128 127 127 127 126 127 127 127 127 128 128 128 127 126 126 126 126 125 125 126 127 127 128 127 126 126 127 128 129 128 127 126 126 125 124 124 125 127 127 126 136
111 128 129 131 129 126 127 130 129 129 128 127 126 126 127 127 127 127 126 127 127 128 126 125 127 128 127 124 125 129 128 126 126 125 126 127 129 128 127 128 129 128 128 129 128 127 126 126 127 127 125 124 125 128 128 128 130 130 129 128 128 127 127 126 126 127 128 127 127 127 127 127 127 126 126 127 127 127 126 126 126 126 126 127 128 128 127 127 127 128 129 127 127 127 127 127 127 127 127 127 127 128 128 127 126 127 128 128 127 127 127 127 127 127 128 128 127 127 127 126 126 127 127 128 128 127 128 128 128 127 126 127 127 127 126 126 127 127 127 127 128 128 128 129 128 127 127 127 128 127 127 127 127 126 126 126 126 127 128 128 127 127 128 128 128 128 127 126 126 127 127 128 127 126 125 125 126 127 127 127 127 127 127 127 126 126 127 128 128 127 127 127 127 127 127 128 128 128 128 128 127 127 127 127 127 127 128 129 128 128 127 127 127 127 127 127 127 127 128 128 128 127 126 126 126 126 126 125 126 127 127 128 127 127 127 127 128 128 128 127 127 126 125 124 124 125 127 128 126 135
112 129 131 130 128 126 127 129 129 128 128 127 127 127 127 127 128 127 126 126 127 127 126 126 128 128 125 123 126 129 126 124 125 127 127 127 130 130 128 129 129 128 128 128 127 126 126 126 126 126 124 123 125 129 129 128 130 130 128 128 129 128 127 126 127 127 127 127 127 127 128 127 127 126 126 128 128 126 125 126 126 126 126 127 127 127 127 127 127 128 128 127 127 128 129 128 127 127 127 127 127 128 127 127 125 126 129 130 128 127 127 127 127 127 127 127 127 127 127 127 127 127 127 127 128 127 128 128 127 126 126 127 127 127 127 127 127 127 127 127 127 128 128 128 128 128 128 128 127 127 127 127 127 126 126 126 127 127 127 127 127 127 128 129 128 127 127 126 126 127 127 128 127 126 126 126 127 126 126 127 127 127 127 126 127 127 127 128 128 128 127 127 127 127 128 128 128 127 127 127 127 128 127 127 126 127 128 128 128 128 127 127 127 128 128 127 127 127 127 128 128 127 126 126 126 126 126 126 126 126 127 127 128 128 128 128 128 128 128 127 127 126 125 125 125 125 126 128 126 134
112 129 131 129 127 126 127 128 128 128 128 128 127 127 127 128 128 127 126 126 126 126 126 127 128 126 124 125 128 128 125 125 127 127 127 129 130 130 129 129 128 128 127 127 125 125 126 126 127 127 125 124 126 129 129 127 129 129 127 128 129 128 127 127 127 128 127 127 127 127 128 127 126 126 126 128 129 126 125 127 127 126 126 126 127 128 127 127 128 128 127 127 128 129 129 128 127 127 127 127 127 127 127 127 125 126 129 130 128 127 127 127 128 128 127 127 127 127 127 127 127 127 127 127 127 127 128 128 127 126 126 127 127 127 127 127 127 127 126 127 127 127 128 128 128 128 129 128 127 127 127 127 127 126 126 127 127 127 127 127 127 127 128 128 128 128 127 127 126 126 127 128 127 127 127 126 126 126 126 127 127 127 127 127 127 127 128 128 128 128 127 128 128 128 128 128 127 126 126 126 128 128 128 127 126 126 127 128 129 128 127 127 127 128 128 128 127 127 127 127 127 127 127 126 126 126 126 126 126 125 126 127 128 128 128 128 128 128 127 127 127 126 126 125 125 126 126 127 126 135
114 129 130 128 127 127 128 128 128 128 128 127 127 127 127 128 128 127 126 125 126 126 126 128 127 124 123 126 129 129 127 126 126 125 126 131 132 129 129 128 127 127 125 125 125 125 126 127 128 128 127 127 128 128 128 127 128 128 128 127 128 128 127 126 127 128 127 126 126 128 128 127 126 126 126 128 129 126 126 128 128 126 125 125 127 128 128 128 128 127 127 128 129 129 129 127 127 126 127 127 127 127 127 127 127 127 129 129 128 127 127 127 127 127 127 127 126 126 127 127 128 128 127 127 127 127 127 128 127 127 127 127 127 127 127 127 127 127 126 126 127 127 128 128 128 128 129 128 127 126 127 128 127 126 126 127 127 127 127 127 127 127 128 128 128 128 127 127 126 126 127 127 128 127 127 126 126 126 126 126 127 127 127 127 127 127 127 128 128 128 127 127 128 128 128 127 127 126 126 127 128 128 128 127 126 126 127 128 129 129 128 127 127 128 128 127 127 127 127 127 127 127 127 126 126 126 127 127 126 125 125 126 128 128 128 127 127 128 127 127 127 126 126 126 126 126 126 127 126 135
115 129 129 127 126 127 128 129 129 128 127 127 126 125 126 128 128 127 126 126 126 126 128 128 125 123 124 127 130 130 128 126 123 124 128 132 132 129 127 127 126 125 125 125 127 128 128 128 128 128 128 127 128 128 127 127 127 128 128 127 127 128 127 127 127 127 127 126 126 128 128 128 127 127 126 126 128 127 127 128 128 126 125 125 126 127 128 128 128 127 127 128 129 129 128 127 126 126 126 128 128 127 127 128 128 128 128 128 128 128 128 127 127 127 127 127 127 126 127 127 128 127 127 126 126 127 127 128 127 127 127 127 127 127 127 127 127 127 127 127 127 127 127 128 128 128 128 128 127 127 128 128 127 126 126 127 127 127 127 127 127 127 127 128 128 127 126 126 126 126 127 127 128 128 127 126 126 127 127 127 127 127 127 127 127 127 127 128 128 128 128 127 127 127 127 127 127 127 127 127 128 128 128 126 125 126 127 128 129 129 128 128 127 127 127 127 127 127 127 127 127 127 127 126 126 126 127 128 127 126 126 126 128 128 127 127 127 127 127 127 126 127 127 127 126 126 126 126 126 135
116 129 129 127 126 127 128 129 129 128 128 127 126 125 126 129 128 126 126 126 126 127 128 127 124 124 125 127 131 130 127 125 123 125 130 131 130 128 126 125 124 123 125 127 131 131 128 126 126 128 129 127 127 127 128 128 127 128 128 127 127 127 128 128 127 127 127 127 126 127 128 128 128 127 125 126 128 128 128 128 127 126 126 126 126 126 128 128 127 127 127 128 129 128 127 127 127 126 126 127 128 127 128 128 128 128 128 128 127 128 128 127 127 127 127 127 127 127 127 127 127 127 126 126 126 127 127 127 127 127 127 127 127 127 127 127 127 127 127 127 127 127 127 127 128 128 128 127 127 128 128 128 127 126 127 127 128 128 127 127 127 127 127 127 128 127 126 126 126 126 127 127 128 128 127 126 126 127 128 127 127 127 127 127 126 127 127 128 128 129 128 127 127 126 127 127 127 127 127 128 128 128 127 126 126 126 127 128 128 129 128 128 128 128 128 127 127 127 127 128 128 127 127 126 126 126 126 127 127 127 126 127 127 128 127 127 127 126 127 127 126 127 127 127 127 126 126 126 125 135
116 129 128 127 127 128 128 127 128 128 128 127 127 125 127 128 128 126 126 126 126 127 127 125 124 126 126 127 131 129 126 124 125 128 131 130 128 125 123 124 123 124 127 131 133 130 126 123 124 129 129 127 126 128 130 128 126 126 127 127 127 127 127 129 129 128 128 127 127 127 128 128 127 127 125 126 128 128 128 127 127 126 126 127 127 127 127 128 128 127 127 128 128 128 127 127 127 127 127 127 127 128 128 128 128 128 128 127 127 128 128 127 127 127 127 127 127 127 127 127 127 126 126 127 127 127 127 127 127 127 127 127 127 127 127 127 127 127 128 127 127 127 127 127 128 128 128 127 127 128 128 128 127 127 127 128 128 127 127 127 127 127 127 127 127 127 127 126 126 126 127 127 128 128 127 126 127 127 128 127 127 127 127 126 126 127 127 128 128 128 128 127 127 126 127 127 127 127 127 128 128 127 126 126 126 127 127 128 128 128 127 127 128 128 128 127 127 127 128 128 128 127 126 126 126 126 126 126 127 127 127 127 127 127 127 127 127 126 126 127 127 127 127 127 127 126 126 126 125 135
117 129 127 127 127 128 127 127 127 127 127 128 127 127 128 128 127 126 126 125 126 127 126 125 126 127 126 127 129 129 126 125 127 130 130 127 126 123 120 122 127 130 131 131 131 128 126 124 125 127 127 127 128 130 129 126 125 126 128 127 127 126 127 131 131 129 127 127 128 128 128 128 126 126 126 126 127 127 127 128 128 127 127 128 128 127 127 127 128 127 127 127 128 128 127 127 127 127 127 127 127 128 128 128 128 128 128 127 127 127 127 127 127 127 127 127 126 127 127 127 126 126 127 127 127 127 127 127 127 127 127 127 127 127 127 127 127 127 128 127 127 127 127 127 128 128 128 127 127 128 128 128 127 127 128 128 128 127 127 127 127 127 127 127 127 127 127 126 126 127 127 127 128 128 127 127 127 127 127 127 127 127 126 126 127 127 127 127 128 128 128 127 127 126 126 127 127 127 127 127 127 127 127 126 127 127 127 128 128 128 128 128 128 128 127 127 127 127 128 128 128 127 126 126 126 126 127 127 127 127 126 126 126 127 127 127 127 126 126 127 127 127 127 127 127 126 126 125 125 135
118 128 127 126 127 128 127 127 127 127 126 128 129 128 128 127 127 127 126 124 126 127 125 125 127 126 126 127 128 127 126 126 129 129 127 125 124 121 117 123 135 138 132 130 128 127 126 125 124 124 126 128 129 129 126 125 127 130 128 124 125 128 130 132 131 128 126 127 128 129 127 124 122 124 125 123 124 127 128 130 131 130 129 131 131 129 128 128 128 127 127 127 127 127 127 127 127 127 127 128 128 128 128 128 128 128 127 127 127 127 127 127 127 127 126 126 126 127 127 126 127 127 127 127 127 127 127 127 127 127 127 127 127 127 127 127 127 128 128 127 127 127 127 127 127 128 128 127 127 127 127 127 127 127 128 128 128 127 127 127 127 127 127 127 127 127 127 126 126 127 127 128 128 128 127 127 127 127 126 127 127 126 126 126 127 127 127 127 128 128 129 128 127 126 126 127 127 127 127 127 127 127 127 127 127 127 127 128 128 128 128 128 128 128 127 127 128 128 128 127 127 127 127 126 126 126 127 128 127 126 126 126 126 126 127 127 128 127 126 127 127 127 127 127 127 127 126 125 125 135
118 128 127 126 126 127 127 127 127 127 127 128 129 128 128 128 127 126 124 124 127 127 125 125 128 126 126 127 127 126 125 127 128 127 125 124 122 118 121 131 140 139 131 128 127 126 125 123 123 124 128 128 127 127 126 128 132 130 124 122 127 132 133 130 128 126 126 127 127 125 120 116 119 124 123 121 124 129 131 131 133 133 131 133 134 131 131 131 129 128 127 127 127 127 127 127 127 127 127 128 128 128 128 128 128 127 127 127 127 127 127 127 127 127 126 126 126 127 127 126 126 127 127 127 127 127 127 127 128 128 127 127 127 127 127 128 128 128 127 127 127 127 127 127 127 127 127 127 127 127 127 127 127 127 128 128 128 127 127 127 127 127 127 127 127 127 127 126 127 127 127 128 128 128 128 127 127 126 126 126 127 127 126 127 127 127 127 127 128 128 129 128 127 126 126 127 127 127 127 127 127 128 128 128 127 126 126 127 128 128 128 128 128 128 126 126 127 128 128 128 127 126 126 126 126 127 127 128 128 127 126 127 126 126 126 127 128 128 127 127 127 126 126 126 127 127 126 126 126 135
119 127 127 126 126 126 127 127 128 128 127 128 127 127 128 128 128 126 124 125 127 127 125 126 128 125 125 127 126 124 125 127 127 126 125 121 118 122 133 138 138 134 129 127 126 124 123 123 125 126 128 128 127 126 128 132 131 123 120 126 133 135 131 127 126 125 126 126 122 118 113 113 120 125 124 122 125 129 131 132 133 133 132 134 134 132 134 134 132 131 129 128 128 128 127 127 127 127 127 128 127 128 128 128 128 127 127 126 127 127 128 127 126 127 127 127 127 127 127 126 126 127 126 127 127 127 127 128 128 128 127 127 127 127 127 128 128 127 127 127 127 127 128 127 127 127 127 127 127 127 127 127 127 127 128 128 128 127 127 127 127 127 127 128 128 127 126 127 127 127 127 128 128 128 127 127 127 127 126 126 127 127 127 127 127 127 127 127 128 128 128 127 127 127 127 127 128 128 127 127 127 128 128 127 126 126 126 128 128 128 128 128 128 127 126 125 126 128 129 128 127 126 126 126 127 127 128 128 128 127 127 127 127 126 126 126 127 128 127 127 127 127 126 126 126 126 126 126 127 135
120 127 126 126 126 126 127 127 128 129 128 127 126 126 127 128 128 126 125 126 127 126 126 127 127 125 125 127 125 123 125 127 127 126 123 119 121 132 139 137 132 129 127 126 125 123 123 125 127 126 126 129 128 126 130 132 124 117 123 134 137 132 127 124 124 127 126 118 113 115 117 118 122 126 126 125 126 128 130 131 132 133 132 133 133 131 133 134 135 134 130 130 131 129 128 127 127 127 127 128 128 128 128 128 128 128 127 126 127 127 128 127 126 127 127 127 127 126 127 127 127 127 126 127 127 127 128 128 127 127 127 126 127 127 127 128 128 127 127 127 127 128 128 127 127 127 127 127 127 127 127 127 127 127 128 128 127 127 127 127 127 127 127 128 128 127 126 127 127 127 127 127 127 127 127 127 127 128 127 127 127 127 127 127 127 127 127 127 127 128 128 127 127 127 127 127 128 128 127 127 128 128 128 127 126 126 126 127 127 128 128 128 128 127 125 125 126 127 129 129 128 127 126 126 127 127 128 128 127 127 127 128 127 126 126 126 127 127 127 127 127 127 127 127 126 126 126 126 127 135
120 125 125 126 126 127 127 127 128 129 128 127 126 126 127 127 127 126 126 126 126 126 128 128 127 126 125 125 124 124 127 129 126 125 124 123 128 135 135 131 128 127 126 125 123 122 126 129 128 127 127 127 126 129 132 127 118 121 132 138 134 126 123 123 125 128 118 108 112 119 122 123 124 126 127 126 126 127 129 130 131 131 133 134 132 131 131 132 134 134 131 130 133 133 131 128 128 128 128 128 128 128 127 127 127 128 127 127 127 127 127 127 127 127 127 127 127 127 127 127 127 127 126 127 127 127 128 128 127 127 127 127 127 127 127 127 128 128 127 127 127 128 128 127 126 127 127 127 127 127 127 127 127 127 127 128 127 127 127 127 127 127 128 128 128 127 126 126 127 127 127 127 127 126 127 127 128 128 128 127 127 127 126 126 127 127 127 127 127 128 128 127 127 127 127 127 128 128 128 127 128 128 128 127 126 126 126 127 127 128 128 128 128 126 125 126 127 127 128 129 128 127 126 126 127 127 127 127 126 127 127 128 128 127 126 127 127 127 127 126 126 127 128 128 127 126 126 126 127 135
119 125 125 126 126 127 128 128 128 128 128 127 127 127 127 127 127 126 127 126 125 127 128 127 126 125 125 124 124 126 130 129 125 125 129 128 128 131 130 128 127 125 124 123 121 125 132 132 129 128 126 122 126 132 130 120 120 130 136 134 129 121 120 126 129 122 108 108 119 123 123 125 125 126 126 126 127 128 129 129 129 131 132 133 132 130 130 130 132 133 130 129 132 134 133 130 130 130 128 129 129 128 127 127 127 128 127 127 126 126 127 127 127 127 127 127 127 127 127 127 127 127 127 127 127 127 128 127 127 127 127 127 127 127 127 127 128 128 128 127 127 128 128 128 126 127 127 127 127 127 127 127 127 127 127 127 127 127 127 127 127 128 127 128 128 127 126 126 127 127 127 127 127 127 126 127 128 128 128 127 127 126 126 127 127 127 127 127 127 127 127 127 127 127 127 127 127 127 128 127 128 128 128 127 126 126 126 127 127 128 128 128 127 126 125 126 127 128 128 128 128 127 126 126 127 127 126 126 126 127 128 128 128 127 127 127 127 127 126 126 126 127 128 128 128 126 126 126 126 135
119 126 125 125 126 127 128 128 127 127 127 128 128 127 127 127 127 127 127 126 125 127 128 128 126 125 123 123 125 128 130 127 124 129 132 128 128 129 129 128 125 122 121 121 125 132 135 131 128 126 121 123 131 133 124 118 127 136 133 129 125 117 119 131 127 111 107 116 123 125 124 125 126 126 126 126 127 128 129 129 129 130 132 132 131 129 129 130 131 132 130 128 130 133 133 132 132 131 129 132 132 129 128 128 128 128 128 127 126 126 127 127 127 127 127 127 127 127 127 127 127 127 127 127 127 127 127 127 127 127 127 127 127 126 127 127 128 128 128 127 127 128 128 127 127 127 127 127 127 127 127 127 127 127 127 127 128 127 127 127 127 128 127 128 127 127 127 126 127 127 127 127 127 127 126 127 128 128 128 127 127 126 127 127 127 126 126 128 128 127 127 127 128 128 127 127 127 127 127 127 128 128 128 128 126 126 126 127 128 128 128 127 127 126 126 127 128 128 128 128 128 127 126 127 127 126 126 126 127 127 127 127 128 127 127 127 127 127 126 125 126 126 128 128 128 127 126 125 126 135
120 126 125 125 126 127 128 128 127 126 127 129 129 127 127 127 127 127 126 126 126 128 128 128 126 124 122 123 125 128 129 123 124 133 133 126 127 129 128 127 123 119 118 124 133 137 133 129 125 121 120 129 134 130 123 122 131 133 129 127 122 117 123 131 118 105 114 121 123 126 125 125 126 126 126 127 127 127 128 128 128 129 130 131 132 130 129 129 130 131 129 127 129 132 132 132 132 129 129 132 133 130 130 129 130 129 129 128 127 126 126 127 127 127 127 127 127 127 127 127 127 127 127 127 127 127 127 127 127 127 127 127 126 126 127 127 127 128 127 127 127 127 127 127 127 127 127 127 127 127 127 127 127 127 127 127 128 127 127 127 127 128 127 128 127 127 127 126 127 127 127 128 128 127 127 127 127 127 128 127 127 127 127 127 126 125 125 128 129 127 127 127 128 128 128 127 127 127 127 127 128 128 128 128 127 126 126 127 128 127 127 127 127 127 127 127 128 128 127 128 127 126 126 127 128 127 126 127 127 127 126 127 128 127 127 127 127 127 126 126 126 126 127 128 128 127 126 125 126 134
120 126 126 125 126 127 127 128 127 126 128 129 128 127 126 127 127 127 126 126 126 128 129 128 126 124 123 124 126 128 126 122 129 135 131 125 127 129 127 125 120 117 122 132 138 134 130 127 120 118 127 135 132 127 126 126 129 130 127 126 120 121 128 126 110 107 120 122 122 125 126 126 126 126 126 127 127 128 128 127 128 128 128 129 132 132 130 129 129 129 128 127 129 131 130 131 131 127 127 129 130 131 131 130 132 132 133 132 128 128 127 127 127 127 127 127 127 127 127 127 127 127 127 127 127 127 127 127 128 128 127 127 126 126 127 127 127 127 127 127 127 127 127 127 127 128 127 127 127 126 127 127 127 127 127 128 127 127 127 127 127 127 127 128 128 127 127 126 127 127 127 128 128 127 127 126 126 127 127 127 127 127 127 127 126 125 125 127 129 128 128 127 128 128 127 127 127 127 127 128 128 128 128 128 127 126 126 127 127 127 127 127 127 127 127 127 127 127 128 128 126 125 126 127 129 128 127 127 127 126 126 127 128 127 126 127 127 128 126 126 126 126 127 127 128 128 126 125 126 134
120 126 126 126 127 127 127 127 127 126 128 129 128 127 126 127 128 128 127 126 126 127 129 128 125 124 124 125 126 127 122 123 134 135 128 125 127 129 125 122 119 120 130 137 135 131 128 124 117 122 134 134 128 127 128 127 128 129 126 123 120 125 130 118 106 113 123 123 122 125 127 127 126 125 126 127 127 128 128 127 127 127 127 129 132 132 131 129 128 128 127 128 129 131 130 130 129 126 126 126 126 129 129 129 132 134 138 136 132 131 129 127 127 127 127 127 127 127 127 127 127 127 127 127 128 128 127 127 128 128 127 126 126 126 127 128 127 127 127 127 128 127 127 127 127 127 127 127 127 126 127 127 127 128 127 127 127 126 127 127 127 127 127 128 128 127 126 126 127 127 127 128 127 127 127 126 127 127 127 127 127 128 127 127 126 126 125 126 127 129 129 128 128 128 127 127 127 127 127 128 128 128 128 128 127 127 127 127 127 127 127 127 128 128 127 127 127 127 128 127 125 125 126 128 129 128 127 127 127 126 126 127 127 126 126 127 127 128 127 127 127 127 127 127 128 128 127 126 126 134
119 126 126 127 127 127 127 127 127 126 127 129 128 127 126 127 128 128 127 126 126 127 128 127 125 124 125 125 126 125 122 127 135 132 126 125 128 129 123 122 124 126 131 133 131 129 126 120 120 131 135 129 126 128 128 127 128 129 126 121 120 128 129 114 106 117 124 124 124 126 127 126 124 124 126 127 127 128 128 128 127 127 127 128 131 132 131 129 127 127 128 129 130 131 131 130 127 126 126 125 125 127 128 129 130 132 136 137 135 135 133 129 128 127 128 127 127 127 127 127 127 126 127 127 128 128 127 128 128 128 127 126 126 126 127 128 127 127 127 127 128 127 127 127 127 127 127 127 127 127 127 128 128 128 127 126 126 126 127 127 127 127 128 128 128 127 126 126 126 127 127 128 127 127 127 127 127 128 127 127 127 127 127 127 127 126 126 125 127 129 129 128 127 127 127 127 127 127 127 128 128 128 128 127 127 127 127 128 127 127 127 127 128 128 127 127 127 127 127 126 126 126 127 128 128 128 127 127 127 126 127 127 127 126 126 126 127 128 128 128 127 127 126 127 127 127 127 126 126 134
118 127 127 127 127 127 128 128 127 125 127 129 128 127 126 127 128 128 127 127 126 127 127 126 124 125 126 125 125 125 126 131 132 129 125 125 129 126 121 126 130 128 129 129 129 127 123 120 127 134 130 126 126 128 127 127 128 129 126 120 121 129 127 112 109 119 124 125 126 127 127 124 122 124 126 127 127 127 127 127 127 127 127 127 129 131 131 128 126 127 128 130 130 131 132 130 127 126 126 126 126 126 127 128 129 130 132 136 137 136 134 132 131 129 129 128 127 126 127 127 127 126 126 127 127 128 128 128 128 127 127 126 126 126 127 128 127 127 127 127 128 128 127 127 127 127 127 127 127 128 128 128 127 127 126 126 126 126 127 127 127 127 127 128 128 127 127 126 126 126 127 128 127 127 127 127 128 128 127 126 126 127 127 127 127 127 127 126 127 128 128 127 127 127 128 128 127 127 128 128 127 128 127 127 127 127 128 128 127 127 127 128 128 128 127 126 126 127 127 127 126 126 126 127 127 128 128 128 127 127 126 127 127 126 126 126 128 128 128 128 128 127 126 127 127 127 126 126 126 134
118 127 128 127 126 126 129 129 127 127 127 128 128 127 126 127 127 127 127 127 127 127 127 126 124 125 126 125 124 126 130 131 129 127 124 126 128 124 123 131 131 127 128 129 128 126 121 123 132 132 127 126 127 128 127 127 128 129 126 120 123 130 123 111 111 121 125 125 126 127 126 123 121 124 127 128 127 127 127 127 126 126 127 127 128 130 130 129 127 127 128 130 131 131 131 129 128 127 127 127 126 126 127 127 128 129 131 134 136 135 134 133 133 132 130 128 127 127 127 127 126 126 126 126 127 127 128 128 127 127 127 126 126 126 127 127 127 127 128 128 128 127 127 127 127 127 127 127 128 128 128 127 126 126 126 127 127 127 127 127 127 127 127 128 128 127 127 127 126 126 127 127 127 127 127 127 128 128 127 126 126 127 127 127 127 127 127 127 127 127 127 126 126 127 128 128 128 128 128 127 127 127 127 127 127 127 127 127 127 127 127 128 128 129 127 126 126 127 128 128 127 126 126 126 127 128 128 128 128 127 126 126 126 126 126 127 127 128 128 128 128 127 126 126 127 127 126 126 126 134
119 127 128 127 125 126 128 128 128 128 127 127 127 127 126 127 127 127 127 127 127 127 127 126 125 125 126 125 125 128 131 130 128 126 124 126 126 123 127 132 129 127 127 129 128 125 123 126 131 129 126 126 128 128 127 126 128 129 126 120 125 131 119 109 113 122 127 126 126 126 126 123 123 125 128 128 127 127 127 127 124 124 127 127 128 129 130 130 128 127 127 129 130 130 130 129 128 128 128 128 127 127 126 126 127 129 131 133 134 134 132 133 135 133 129 129 129 127 127 127 127 126 126 126 127 127 128 128 127 127 127 127 127 127 127 127 127 127 128 128 127 127 127 126 127 127 127 127 128 128 127 126 126 126 127 127 127 127 127 127 127 127 127 128 128 128 128 127 126 127 127 127 127 127 127 127 128 127 127 126 126 127 127 127 127 127 127 127 127 127 127 126 126 127 127 128 128 128 128 127 127 127 127 127 127 127 127 127 127 127 127 128 128 129 128 126 126 127 128 129 127 125 125 126 127 128 128 128 128 127 126 126 126 126 127 127 127 128 129 128 127 127 127 127 127 127 126 125 126 134
120 127 127 126 126 126 127 128 128 128 127 127 127 127 127 126 127 127 127 127 128 128 128 126 125 125 126 125 125 129 129 128 128 126 125 126 125 124 130 131 127 127 127 129 128 125 125 127 129 128 126 126 128 128 126 126 128 129 125 120 128 132 117 108 114 123 127 127 126 126 126 125 124 125 127 127 127 127 128 127 124 123 125 126 127 127 128 129 129 128 127 128 130 130 130 129 129 128 128 128 127 127 127 126 128 130 131 132 133 133 131 132 135 132 128 130 130 128 129 129 127 127 126 126 127 127 127 127 127 127 127 127 127 127 127 127 127 127 128 128 127 127 127 126 127 127 127 127 128 128 127 126 126 126 127 127 127 127 127 127 126 127 127 128 128 128 128 127 127 127 127 127 127 127 126 127 127 127 127 127 127 127 127 127 127 127 127 127 127 127 127 127 126 126 127 128 128 128 128 128 127 127 127 127 127 126 127 127 127 127 127 128 128 128 128 127 126 126 128 129 127 125 125 126 127 128 128 128 128 127 126 126 126 127 127 127 127 128 129 128 127 127 127 127 128 127 126 125 126 134
120 126 126 126 126 126 126 127 128 128 127 127 127 128 127 126 127 127 128 128 128 128 128 127 126 126 125 125 126 128 128 127 127 126 125 126 125 127 131 129 126 126 128 129 128 126 126 127 128 127 125 127 129 129 126 125 127 129 125 121 128 131 116 108 116 124 127 127 126 126 127 127 126 125 126 127 127 128 127 127 125 123 124 125 125 125 126 128 129 129 127 128 130 130 129 129 129 128 128 128 128 128 127 127 128 129 131 131 132 132 130 131 134 132 128 129 128 126 129 132 131 129 127 127 128 127 127 127 127 127 127 127 127 127 127 127 127 127 127 127 127 127 127 127 127 127 127 127 127 128 128 127 126 126 127 127 127 127 127 127 127 127 127 128 128 128 127 127 127 127 127 127 127 127 126 126 127 127 127 127 127 128 127 127 127 127 127 127 127 127 127 127 126 126 127 128 128 128 128 128 127 127 127 127 127 127 127 127 127 127 127 128 128 128 127 127 127 127 128 129 128 126 126 126 127 127 127 127 127 126 126 126 126 127 127 127 127 128 128 128 127 127 127 127 128 127 126 125 126 134
120 127 126 126 126 126 127 128 127 127 127 127 127 128 127 127 127 127 127 128 128 128 128 127 127 126 125 125 127 128 127 127 126 126 126 126 126 128 130 128 126 126 128 128 127 126 127 127 128 125 124 129 131 129 126 125 127 129 126 123 127 129 116 109 118 125 127 126 126 127 127 127 126 126 126 127 128 128 127 127 126 124 123 125 124 124 126 128 129 129 127 128 129 129 128 129 129 129 128 127 128 128 128 128 128 129 130 130 130 130 128 130 133 132 129 130 127 124 127 131 135 133 129 128 129 128 128 127 127 127 127 127 127 126 127 127 127 127 127 127 127 127 127 127 127 126 127 127 127 127 128 127 127 126 127 127 127 127 127 127 127 127 127 127 128 127 127 127 127 127 127 127 127 127 126 126 127 128 128 127 127 128 128 127 126 126 127 127 127 127 127 127 127 127 127 127 128 128 128 128 128 127 127 127 127 127 127 127 127 127 127 128 128 128 127 127 127 128 128 128 128 128 127 127 127 127 127 126 126 126 126 126 127 127 127 127 127 127 127 127 127 127 127 127 127 128 126 125 126 134
120 127 126 126 126 127 127 127 127 126 126 126 127 128 128 127 127 127 127 127 128 128 127 127 127 127 126 126 127 128 127 126 126 125 125 126 127 129 130 128 126 126 128 128 126 126 127 127 127 125 125 129 131 129 126 125 126 129 127 124 127 128 116 111 120 126 125 125 126 127 128 127 126 125 126 128 128 128 127 127 127 124 123 125 125 123 126 129 129 128 127 127 128 128 127 129 130 129 128 127 127 128 128 128 128 128 129 128 128 128 127 129 132 131 128 130 130 127 126 127 132 134 131 132 132 130 129 128 128 127 127 127 126 125 126 127 128 127 127 127 127 127 127 127 127 126 127 127 127 127 127 127 127 127 127 127 127 127 127 127 127 127 127 127 127 127 127 127 127 127 127 128 127 127 126 127 127 128 128 127 127 128 127 127 126 126 127 127 127 127 127 127 127 127 127 127 128 128 128 128 128 127 126 126 126 126 127 127 128 127 127 127 127 127 127 127 127 127 127 128 128 128 128 127 127 126 126 125 126 127 127 127 127 127 127 127 128 127 127 127 127 128 127 127 127 128 127 125 126 134
120 127 127 127 126 126 128 127 127 126 126 126 126 128 129 128 128 127 126 127 127 127 127 126 127 128 127 127 128 128 126 126 127 126 124 125 128 130 129 128 126 126 128 127 126 127 127 127 127 126 126 128 130 129 126 126 127 129 127 124 127 128 117 112 121 126 124 123 125 128 129 128 126 124 126 128 128 126 127 128 127 124 123 125 125 124 126 129 128 127 127 127 127 127 127 128 129 129 128 128 128 127 127 128 128 127 128 128 127 126 127 128 130 128 126 129 130 132 132 128 127 129 130 134 135 133 132 130 129 128 127 127 126 125 126 127 128 128 127 126 127 127 127 127 126 126 127 127 127 127 127 127 127 127 127 127 127 127 127 127 127 127 128 127 127 126 127 127 127 127 128 128 127 127 127 127 127 128 127 127 127 127 127 127 126 126 127 127 127 127 127 127 127 127 127 127 127 128 128 128 128 127 126 126 126 126 126 127 128 128 128 127 127 127 127 127 127 127 127 128 128 128 128 127 127 127 126 125 126 127 128 128 128 126 126 127 128 127 126 126 127 127 127 127 127 128 127 125 125 133
120 127 127 126 125 126 127 128 128 128 126 126 126 127 128 128 129 128 127 126 126 127 127 127 128 128 128 127 127 127 125 126 127 126 125 125 128 130 128 127 126 126 127 127 126 128 128 126 126 127 128 128 128 128 126 126 126 129 127 125 127 128 119 115 121 125 124 123 125 129 130 128 125 125 127 128 125 124 127 128 126 124 125 125 126 125 126 128 127 127 127 126 126 127 127 127 129 129 128 129 128 127 127 128 127 127 128 129 128 126 127 127 127 125 125 128 129 132 136 133 129 125 126 131 133 136 137 132 130 129 129 128 127 125 126 127 128 128 127 126 127 127 127 127 126 126 127 127 127 127 127 127 127 127 127 127 127 127 127 127 127 128 128 127 127 126 127 127 127 127 127 128 127 127 127 127 127 128 127 127 127 127 127 127 127 126 127 127 127 127 127 127 127 127 128 127 127 128 128 128 128 128 127 126 125 126 126 127 127 128 128 127 127 127 127 127 127 127 128 129 128 128 127 127 127 127 126 125 125 127 127 128 128 126 126 127 128 128 127 126 127 127 127 126 127 128 127 125 125 133
120 127 127 126 125 126 127 128 128 128 127 126 126 126 127 128 129 128 127 126 126 127 128 127 128 128 128 127 126 126 127 127 127 127 126 126 127 129 129 127 126 126 127 127 126 128 128 126 125 127 129 128 127 127 127 126 126 128 128 125 127 128 122 118 121 124 124 124 125 129 129 127 126 128 129 126 123 122 126 128 125 124 126 126 126 126 126 127 126 126 127 126 126 127 127 127 128 129 129 129 127 127 128 128 127 126 127 129 128 126 126 126 125 124 125 128 128 130 133 133 132 129 128 128 128 134 137 133 131 131 129 128 128 127 127 128 128 128 127 127 127 128 127 127 127 126 127 127 127 127 127 127 127 127 127 127 127 127 127 127 128 128 128 128 127 126 127 127 127 127 127 127 127 127 127 127 128 128 127 127 127 127 127 127 127 126 126 127 127 127 127 127 127 127 128 128 128 128 128 128 128 128 127 126 126 126 126 127 127 127 127 127 127 127 127 127 127 128 129 130 128 127 126 127 128 127 126 126 125 126 127 128 128 127 126 127 128 128 127 126 126 127 127 127 127 128 127 125 125 133
120 127 127 126 126 126 127 128 128 127 126 127 126 126 127 128 128 126 126 127 127 128 128 127 127 128 127 127 126 126 128 128 127 127 126 126 127 129 129 127 125 125 126 127 127 128 129 127 126 127 128 128 127 127 127 126 126 128 128 126 127 127 124 122 123 123 124 125 126 129 129 127 127 128 128 124 122 123 125 127 125 123 125 125 124 127 127 127 126 126 127 127 127 127 127 126 127 129 129 127 126 127 128 129 128 126 126 128 128 127 126 125 124 125 127 128 128 129 129 129 130 131 133 132 130 132 132 132 131 130 129 130 128 129 129 128 129 128 127 127 127 127 127 127 127 127 127 127 127 127 127 126 126 127 127 127 127 127 127 127 128 127 127 127 127 126 126 126 126 127 127 128 128 127 127 127 128 128 128 127 127 127 128 128 127 127 127 127 127 127 127 127 127 127 128 128 128 128 128 128 128 128 127 126 126 126 127 127 127 127 127 127 127 127 127 126 127 128 129 130 129 127 127 127 128 127 127 126 126 126 126 127 128 127 127 127 128 128 127 126 126 126 127 127 128 128 127 125 125 133
120 127 126 126 126 127 128 128 127 126 126 127 127 128 128 128 127 125 126 127 128 128 128 127 127 127 126 127 127 127 128 128 128 127 126 126 126 128 129 127 125 125 126 127 127 128 129 128 127 127 128 127 126 127 127 126 126 127 127 127 128 128 125 124 123 123 125 126 127 129 129 127 127 127 126 124 124 124 124 126 125 123 124 124 123 127 128 127 125 125 127 127 128 127 127 125 126 128 127 127 126 127 128 129 128 126 126 127 127 128 128 126 125 126 128 127 127 126 125 125 127 129 133 137 137 135 132 130 130 128 129 131 129 129 130 129 129 128 127 127 127 127 127 127 127 127 127 128 127 127 127 126 126 127 127 127 127 127 127 126 126 125 125 126 126 125 125 125 126 126 127 130 131 128 128 129 128 129 128 127 127 127 127 127 128 128 127 127 127 127 127 127 127 127 127 128 128 128 128 127 128 128 126 126 126 126 127 128 127 127 127 127 127 127 126 126 127 128 128 129 129 129 127 128 128 127 127 127 126 126 127 127 127 126 127 127 128 128 127 125 125 126 127 127 128 129 128 125 125 133
120 127 126 126 126 127 128 128 127 126 126 127 127 128 128 127 126 126 127 127 127 129 129 127 125 126 127 127 128 127 127 128 128 127 127 127 127 128 128 127 126 126 126 126 127 129 129 128 127 127 127 125 125 128 128 127 126 126 126 127 129 128 126 125 123 123 125 126 127 129 130 128 126 125 126 125 124 123 124 126 125 123 123 124 123 126 128 127 125 125 127 127 127 127 126 126 127 127 126 127 127 127 127 127 128 127 126 127 127 128 129 127 126 127 128 127 126 125 123 123 125 127 130 134 137 139 138 135 131 127 127 130 129 129 130 129 129 128 126 127 127 127 127 127 126 126 127 128 127 127 127 127 127 127 127 127 127 127 126 124 124 124 124 127 126 126 127 125 125 126 127 130 130 128 128 128 127 130 130 128 127 128 127 126 128 128 127 127 128 128 128 127 127 127 127 128 128 127 127 127 127 128 127 126 126 126 127 128 128 128 128 128 127 127 126 126 127 127 128 128 130 129 127 128 127 126 127 127 127 127 127 127 126 126 127 128 128 128 126 125 125 126 127 127 128 129 128 125 125 132
120 127 126 126 125 126 128 129 127 127 127 127 127 127 126 126 127 127 127 127 127 129 129 126 125 125 127 128 128 127 127 127 127 127 128 128 127 127 127 127 126 126 127 127 127 129 128 128 128 127 126 125 125 128 128 128 127 126 125 126 129 129 126 125 124 123 124 126 127 129 129 128 126 126 126 126 124 123 124 126 124 122 124 124 123 125 127 127 126 126 127 127 127 126 126 125 127 127 126 128 128 127 126 127 127 126 126 127 127 129 130 129 129 128 127 126 125 123 122 123 125 127 128 130 133 136 139 142 139 131 127 129 129 129 129 129 128 128 126 126 127 127 126 125 125 124 125 127 126 126 128 129 128 128 129 128 127 127 126 124 124 124 124 126 126 128 128 126 126 128 129 129 129 127 126 126 126 128 129 128 128 129 129 127 127 127 127 127 129 129 128 128 127 127 127 127 128 127 127 126 127 127 127 127 126 126 127 128 128 128 128 128 128 127 126 126 126 127 127 128 129 129 127 128 128 127 127 127 127 126 127 127 127 127 127 127 128 128 127 126 126 126 127 127 127 129 129 126 125 132
120 127 126 126 125 126 128 129 128 127 127 127 127 126 125 126 128 128 127 127 127 129 129 127 125 126 127 127 128 126 126 127 127 127 128 128 127 127 126 127 127 127 127 127 128 128 127 127 127 127 126 124 125 128 129 129 128 126 125 126 129 129 127 125 125 124 124 125 127 128 129 128 127 127 127 126 124 123 124 126 123 122 125 125 124 124 126 126 127 127 126 126 127 127 126 126 127 127 127 127 128 127 127 127 125 125 126 127 127 129 131 130 130 129 127 125 123 121 121 122 124 125 126 128 130 132 135 141 145 138 130 128 129 129 128 128 128 128 127 127 127 126 124 122 122 124 126 127 125 126 128 128 127 129 131 130 129 129 128 126 126 125 125 125 125 127 126 125 127 129 131 129 128 127 126 126 126 126 126 126 126 129 130 128 128 127 127 127 130 130 129 128 128 128 127 127 127 127 126 126 126 127 127 127 127 127 127 128 128 128 128 128 128 128 127 126 126 126 127 128 129 128 127 128 128 127 127 127 126 126 126 127 127 127 127 127 127 127 127 127 126 126 126 126 127 129 129 127 125 132
120 127 127 126 126 126 127 128 128 128 128 127 127 126 126 126 127 127 127 127 128 129 129 127 126 126 126 127 127 126 126 127 128 128 128 128 127 126 126 127 128 129 128 127 127 127 127 126 126 128 128 125 125 127 129 129 128 126 125 126 129 129 128 126 125 125 125 125 127 128 128 128 127 127 126 124 123 123 124 126 123 122 124 126 126 125 126 127 126 126 125 125 127 127 127 127 126 127 128 128 127 128 128 127 125 125 127 127 126 128 131 131 131 132 128 126 123 119 118 121 123 124 125 126 128 130 132 136 143 143 137 131 128 127 127 128 127 126 126 129 129 127 126 121 119 122 128 130 128 127 128 127 125 126 129 132 132 129 130 129 127 126 126 126 126 126 124 125 125 128 131 131 129 128 127 127 127 126 126 126 125 127 129 128 128 128 127 128 130 130 129 128 128 129 128 127 127 126 126 126 126 127 127 126 126 126 128 128 128 128 128 128 128 128 128 127 127 126 127 128 128 128 128 128 128 127 127 127 127 126 126 126 127 127 127 127 127 127 127 127 127 126 126 126 127 129 130 127 124 132
120 127 127 126 126 126 127 128 127 128 128 127 127 127 127 126 127 127 127 127 128 129 129 128 126 126 126 126 127 126 126 127 128 128 128 127 126 126 127 127 128 129 127 126 126 126 127 126 126 129 129 126 126 127 129 129 128 126 125 126 128 129 128 127 126 126 126 126 127 128 127 127 127 127 126 123 122 123 124 125 124 123 124 126 126 126 127 127 126 125 124 126 127 126 127 127 127 127 128 129 128 128 128 127 125 126 128 126 126 128 132 132 133 134 129 127 124 120 116 118 122 123 123 125 127 129 131 133 136 141 142 136 128 126 125 127 127 125 125 127 128 131 131 126 119 119 125 130 132 129 128 127 127 126 125 127 128 128 132 132 129 128 127 127 127 126 125 125 124 124 128 131 131 129 128 128 128 127 127 127 126 126 127 127 126 127 127 128 129 130 130 128 128 129 129 128 127 127 126 126 126 126 126 126 125 126 128 129 128 127 127 128 128 128 128 127 127 127 127 127 127 127 128 128 127 126 127 127 127 127 127 127 127 127 127 127 127 127 127 127 127 127 126 126 127 129 130 127 124 131
120 127 127 127 127 127 127 126 127 128 128 127 127 127 127 126 127 127 127 127 128 128 128 128 127 126 126 126 127 127 126 127 127 128 128 127 125 126 128 128 128 128 126 126 126 127 127 127 127 128 129 127 126 127 129 129 127 126 125 127 128 128 128 127 127 126 126 126 126 127 127 127 128 127 126 124 122 121 123 125 125 125 124 126 126 126 126 127 127 124 125 127 126 125 125 127 127 127 129 131 129 128 126 125 125 127 128 126 126 129 133 133 134 134 130 128 127 122 116 117 120 121 122 123 125 128 130 131 132 135 141 140 133 129 125 125 128 127 126 124 125 129 133 129 121 121 124 127 130 131 129 127 130 130 127 124 122 124 130 132 130 130 130 128 127 127 126 126 125 123 125 128 129 131 130 129 128 127 127 127 127 127 127 127 126 126 127 128 128 129 129 128 128 129 129 129 128 127 127 126 126 126 126 126 125 126 128 129 128 127 127 127 128 128 128 127 127 128 127 127 126 127 127 127 127 127 127 127 127 127 127 127 127 127 127 127 128 128 128 127 127 127 126 126 128 128 129 127 124 132
121 127 127 127 127 127 126 125 126 128 129 128 127 127 126 126 127 127 128 128 128 128 128 127 127 126 126 126 127 127 127 127 127 128 128 127 125 126 128 128 128 126 126 126 127 127 127 127 127 128 128 128 126 128 129 128 127 125 126 127 128 128 127 127 127 127 127 127 126 127 127 126 127 126 124 125 124 122 123 124 126 126 125 124 125 126 126 127 126 124 127 128 126 125 125 127 128 127 129 132 130 127 126 124 124 127 127 126 128 131 133 133 134 133 131 131 129 124 121 120 119 119 120 120 123 126 128 130 130 131 135 138 137 134 128 125 128 129 127 125 124 126 129 125 121 125 127 125 126 130 131 129 129 130 130 129 123 121 126 128 128 129 131 130 128 128 127 126 126 125 126 125 126 128 129 130 129 128 127 127 127 127 128 128 127 127 127 127 127 127 128 128 129 129 129 129 128 128 128 127 126 126 126 126 125 126 127 127 127 127 127 127 128 128 128 127 127 128 128 127 127 126 126 127 127 127 127 127 127 127 127 127 127 127 127 127 128 128 128 127 126 126 127 127 128 128 128 126 125 132
121 127 127 127 127 127 126 125 126 128 129 128 127 126 126 126 127 127 128 128 128 128 127 127 127 127 127 127 127 127 127 127 127 128 128 127 125 126 128 128 127 127 126 126 127 127 127 127 128 127 127 128 128 128 129 128 126 125 125 128 128 128 127 126 127 128 128 127 126 126 126 125 125 123 123 126 127 126 124 124 125 126 125 124 125 126 126 125 125 125 127 127 125 126 125 126 128 127 129 131 129 127 128 125 123 126 126 125 128 130 131 132 133 133 134 133 130 127 125 124 121 119 118 118 120 124 127 128 128 129 130 134 137 136 133 128 128 128 126 126 127 128 129 124 121 125 126 124 125 128 132 132 128 126 128 132 130 124 124 125 126 128 129 129 128 129 128 127 126 126 127 126 126 125 126 130 131 129 128 127 127 127 128 129 128 128 128 127 126 126 128 128 129 129 129 128 128 128 128 128 127 126 126 126 126 126 126 127 127 127 128 127 128 128 128 127 127 128 128 129 128 126 126 126 127 127 127 127 127 127 127 127 127 127 127 127 128 128 128 127 126 127 127 128 128 128 127 126 125 132
121 127 127 127 127 127 127 126 126 127 128 128 127 126 126 127 127 127 127 128 128 128 127 127 127 127 127 127 127 127 127 127 127 127 128 127 125 126 127 127 127 128 127 126 127 127 127 127 128 127 127 128 128 128 129 128 126 125 125 128 128 127 127 126 127 128 128 127 125 124 124 122 123 125 125 127 130 130 127 125 124 123 125 126 126 126 126 125 125 126 126 127 126 127 126 126 128 127 127 128 127 128 129 127 124 125 125 125 126 128 129 130 133 133 134 135 133 130 128 127 125 122 120 118 117 122 126 125 126 128 129 132 134 135 134 131 129 126 125 126 128 130 130 127 125 125 123 123 125 126 129 132 129 126 126 130 131 127 126 124 126 128 129 129 128 128 128 126 126 126 128 127 125 125 126 128 130 130 128 128 127 127 127 128 128 129 128 127 126 126 128 128 129 130 129 128 128 128 128 128 127 126 126 125 126 126 126 127 127 127 127 127 127 128 128 127 127 128 128 129 128 126 126 126 127 127 127 126 126 127 127 127 127 127 127 127 128 128 128 127 127 127 127 128 128 128 127 126 125 131
121 127 127 127 127 128 127 127 127 126 127 127 127 127 127 127 127 127 127 128 128 128 128 127 127 127 127 127 127 127 127 126 126 127 127 126 126 126 127 127 128 128 127 127 127 127 126 127 128 127 127 127 128 128 129 128 127 126 126 126 127 128 128 127 126 126 125 124 123 123 124 122 124 127 128 129 131 131 129 127 123 121 125 128 128 126 125 126 126 125 125 127 127 127 127 127 127 126 126 127 126 128 129 128 126 126 125 124 125 126 127 128 130 131 131 136 138 134 130 128 127 125 124 121 118 121 123 123 124 125 128 132 132 133 132 131 131 128 126 126 127 129 130 129 128 127 126 125 125 124 125 129 129 128 128 128 128 127 128 125 125 128 130 130 128 127 126 125 123 125 129 129 125 124 126 127 129 130 130 129 128 127 127 127 127 128 128 127 127 128 128 127 129 129 129 128 128 128 128 129 128 127 125 125 126 126 127 127 127 127 127 127 127 127 128 127 127 128 128 129 128 127 127 127 127 127 126 126 126 126 127 127 127 127 128 128 128 128 128 128 127 127 127 127 127 127 128 127 125 132
120 127 127 127 127 128 128 128 127 127 127 127 126 127 127 127 127 127 126 127 128 128 128 127 127 127 127 127 127 127 126 126 126 128 128 127 126 126 127 128 128 127 127 127 127 127 127 127 128 128 127 126 127 128 128 128 127 127 126 126 127 127 127 125 124 122 121 123 124 125 126 123 124 128 129 131 133 132 131 128 124 122 125 128 128 126 125 127 127 124 124 126 127 127 127 128 128 127 126 126 125 127 129 129 129 128 125 124 123 124 125 125 127 127 128 134 138 138 137 132 128 127 126 125 121 122 121 121 124 124 127 130 131 131 130 130 132 130 128 126 125 127 129 129 129 128 128 128 127 125 124 125 126 128 130 129 127 126 127 127 125 126 130 131 129 127 126 125 124 124 127 128 126 124 125 127 127 130 131 130 129 128 127 127 126 126 127 127 128 129 128 127 128 129 128 128 127 128 128 129 129 127 125 125 126 126 127 127 127 127 127 127 127 127 128 127 127 128 128 129 128 127 127 127 128 127 126 126 126 126 127 126 127 127 128 128 128 128 128 128 127 127 127 126 127 127 127 127 126 132
120 127 127 127 127 127 128 128 127 127 127 127 126 127 127 127 127 127 126 127 128 128 127 127 127 127 127 126 127 127 127 126 127 128 128 127 126 126 127 127 128 127 127 127 127 127 127 127 128 128 127 126 126 127 128 128 127 127 126 126 126 124 121 121 123 122 122 125 127 128 126 123 123 126 129 133 133 133 134 130 126 124 125 126 126 126 126 128 128 125 124 126 126 126 126 129 129 127 125 125 126 127 129 130 130 131 128 124 123 123 121 122 124 125 126 129 133 137 142 138 131 129 128 126 125 124 122 121 124 124 126 128 128 128 128 129 130 130 129 128 125 125 127 130 130 128 128 129 128 126 125 124 124 126 130 129 128 126 126 127 126 126 128 130 130 127 126 127 126 126 126 126 125 125 125 126 127 129 131 129 129 129 128 128 126 126 127 127 128 129 128 128 128 128 128 128 127 128 128 129 129 127 125 125 126 126 127 127 127 127 127 127 127 127 128 127 127 127 128 128 128 127 127 127 128 128 126 126 125 126 126 126 127 128 128 127 128 128 128 128 127 127 127 126 127 127 127 127 126 133
119 127 127 127 128 128 127 127 128 128 128 127 127 126 126 127 127 127 126 127 128 128 128 127 126 126 126 126 127 127 127 127 127 128 128 126 125 126 127 127 128 127 127 127 127 128 127 127 127 128 128 127 127 127 128 128 127 127 125 123 124 120 116 120 126 128 128 128 127 126 122 121 124 126 128 133 134 134 136 133 128 126 125 124 125 126 126 128 128 126 125 126 125 125 126 129 129 126 123 124 127 129 130 130 132 132 129 126 124 122 118 119 122 123 124 127 129 134 139 140 137 133 130 128 126 125 124 123 124 123 124 126 126 127 128 128 128 128 129 130 128 124 126 130 132 128 127 129 129 128 126 125 124 126 128 128 128 128 126 126 126 127 127 128 130 129 127 127 127 128 127 126 125 125 124 125 126 129 130 128 128 130 129 128 127 127 127 128 128 128 127 128 127 127 128 128 127 128 128 129 129 128 126 125 125 126 127 127 127 127 127 127 127 128 127 127 127 127 127 128 127 127 127 127 128 128 128 127 125 126 126 127 127 127 127 127 128 128 128 127 126 126 127 127 127 128 128 127 125 132
119 127 126 126 128 128 126 126 128 129 128 127 127 126 126 126 126 127 127 127 129 129 128 126 126 126 126 127 127 127 127 128 128 128 128 126 126 127 127 128 128 127 126 126 127 128 127 127 126 127 127 127 127 128 127 127 126 123 120 120 123 121 119 124 130 130 130 129 126 123 119 120 124 127 128 133 135 134 136 135 131 128 125 123 125 127 127 127 127 127 127 126 126 126 126 128 128 125 122 124 127 129 130 131 133 134 131 127 125 122 117 117 121 122 123 125 128 131 133 136 139 139 134 130 128 126 126 125 124 123 123 125 125 126 128 127 126 126 129 130 129 127 127 128 130 129 128 128 129 129 128 126 124 125 126 128 128 128 128 126 126 126 126 127 128 129 129 128 127 127 128 128 126 126 125 124 125 127 128 128 128 130 130 128 128 128 128 128 127 127 127 127 126 126 128 129 128 128 128 128 129 128 127 125 125 126 127 127 127 127 127 127 127 127 127 127 127 127 127 127 127 128 127 127 128 128 128 127 126 126 126 127 127 127 127 127 128 128 128 127 126 126 127 127 128 129 129 127 124 132
119 127 126 127 129 128 126 126 128 128 128 128 127 126 126 125 126 127 127 128 129 129 128 127 126 125 126 127 127 127 127 127 128 128 127 126 127 128 128 128 127 127 126 126 128 128 127 126 126 126 127 127 127 128 127 126 123 117 117 121 125 124 125 129 131 130 129 129 124 119 117 121 125 128 130 133 134 133 134 135 133 130 126 123 125 127 127 126 125 126 127 127 126 126 126 127 126 123 122 124 126 127 128 130 133 136 135 131 127 123 118 118 120 121 122 123 126 129 130 131 136 140 138 135 131 128 127 126 125 125 124 125 124 124 126 127 125 125 128 129 128 131 130 127 127 128 129 128 127 129 129 127 126 124 125 127 127 127 128 128 127 126 126 126 127 128 130 129 127 126 127 128 128 127 126 125 125 125 126 126 128 130 130 129 129 129 128 128 127 126 126 127 126 126 128 129 129 128 128 128 129 128 127 125 125 126 127 127 127 127 127 127 127 127 127 127 127 127 127 127 128 128 128 127 127 128 127 127 126 126 127 127 128 127 127 127 128 128 127 127 126 126 127 127 128 129 129 127 124 132
119 127 127 127 128 128 127 127 127 127 128 128 127 127 126 125 126 127 127 128 129 129 128 127 126 125 126 127 127 127 127 126 127 128 128 128 127 128 128 127 127 127 126 127 128 128 128 126 125 126 127 126 127 128 126 123 117 115 120 125 127 128 130 132 130 129 129 128 122 114 116 123 126 128 131 133 133 133 133 134 133 132 129 125 125 126 126 126 125 125 126 127 127 126 126 127 126 123 121 123 125 126 127 128 131 135 138 136 131 125 121 119 121 120 120 122 123 126 128 129 131 135 138 139 136 130 127 126 127 127 126 126 125 123 125 127 125 124 126 127 128 131 131 128 126 126 129 129 128 128 129 128 127 125 124 126 126 127 128 128 129 127 125 126 126 127 130 130 128 127 127 127 128 128 128 127 125 125 125 124 126 128 129 130 130 130 129 128 127 126 126 126 126 126 127 129 129 128 128 129 129 128 127 125 125 126 127 127 127 127 127 127 127 127 127 127 127 127 127 127 128 128 128 127 127 127 127 127 127 127 127 128 127 127 127 127 127 127 127 127 127 127 126 127 128 129 129 127 125 131
119 127 128 128 127 127 127 127 127 127 128 127 127 127 126 126 126 126 127 127 128 129 128 127 126 126 126 127 127 127 126 126 127 128 128 128 128 127 127 127 127 127 126 126 127 128 128 126 125 127 128 127 127 127 123 118 116 119 125 128 129 130 131 131 130 130 129 125 117 111 118 125 127 128 130 131 131 132 133 132 133 133 133 130 126 125 125 126 126 125 125 127 128 126 125 125 126 124 121 121 124 125 126 127 128 131 135 139 137 130 126 123 122 120 120 120 120 123 126 127 128 130 134 139 140 135 130 127 127 127 127 127 126 124 124 126 125 124 125 126 128 130 131 130 128 126 127 129 129 128 128 128 128 126 125 124 125 126 127 128 130 129 125 125 126 127 129 129 129 128 127 126 127 128 129 128 127 126 124 124 125 127 129 130 130 130 129 128 127 126 126 127 127 127 127 128 128 128 128 129 128 128 127 126 125 126 126 126 127 127 127 128 128 127 127 127 127 127 127 127 128 128 128 127 127 127 127 127 127 127 128 127 127 127 127 127 127 127 126 127 127 127 126 127 127 128 129 128 125 131
119 127 127 127 127 127 127 127 127 127 128 127 127 127 126 126 127 127 126 127 128 128 128 127 127 126 126 127 127 126 126 126 128 128 128 128 128 127 127 127 127 127 126 126 126 128 128 126 126 127 128 127 126 125 118 115 121 126 129 131 131 129 127 128 131 131 127 119 111 114 122 127 128 128 129 128 128 130 134 133 131 133 136 133 128 126 125 125 126 125 124 127 128 127 125 124 126 126 124 122 123 123 124 126 127 127 129 135 139 137 133 128 124 121 120 120 120 120 124 126 127 128 130 135 138 139 135 130 127 126 126 128 127 125 125 125 124 124 125 125 127 129 129 131 131 128 126 128 130 128 127 128 129 127 125 124 124 126 127 128 129 128 127 126 125 127 129 128 128 129 128 126 125 127 129 130 128 126 125 125 124 126 129 130 130 130 129 128 126 125 126 127 127 128 128 127 128 128 129 128 128 128 128 127 126 125 125 126 128 128 127 128 128 128 128 127 127 127 127 127 128 128 128 127 127 127 127 127 127 127 128 127 127 127 127 127 128 127 126 127 127 127 127 127 127 128 128 127 126 132
120 127 127 127 127 127 127 128 127 127 127 127 126 126 126 126 128 128 127 127 128 128 128 127 126 126 126 126 127 127 126 126 128 128 128 128 128 127 127 127 127 127 126 126 126 128 128 126 126 128 128 127 126 123 116 118 126 129 129 132 131 126 125 126 129 129 123 113 112 121 126 128 128 128 127 125 125 129 134 134 131 133 135 135 132 128 125 125 126 125 123 126 128 126 124 124 126 126 126 124 123 123 123 124 125 125 125 129 134 139 141 136 128 123 121 121 120 119 122 124 125 126 128 131 135 139 139 134 130 126 126 127 127 127 127 126 124 123 124 125 126 127 128 129 132 130 126 128 130 128 127 128 129 128 126 123 124 126 128 128 127 126 127 127 125 125 129 129 127 129 129 127 125 125 128 129 130 128 127 126 124 126 128 129 129 130 129 127 125 125 126 127 127 128 127 127 128 128 129 128 128 128 128 127 126 126 126 126 127 127 127 127 128 128 127 127 127 127 127 127 128 128 127 127 127 127 127 127 127 127 128 127 127 127 127 127 128 127 126 127 127 127 127 127 127 127 127 127 126 132
120 127 126 126 127 128 127 127 127 127 127 126 126 126 127 127 127 128 128 128 128 128 128 127 126 126 125 126 127 128 127 127 128 127 127 128 128 127 127 127 127 127 127 127 127 127 127 126 127 128 128 127 126 122 118 122 128 129 129 131 129 125 124 125 126 122 118 116 120 126 128 128 127 126 124 123 125 128 133 135 134 133 133 135 134 130 128 127 126 124 123 126 128 126 125 127 128 126 126 125 124 124 122 122 124 123 123 125 128 134 141 141 135 129 125 122 120 120 121 122 123 125 127 129 131 136 137 136 134 129 127 126 126 127 128 127 125 124 124 124 125 126 127 127 132 131 126 127 129 129 127 127 129 129 126 124 124 127 128 128 126 125 126 128 126 124 127 129 128 128 130 129 126 125 126 128 130 130 128 127 126 126 127 128 129 130 129 127 126 125 126 128 128 127 127 127 128 129 129 128 128 128 128 127 126 126 126 126 127 127 127 127 127 127 127 127 128 128 128 127 127 127 127 127 127 127 127 127 127 127 127 127 127 127 127 127 128 127 127 127 127 127 127 128 127 127 127 127 127 133
119 126 127 127 127 127 127 127 127 126 126 126 126 127 128 128 126 127 129 128 128 128 127 127 126 126 126 126 127 128 127 127 127 127 127 129 128 127 127 127 127 127 127 127 127 127 126 126 127 128 127 127 126 122 119 123 130 130 129 129 128 126 124 124 119 115 119 123 127 129 130 129 125 124 121 122 126 128 132 135 135 133 131 133 134 132 130 129 126 124 123 125 127 126 126 129 129 126 125 126 125 124 122 122 124 122 121 123 125 128 134 139 141 139 131 125 122 121 121 120 122 124 127 128 129 132 132 133 136 134 129 127 126 127 127 127 127 127 126 125 125 126 125 126 130 131 127 127 129 130 128 127 128 128 126 124 125 127 128 128 126 125 126 126 126 126 126 128 128 127 129 130 128 126 124 125 129 130 129 128 128 127 126 127 128 129 129 128 126 125 126 128 128 128 127 127 127 128 128 128 128 128 127 126 126 127 127 126 127 127 127 127 127 126 126 127 129 129 128 127 127 127 127 127 127 128 128 128 127 127 127 127 127 127 127 127 127 127 127 127 127 127 127 127 127 127 127 127 127 133
118 126 128 129 127 127 127 127 126 126 127 126 126 126 128 128 127 127 128 128 128 127 127 127 126 126 126 126 127 128 128 127 126 127 128 129 128 127 127 126 126 127 127 128 128 127 126 126 128 128 127 127 126 123 119 124 131 130 127 126 128 127 124 119 114 117 124 128 130 130 130 128 123 121 120 122 127 130 133 134 132 132 132 133 134 132 131 130 128 126 124 124 126 126 127 130 130 127 126 127 126 125 124 123 123 121 120 121 122 125 128 132 140 144 138 130 126 124 121 121 123 124 126 127 128 128 127 128 134 136 134 130 127 126 126 127 128 128 127 126 126 126 125 125 128 130 128 127 129 130 129 128 126 127 127 125 125 127 128 128 127 126 126 125 126 126 126 127 127 127 128 130 130 127 125 124 126 128 130 130 129 127 126 126 127 128 129 129 127 126 126 127 128 128 128 127 127 128 128 128 128 128 127 126 126 126 127 126 126 127 127 127 127 126 126 127 129 129 128 127 127 127 127 127 127 128 128 128 127 127 127 127 127 127 127 127 127 127 127 127 127 127 127 127 127 127 127 127 127 133
118 126 128 129 128 127 127 127 125 125 127 127 126 126 128 128 127 127 128 128 128 127 127 126 126 126 126 127 127 127 128 127 126 127 128 129 128 127 127 125 125 127 128 128 127 127 127 126 127 127 127 127 126 122 119 125 132 130 125 125 128 126 119 114 118 125 128 130 132 131 129 124 119 118 120 124 129 131 133 132 129 129 131 134 134 132 131 131 130 128 126 124 125 125 126 128 129 129 128 128 127 126 125 124 122 121 121 120 120 122 124 128 135 140 142 137 130 126 123 123 123 124 126 126 127 126 123 125 130 134 136 134 129 127 126 128 128 128 126 126 127 126 126 126 127 128 127 127 129 130 129 127 125 126 128 125 125 127 128 128 127 127 126 125 126 126 126 126 126 127 128 130 130 128 127 125 124 126 129 131 130 128 127 127 126 126 129 129 128 126 126 127 127 128 128 127 128 127 127 128 128 127 127 126 126 126 126 127 126 127 127 127 127 126 126 127 129 129 128 127 127 127 127 127 127 128 128 128 128 127 127 127 127 127 127 127 127 127 127 127 127 127 127 127 127 127 127 127 127 133
119 127 128 129 128 127 127 127 126 126 127 127 126 126 127 127 127 128 127 128 128 128 127 126 126 126 126 127 128 127 127 127 127 127 128 129 128 128 127 125 125 127 127 127 127 128 128 127 127 127 127 127 125 121 119 127 132 129 125 125 127 122 113 117 126 131 131 132 132 130 127 120 115 118 123 127 130 131 132 131 128 128 131 134 133 131 131 131 130 129 128 125 125 125 124 126 129 130 129 128 128 127 127 125 123 121 122 121 120 120 122 125 130 135 140 142 136 129 126 126 124 124 125 125 126 124 121 123 128 130 133 137 134 128 127 128 128 127 126 127 127 126 127 126 127 127 127 127 128 129 128 125 125 127 128 126 125 127 128 128 127 126 127 127 127 126 125 125 126 127 128 129 129 129 129 126 124 125 127 130 129 128 128 128 127 126 128 129 127 126 126 127 127 128 128 128 128 128 128 128 128 127 127 127 127 126 126 127 127 127 127 127 127 126 126 127 128 128 128 127 127 127 127 127 127 128 128 128 128 127 127 127 127 127 127 127 127 127 127 127 127 127 127 127 127 127 127 128 127 133
119 127 128 128 128 127 126 126 126 127 127 126 126 126 127 127 128 128 127 127 128 128 128 127 126 126 126 127 128 127 127 127 127 127 127 128 128 128 127 126 126 127 127 126 127 128 128 128 127 127 127 126 125 121 120 127 131 130 126 125 123 116 114 122 130 133 134 133 130 128 125 117 114 121 125 128 130 130 130 130 128 128 130 133 132 131 131 130 130 130 129 128 127 125 123 125 129 130 129 127 127 128 128 127 125 122 122 122 120 118 120 123 126 131 134 140 141 134 129 128 126 124 125 126 125 122 120 123 127 128 130 136 136 131 128 128 128 127 127 127 126 127 127 127 127 127 127 127 128 128 127 126 126 128 127 125 125 127 128 128 127 126 127 127 127 126 125 125 125 127 128 128 128 129 129 127 126 126 126 127 127 129 130 129 128 127 128 128 127 126 126 127 127 127 128 128 128 129 128 127 127 127 127 127 127 126 126 127 127 127 127 127 127 127 126 127 128 128 128 127 127 127 127 127 127 127 128 127 127 128 128 127 127 127 127 127 127 127 127 127 127 127 127 127 127 127 128 128 126 133
120 127 127 127 127 127 127 127 127 127 127 126 126 126 126 127 128 127 127 127 128 128 128 127 126 125 126 127 127 127 127 127 127 127 127 128 128 128 127 127 126 127 127 126 127 127 128 127 127 128 128 126 125 121 122 128 130 129 127 123 117 115 120 127 130 133 135 133 129 126 121 114 117 124 126 127 129 129 129 129 129 129 131 133 131 130 131 131 130 129 129 129 128 126 124 125 128 129 128 127 127 129 129 128 127 124 122 122 121 118 119 122 125 128 130 136 140 137 134 131 127 125 125 126 124 122 120 123 127 127 127 132 135 132 131 130 128 127 126 126 126 127 128 128 128 127 127 127 127 126 126 126 127 128 127 125 125 128 129 129 127 126 127 127 127 126 126 126 126 127 127 127 127 128 128 128 127 127 126 125 126 129 130 129 129 128 127 127 127 127 127 127 127 127 126 127 129 129 128 128 127 127 127 127 127 126 126 127 127 127 128 127 127 127 127 127 127 128 127 128 128 128 127 127 126 127 127 127 127 128 128 127 127 127 127 127 127 127 127 127 127 127 127 127 127 127 128 128 126 133
120 127 128 127 127 127 127 127 127 127 127 127 126 125 126 128 128 127 127 127 128 128 128 127 126 126 126 127 127 127 127 127 127 126 127 127 127 127 128 127 127 128 127 126 127 127 127 127 127 128 128 126 124 121 124 129 130 128 125 119 116 120 127 130 130 131 134 132 129 123 116 114 122 127 126 126 127 128 128 129 131 131 132 132 130 129 129 131 131 129 129 129 129 128 126 125 126 126 126 126 127 129 129 128 128 127 125 123 121 120 118 120 124 126 128 133 136 137 137 133 129 127 126 125 125 123 122 124 126 127 126 128 130 130 133 134 130 127 126 126 126 128 128 128 128 127 127 126 127 126 126 127 128 127 127 125 126 129 130 129 127 127 127 127 126 126 126 126 126 127 127 126 126 127 128 128 128 127 126 125 126 128 129 129 129 128 127 127 127 127 127 128 127 126 126 126 128 129 128 128 127 127 127 127 127 126 126 127 127 127 127 127 127 128 127 127 127 127 127 128 128 128 127 127 126 127 127 127 127 128 128 128 127 127 127 127 127 127 127 127 127 127 127 127 127 128 128 128 126 133
119 127 128 127 127 127 127 127 127 127 127 127 126 125 127 128 128 127 127 127 128 128 127 127 126 126 126 126 127 128 127 127 126 126 127 127 127 127 128 127 127 128 128 127 126 126 127 127 127 127 127 126 125 121 123 130 130 126 120 117 121 126 130 132 131 129 131 131 127 119 112 118 126 128 126 124 124 126 127 129 133 133 133 133 130 128 128 130 131 130 129 128 129 128 127 126 125 124 125 126 127 128 128 128 128 128 128 126 124 121 118 120 123 125 128 131 133 135 136 133 130 128 126 126 126 124 123 124 126 127 125 126 125 126 132 135 132 130 128 127 127 127 128 128 128 127 126 125 127 127 126 127 128 127 126 126 127 129 130 129 127 127 127 127 126 126 127 127 126 127 127 126 125 126 128 128 128 128 126 126 127 128 128 128 129 129 127 126 126 126 127 128 127 127 127 126 127 128 128 128 128 127 127 127 127 127 126 127 128 127 127 127 127 128 128 127 127 127 127 128 128 128 127 127 126 127 127 127 127 127 127 127 127 127 127 127 127 127 127 127 127 127 127 127 127 128 128 128 126 133
120 127 128 127 127 127 127 127 127 127 127 127 127 126 127 128 128 127 127 127 128 128 127 127 126 126 126 127 127 127 127 127 126 126 127 127 127 127 128 128 128 127 127 127 126 126 127 127 127 127 127 126 125 122 123 129 130 123 117 119 126 130 132 132 132 129 129 129 123 114 114 124 128 128 125 123 122 125 129 131 134 133 133 133 130 128 127 129 131 130 128 128 129 128 127 127 126 125 124 126 127 127 128 128 127 127 129 129 126 123 120 121 123 125 127 129 131 133 133 132 130 128 127 127 127 126 124 124 126 126 126 125 123 124 129 132 134 133 129 128 128 127 127 127 128 127 126 124 126 127 127 128 128 127 126 126 128 129 129 128 127 127 127 126 127 127 127 127 127 127 127 126 125 126 128 128 128 128 127 126 127 127 127 128 128 128 127 126 126 126 127 127 127 127 128 127 127 127 127 129 129 127 127 127 127 127 126 127 128 127 127 127 127 128 128 127 127 127 127 128 128 127 127 127 127 127 127 127 128 127 127 127 127 127 127 127 127 127 127 127 127 127 127 126 127 128 128 128 126 133
120 127 127 127 127 127 127 127 127 127 127 127 127 126 126 127 128 127 127 127 128 128 127 127 126 126 126 127 127 127 127 127 126 127 127 127 127 127 128 128 127 127 127 127 127 127 127 126 127 128 127 126 126 123 124 128 129 122 117 123 129 131 131 131 131 129 128 125 119 113 120 128 128 125 123 122 123 126 131 133 134 133 133 133 130 128 128 129 130 129 127 128 129 129 127 127 127 126 124 125 127 126 127 128 126 126 130 130 128 125 124 123 124 125 125 127 130 130 129 130 130 129 129 128 127 126 125 125 125 125 126 125 122 123 127 130 133 134 130 129 129 127 127 127 128 128 127 124 125 127 128 128 128 127 126 126 127 129 129 128 127 127 127 127 127 127 127 127 127 127 127 126 125 126 128 128 128 128 127 127 127 127 127 127 128 128 127 126 126 126 127 128 128 128 128 127 127 126 127 129 129 127 127 127 127 126 127 127 127 127 127 127 128 128 128 127 127 127 127 127 127 127 127 127 127 127 127 128 128 127 127 127 127 127 127 127 127 127 126 127 127 127 127 126 127 128 128 128 127 133
120 127 128 127 127 127 127 127 127 127 127 127 127 126 126 127 128 127 127 127 127 127 127 127 126 125 126 127 127 127 127 127 127 127 127 127 127 128 128 127 127 127 128 128 127 127 127 126 126 127 127 126 125 124 124 128 128 123 120 126 130 131 129 129 129 128 127 123 117 118 126 129 127 121 119 123 125 129 133 134 132 131 131 132 129 128 129 129 128 127 127 128 129 129 127 127 128 127 126 125 126 125 126 127 127 127 129 130 128 127 126 125 126 125 124 126 129 129 128 128 129 129 129 129 128 127 126 126 126 125 125 124 122 123 126 129 131 133 132 130 129 127 127 127 128 127 127 125 126 127 128 128 128 127 127 126 127 128 128 128 127 127 127 127 127 127 126 127 128 128 127 126 126 126 128 128 128 128 127 127 127 127 127 126 127 127 127 127 126 126 126 128 129 128 127 127 127 126 127 128 128 128 127 127 126 126 127 128 127 127 127 127 128 128 128 127 127 127 127 127 127 126 126 127 127 127 127 127 128 127 127 127 127 127 127 128 127 127 127 126 127 127 127 127 127 128 128 127 126 133
119 127 128 128 128 127 127 127 127 127 127 127 127 126 126 127 128 128 127 127 127 127 127 127 126 126 126 126 126 127 127 127 127 127 127 128 127 127 127 127 127 128 128 128 128 128 127 126 126 127 127 126 125 124 125 127 126 124 124 127 130 129 128 127 128 127 126 121 119 124 130 130 125 117 117 124 128 132 134 134 131 129 130 130 129 128 129 129 128 127 127 128 129 128 127 128 129 128 126 126 125 125 125 125 127 128 128 129 129 128 128 127 127 126 124 126 128 127 127 128 128 128 128 129 129 129 127 126 126 125 125 124 123 124 126 128 129 131 132 131 129 127 127 127 128 126 126 127 127 127 128 128 127 126 126 127 128 127 127 128 128 127 127 128 127 127 127 127 127 127 127 127 126 126 127 128 128 127 127 127 127 127 126 127 127 127 127 127 126 126 126 128 129 128 127 127 127 127 127 128 128 128 127 126 126 126 127 128 127 127 127 128 128 128 127 127 127 127 127 127 127 127 126 127 127 127 128 127 128 127 127 127 127 126 127 127 128 127 127 126 127 127 127 127 127 128 128 127 126 133
119 127 128 128 128 127 127 127 127 126 127 127 127 126 126 127 128 128 127 126 127 127 127 127 126 126 126 126 126 128 128 127 127 127 127 128 127 127 127 127 126 127 127 127 129 129 127 126 126 126 127 127 126 124 124 127 126 125 126 128 129 127 127 127 128 127 124 120 121 127 131 129 123 116 119 128 131 134 134 132 130 129 129 129 128 128 128 128 128 127 128 129 129 128 127 128 129 128 126 126 126 125 125 125 127 128 127 127 129 128 128 127 127 127 126 127 126 126 127 128 128 127 127 128 129 130 128 127 126 126 126 125 124 124 126 127 127 129 131 130 129 127 127 127 127 126 126 128 128 127 128 128 127 126 126 127 128 127 127 127 127 127 127 128 128 127 127 127 127 127 127 127 127 127 127 127 128 127 127 126 127 126 126 127 128 128 127 127 127 126 126 127 128 128 127 127 128 128 127 128 128 128 127 126 126 126 127 128 128 127 127 128 128 128 127 127 127 127 127 127 127 127 127 127 127 127 127 127 127 127 127 127 127 126 127 127 127 128 127 127 127 127 127 127 128 128 128 127 125 133
118 128 128 128 128 127 127 127 127 126 127 127 127 127 127 127 127 127 127 127 127 128 127 127 126 126 127 126 127 128 128 127 127 127 127 128 128 127 127 126 126 126 127 127 128 129 128 127 126 126 127 127 127 126 124 125 127 127 127 127 128 127 126 127 128 127 122 120 124 128 130 126 119 118 125 131 132 134 133 130 129 129 128 128 129 129 128 127 128 128 128 128 128 128 127 128 129 127 126 127 127 126 126 126 127 127 126 127 128 128 127 127 128 128 127 127 126 125 127 128 127 126 126 127 128 130 129 127 127 127 126 126 125 125 126 127 126 127 130 130 129 127 127 127 127 126 127 128 129 128 127 127 127 126 126 127 127 127 127 127 127 127 127 128 128 128 127 127 127 127 128 128 127 127 127 127 128 127 127 126 126 126 126 127 129 128 127 126 126 127 127 128 128 128 127 127 128 127 127 128 128 128 127 126 126 125 126 127 128 128 128 128 128 127 127 127 127 127 127 127 127 127 127 127 127 127 127 127 128 127 126 127 127 126 127 127 127 127 127 127 127 127 127 127 127 128 128 127 125 133
119 129 128 127 127 127 127 127 126 126 127 127 127 127 127 127 126 126 127 128 127 128 127 127 126 126 127 126 127 128 128 126 127 127 127 128 128 128 127 126 125 126 127 127 128 128 128 127 126 126 127 127 127 127 125 124 126 128 127 126 127 127 126 126 127 126 121 122 127 128 125 120 119 124 132 133 131 132 132 129 128 129 128 128 129 128 128 128 127 127 128 128 128 128 127 127 128 127 127 127 127 125 127 127 127 127 126 127 127 127 127 127 128 128 127 126 126 127 128 127 127 126 126 127 127 129 129 128 128 127 126 126 126 126 127 128 126 126 129 129 128 127 127 127 127 127 127 128 129 128 126 127 126 126 127 126 127 128 128 127 128 127 127 127 128 128 127 126 126 127 128 128 128 127 127 127 127 127 127 126 125 126 127 127 128 128 127 126 126 126 128 129 128 128 127 127 127 127 128 127 128 128 127 127 126 125 126 127 128 128 128 128 128 128 127 127 127 127 127 127 127 127 127 127 127 127 127 128 128 127 126 127 127 127 127 127 127 127 127 127 127 127 127 127 127 127 128 127 126 133
120 128 128 127 127 127 127 127 127 127 127 127 127 127 127 127 126 126 127 128 128 128 127 127 127 127 127 126 127 128 128 127 126 127 128 128 128 127 127 126 126 126 127 127 127 128 128 127 127 127 127 127 128 127 126 125 125 127 127 126 126 127 126 127 127 123 122 125 129 126 119 119 125 131 134 133 131 131 131 129 128 129 128 128 128 127 128 128 127 127 127 127 128 127 126 127 128 128 128 127 126 125 127 127 127 127 127 127 127 128 128 127 127 127 126 126 127 128 128 127 127 126 126 127 127 127 128 128 129 126 125 127 127 127 128 128 126 127 128 128 128 127 127 127 127 127 127 128 128 127 126 126 125 126 127 127 127 128 128 128 127 127 127 127 128 127 126 126 127 127 128 129 128 127 127 127 127 127 127 127 125 126 127 127 127 128 128 126 126 126 128 129 129 128 127 126 127 128 128 127 127 128 127 127 126 125 126 127 128 128 128 128 128 128 127 127 127 127 127 127 127 127 128 127 127 127 127 128 128 127 126 126 127 127 127 127 127 127 126 127 127 128 127 127 127 127 128 128 127 133
120 128 127 127 126 126 127 127 127 127 127 127 127 127 127 127 126 125 126 127 128 128 128 127 127 126 126 127 127 128 128 127 126 127 128 129 128 127 127 126 126 126 126 127 127 128 127 126 127 127 127 128 128 127 126 126 126 126 126 125 126 126 126 127 126 122 123 128 127 119 117 124 132 136 133 131 130 131 131 128 128 129 128 127 127 127 128 128 127 128 128 127 127 127 125 126 127 127 128 128 126 126 127 127 127 128 128 127 127 128 128 128 127 126 126 126 128 128 127 127 126 126 126 127 127 127 127 128 128 126 126 127 127 127 127 128 127 127 128 128 128 127 127 127 127 127 127 127 128 128 127 126 125 126 127 127 127 127 128 128 127 127 127 127 128 127 126 127 127 127 128 128 129 128 127 126 126 127 127 127 126 126 126 126 127 128 128 127 127 127 127 128 128 128 127 127 127 128 128 127 127 128 127 126 126 125 126 127 128 128 128 128 128 128 127 127 127 127 128 128 127 127 127 127 127 127 127 128 128 127 127 126 126 126 127 127 127 127 127 127 127 128 127 127 127 127 128 128 127 133
121 127 127 127 126 126 127 127 127 128 128 127 127 127 126 126 126 126 126 127 127 129 129 128 127 126 126 127 127 127 127 126 126 127 128 129 128 127 127 127 126 126 126 127 127 128 128 127 126 127 127 128 127 127 127 127 126 126 125 125 126 126 125 126 126 123 125 128 122 115 121 131 136 136 131 129 129 131 131 128 127 128 128 127 128 128 127 126 126 128 129 128 127 126 125 126 127 127 127 128 127 126 127 127 127 128 128 127 126 127 128 129 128 127 126 127 128 127 127 127 127 127 127 127 127 127 128 127 127 126 126 127 127 127 128 128 128 127 127 127 127 127 127 127 126 127 126 127 128 128 127 127 126 126 127 127 126 127 128 128 127 126 126 127 128 127 127 127 127 127 127 127 129 128 127 126 126 128 128 127 127 127 127 127 127 127 128 127 127 128 128 128 127 127 127 127 127 127 127 127 127 127 127 127 126 125 125 127 129 129 127 127 128 128 127 127 127 127 128 127 127 127 127 127 127 127 127 127 127 127 127 127 126 126 126 127 127 127 127 127 127 128 127 127 127 128 128 128 127 133
121 127 127 127 127 126 127 127 127 128 128 127 127 127 127 126 126 126 126 127 127 128 129 127 126 126 126 127 128 127 127 126 126 127 128 129 128 128 128 127 125 125 127 127 127 127 128 128 127 127 127 127 126 127 128 128 127 127 125 125 126 126 125 125 125 125 126 126 118 118 128 135 135 133 130 127 128 131 130 128 127 128 128 127 127 127 126 125 126 128 129 128 127 127 126 126 127 127 127 127 127 127 127 127 127 127 128 127 126 127 128 129 128 127 127 127 127 127 126 126 127 127 127 126 127 128 129 127 127 127 127 127 127 127 128 128 128 127 127 127 127 127 127 127 126 126 126 126 127 127 128 128 127 127 127 127 126 127 127 128 127 127 126 127 127 127 127 126 127 127 127 127 128 127 127 127 127 128 127 127 128 128 127 127 126 126 127 127 127 128 129 128 127 127 127 128 127 127 127 127 128 127 127 127 126 126 125 127 128 128 126 126 129 129 128 127 127 127 128 127 127 127 127 128 128 127 127 127 127 128 127 127 126 126 126 127 127 127 127 127 127 127 127 127 127 128 128 128 127 133
120 127 127 127 127 127 127 126 127 127 127 127 127 127 127 127 127 126 126 126 127 128 128 126 126 127 127 127 128 128 127 125 126 127 127 128 128 128 128 127 125 126 127 127 127 127 127 128 127 127 127 126 126 127 128 127 128 128 126 125 125 125 125 124 125 126 126 121 119 124 132 135 132 131 129 127 128 131 130 128 127 127 128 128 127 127 126 126 127 128 129 128 127 127 127 127 127 126 126 127 127 128 128 127 127 127 127 127 126 126 127 128 128 127 127 127 127 127 126 126 127 127 127 126 126 128 129 128 127 127 126 126 126 127 129 129 128 128 127 127 127 127 127 127 126 126 126 126 127 127 128 128 128 127 127 127 127 127 127 128 127 127 127 127 127 127 127 126 127 127 127 127 127 127 127 127 127 127 127 127 127 128 128 127 126 126 127 127 127 128 129 127 127 127 128 128 127 127 127 127 128 127 127 127 126 126 126 127 127 127 126 127 129 129 128 127 127 127 128 127 127 127 128 128 127 127 128 127 127 127 127 126 126 126 126 127 127 127 127 127 127 128 127 127 127 127 128 128 127 133
120 127 127 127 127 127 127 126 127 127 127 127 127 128 128 128 127 126 126 126 127 128 127 126 126 127 127 127 127 128 128 126 126 128 127 127 129 128 127 126 125 126 127 127 127 127 128 128 127 127 127 126 126 127 127 128 128 128 126 126 125 124 125 125 125 126 123 119 123 129 133 133 130 130 129 128 129 130 129 128 127 127 127 127 127 127 127 127 127 128 128 127 127 127 127 127 126 125 125 127 128 128 128 128 127 127 127 127 126 126 127 127 127 127 128 127 127 127 126 127 128 127 126 126 126 128 128 128 128 127 126 126 126 127 128 129 129 128 128 127 127 127 127 127 127 127 126 127 126 127 127 128 127 127 126 126 127 128 127 127 127 127 127 127 127 126 126 127 127 127 127 127 127 127 127 127 128 128 127 127 127 127 128 128 126 126 127 127 127 128 128 128 128 128 128 128 127 127 127 127 128 128 127 127 126 126 127 127 127 127 126 127 128 128 127 127 127 127 127 127 127 128 128 127 127 127 128 128 127 127 126 126 126 126 126 126 127 127 127 127 127 127 128 128 127 127 127 127 127 133
120 127 127 127 127 127 127 127 127 127 126 126 127 128 129 128 127 127 126 126 127 127 127 126 126 126 127 127 127 128 127 126 126 127 127 127 129 129 127 126 125 126 127 127 127 128 128 127 127 127 127 127 127 127 127 128 128 128 127 126 125 124 125 126 126 125 121 121 128 131 132 131 128 129 130 128 128 128 128 127 128 128 127 126 126 127 128 128 127 128 128 127 127 127 127 127 126 125 126 127 127 128 128 128 128 127 127 127 126 126 126 126 127 128 128 127 126 127 127 126 128 127 126 126 127 128 128 128 128 127 126 126 126 127 127 128 129 129 128 128 127 127 127 127 127 127 127 127 127 127 127 128 127 126 126 126 127 128 127 127 127 127 127 127 126 125 126 127 128 128 127 127 126 126 126 127 128 128 127 126 127 127 128 128 126 126 127 127 127 127 128 128 129 128 128 128 127 127 127 127 128 128 127 127 127 127 127 127 127 127 127 127 127 127 127 127 127 127 127 128 128 128 128 127 127 128 128 128 127 126 126 126 127 127 126 126 127 128 127 127 125 126 128 129 128 127 127 127 127 133
120 127 127 127 127 127 127 127 127 127 126 126 127 128 128 128 127 126 127 127 127 127 127 126 126 126 127 127 128 128 127 126 127 127 128 128 128 128 127 126 125 126 127 127 127 128 128 127 127 127 128 127 127 127 128 128 128 127 127 125 125 125 126 127 126 124 121 123 129 131 130 130 128 128 129 129 128 128 127 126 127 128 128 127 126 127 127 127 128 128 128 127 127 128 127 127 126 126 126 127 127 128 128 128 127 128 127 126 126 127 127 127 127 127 127 126 126 128 128 127 127 127 126 127 127 127 128 129 128 127 126 126 127 127 127 128 128 129 128 128 127 127 127 127 127 127 127 127 127 127 127 127 127 127 127 127 127 127 127 127 127 127 127 127 126 125 126 127 128 128 128 127 126 126 126 127 127 128 127 127 127 127 127 128 127 127 127 127 126 128 128 128 128 128 128 128 127 127 127 127 128 128 127 127 127 127 127 127 127 127 127 127 127 127 127 127 127 127 128 128 128 127 127 127 128 128 128 128 126 126 126 127 127 127 127 126 127 127 127 126 125 126 128 129 128 127 128 128 127 133
120 127 127 127 127 127 127 127 127 127 127 126 127 128 127 127 126 126 127 127 128 127 126 126 126 126 127 128 128 127 126 126 127 127 128 128 128 128 127 126 125 126 127 127 127 128 128 128 127 127 128 127 127 127 128 128 127 127 127 125 125 126 126 127 126 124 122 125 128 129 130 130 128 128 128 128 128 128 127 126 126 127 128 128 126 126 127 127 128 129 128 127 128 128 127 126 126 126 127 128 128 127 127 127 127 128 128 126 126 127 128 128 128 127 127 126 126 128 128 127 127 127 127 126 127 127 128 129 128 127 127 127 127 127 127 128 128 128 128 128 127 127 127 127 127 127 127 127 127 127 127 127 127 127 127 127 127 127 127 127 127 127 127 127 126 126 126 127 127 128 127 127 126 126 127 127 127 128 128 127 127 127 126 127 128 127 127 127 127 128 128 128 127 127 127 127 128 127 127 127 127 128 128 127 127 127 127 127 127 127 127 127 128 128 127 127 127 127 128 128 127 127 127 127 127 128 128 128 126 126 126 127 127 127 127 126 127 127 127 127 126 126 127 128 128 128 128 128 127 133
121 127 127 126 126 127 128 128 127 127 127 126 127 128 128 127 125 125 127 128 128 127 126 126 127 127 127 128 127 126 126 127 127 128 128 128 128 128 127 127 125 126 127 127 127 128 128 128 127 127 127 126 126 128 128 128 128 127 127 126 125 126 127 127 127 125 124 125 127 127 130 131 129 128 128 128 128 127 127 126 126 127 128 128 127 126 126 127 128 129 127 127 127 128 127 127 126 126 127 127 127 127 127 126 127 127 128 126 126 128 128 128 128 127 127 125 126 128 128 128 127 127 126 126 127 127 127 129 129 127 127 127 127 127 127 128 128 128 127 127 127 127 126 127 127 127 128 127 127 127 127 127 127 127 127 128 127 127 127 127 127 127 127 127 127 126 126 126 127 127 127 127 127 127 127 127 127 127 127 127 127 126 126 127 128 127 127 127 127 128 128 128 127 126 126 127 128 128 127 127 127 129 129 128 128 127 127 127 127 127 127 127 128 128 127 127 127 127 128 128 127 127 127 127 127 127 128 128 127 127 126 127 127 127 127 127 127 127 127 127 127 127 127 127 128 128 128 128 127 133
121 127 127 125 125 127 129 128 127 127 126 125 126 128 129 127 126 126 127 127 128 127 126 126 127 127 127 128 127 127 126 126 127 128 128 128 128 128 128 127 125 126 127 127 127 128 128 127 127 127 127 127 126 127 128 128 128 127 127 126 125 126 126 127 127 126 124 125 126 127 129 131 129 128 128 128 128 127 126 126 127 128 128 127 127 127 126 127 128 129 127 127 127 128 127 127 126 126 126 126 127 128 127 127 127 127 127 126 127 128 128 128 127 127 127 126 126 128 128 128 127 127 125 125 127 127 127 128 129 127 127 127 127 127 127 128 128 128 127 127 127 127 127 127 127 127 127 127 127 127 127 127 127 127 127 128 127 127 127 127 127 127 127 127 127 127 126 126 126 127 127 127 127 127 127 127 127 128 127 127 126 126 126 127 127 127 127 127 127 127 128 128 127 126 126 126 128 128 127 128 128 129 129 128 128 127 127 127 127 127 127 127 128 128 128 127 127 127 128 127 127 127 127 127 127 127 128 128 127 127 127 127 127 127 127 127 127 127 127 127 127 127 127 127 128 128 128 127 126 132
121 127 126 126 125 127 129 128 128 127 126 126 126 128 128 128 127 126 126 126 127 127 127 127 126 127 127 127 127 127 126 126 127 128 128 128 128 128 128 127 126 126 126 127 127 128 128 127 127 127 127 127 127 127 127 128 128 127 127 127 126 126 126 126 127 126 123 124 127 128 130 130 129 127 127 128 128 126 126 126 127 128 127 127 127 127 127 128 128 127 126 127 128 128 127 127 127 127 126 126 127 128 128 127 127 127 127 126 127 128 128 128 127 127 127 126 127 127 127 127 127 127 125 126 127 127 128 128 128 127 127 127 127 127 127 128 128 128 127 127 127 127 127 127 127 127 127 127 127 127 127 127 127 127 127 127 127 127 127 127 127 127 127 127 127 127 126 126 127 127 127 127 127 126 126 126 128 129 128 127 126 126 126 127 127 127 127 128 127 127 128 128 127 125 125 126 127 128 128 128 128 128 128 128 127 127 127 127 127 127 127 127 128 128 128 127 127 127 128 127 127 127 127 127 127 127 127 127 127 127 127 127 127 127 127 127 127 127 127 127 127 127 126 127 128 128 128 127 126 132
120 127 126 126 126 127 128 128 128 127 127 127 127 128 128 128 127 126 126 126 127 128 128 127 126 126 127 127 127 128 127 126 126 127 128 128 128 128 127 127 126 126 126 128 128 128 127 126 127 128 128 127 127 127 127 128 128 127 127 127 127 126 126 126 126 126 123 124 128 129 129 129 128 127 127 128 128 126 126 127 128 128 127 126 126 127 128 128 128 126 126 128 128 127 127 127 127 127 126 126 127 127 128 128 127 127 127 127 127 127 128 128 127 127 126 128 128 127 127 127 127 127 126 127 127 127 128 129 128 127 126 127 127 127 127 128 128 128 127 127 127 127 127 127 127 127 127 127 127 127 127 127 127 127 127 127 127 127 127 127 127 127 127 127 127 126 126 127 127 127 127 127 127 126 125 126 128 129 127 126 127 127 127 127 127 127 127 128 128 128 128 128 127 126 125 126 127 127 128 129 129 128 127 127 127 128 127 127 127 127 127 127 128 128 127 127 127 128 128 127 127 127 127 126 127 127 127 127 127 127 128 127 127 127 127 127 127 127 127 127 127 127 126 127 127 128 128 127 127 132
120 127 126 127 127 127 127 127 127 127 127 127 127 127 127 127 127 126 126 126 127 128 128 127 126 127 127 127 127 128 127 126 126 127 128 128 128 127 127 126 126 126 127 128 129 128 126 126 127 128 128 127 127 127 127 127 127 127 127 126 126 126 126 126 126 126 124 125 128 129 129 129 129 127 126 127 127 127 127 128 128 128 128 127 126 126 127 128 127 126 126 128 127 127 127 128 128 127 126 126 127 128 128 128 127 127 127 127 127 127 127 127 127 126 126 129 129 127 126 126 126 126 126 127 128 128 128 129 128 127 126 127 127 127 127 128 128 128 127 127 127 127 127 127 127 127 127 127 127 127 127 127 127 128 127 127 127 127 127 127 127 127 127 127 127 126 126 126 127 128 127 127 127 126 126 127 128 128 126 126 128 128 127 127 127 127 128 128 128 128 128 127 126 126 126 126 126 126 128 129 129 128 128 128 127 128 127 127 127 127 127 127 128 128 127 127 127 128 128 127 127 127 127 126 127 127 127 126 127 127 128 128 127 127 128 127 127 127 126 127 127 127 126 127 127 127 128 128 127 132
120 127 127 127 127 127 127 127 127 127 128 127 127 127 127 127 126 126 127 127 128 128 127 126 127 127 128 127 127 128 127 126 127 127 128 128 128 127 127 126 126 127 127 127 129 129 126 126 128 129 128 127 127 127 127 127 127 127 127 126 126 126 126 126 127 127 125 125 127 129 129 129 129 128 126 126 126 127 127 127 127 128 129 127 126 126 127 128 127 126 126 127 127 127 127 128 128 128 127 127 127 128 127 127 127 127 127 127 127 126 126 127 127 127 127 128 129 127 126 126 126 126 126 127 128 128 128 128 128 127 127 127 127 127 127 127 128 128 127 126 126 127 128 127 127 127 127 127 127 127 127 127 128 128 127 127 127 127 127 127 127 127 127 127 127 127 126 126 127 128 128 127 127 127 126 127 127 127 125 126 128 128 127 126 127 127 127 127 128 129 129 127 127 126 127 126 126 125 126 128 129 128 128 128 128 128 127 127 127 127 127 127 128 127 127 127 127 128 128 127 127 127 126 126 127 127 127 127 127 127 127 127 128 128 128 127 126 126 126 127 127 127 126 127 127 127 128 128 127 132
120 127 127 127 127 127 127 127 127 127 127 127 127 126 126 126 125 126 127 128 128 128 128 127 127 127 127 127 127 127 126 126 127 128 128 128 127 127 126 126 126 127 127 127 128 128 127 127 128 129 128 127 127 127 127 127 127 127 127 126 126 126 126 126 128 127 125 124 126 129 130 130 129 127 126 127 127 127 127 126 126 128 129 127 126 126 128 129 127 126 126 127 127 127 127 127 128 128 127 127 127 127 127 127 127 127 127 127 127 126 126 127 128 127 127 128 128 127 127 127 126 126 126 127 128 128 127 128 128 128 127 127 127 126 127 127 128 128 127 125 126 128 129 127 127 127 127 127 127 127 127 127 127 128 128 127 127 127 127 127 127 127 127 127 127 127 126 126 126 127 128 127 127 127 127 127 127 126 125 126 128 128 126 126 127 127 127 127 128 129 129 127 127 127 127 127 126 126 126 128 129 128 128 128 128 128 127 127 127 128 128 127 128 127 127 127 127 127 127 127 126 127 126 126 127 127 128 128 127 127 127 127 128 128 128 126 126 127 127 127 127 127 126 126 127 127 127 127 127 132
120 127 127 127 127 127 127 127 127 127 127 127 127 127 127 126 125 126 127 128 128 128 129 128 127 127 127 127 127 127 125 126 128 128 129 128 127 127 126 126 126 127 127 127 127 128 128 128 128 128 128 127 127 127 127 127 127 127 127 126 126 126 126 127 127 127 126 126 126 128 129 129 128 126 126 128 128 127 126 126 126 127 129 127 126 127 128 129 128 127 126 126 127 128 127 127 127 128 128 127 126 126 127 128 127 127 127 127 127 125 126 128 129 128 127 127 127 127 127 127 126 126 127 127 127 127 127 128 129 128 127 127 126 125 127 127 127 128 128 126 127 129 128 127 127 127 127 127 127 127 127 127 127 127 127 127 127 127 127 127 127 127 127 127 127 127 127 126 126 127 128 128 127 127 127 127 126 126 126 126 128 128 126 126 127 126 126 127 128 129 129 127 126 127 128 127 127 126 126 127 128 128 128 128 128 128 127 127 127 128 128 127 127 127 127 127 128 127 127 127 127 127 127 126 126 127 128 128 127 127 127 127 128 128 127 126 126 127 127 127 127 126 126 126 127 128 127 127 126 132
120 127 128 127 127 127 127 127 126 126 125 126 128 128 127 126 126 126 127 127 127 128 129 128 127 126 127 127 128 127 126 126 127 128 128 128 128 127 127 126 126 126 127 127 127 127 128 128 128 128 128 127 127 127 126 127 127 127 127 127 126 126 126 127 127 126 127 127 127 127 128 128 128 126 126 128 128 127 126 126 126 127 129 128 127 127 127 128 127 127 126 125 126 128 128 127 128 128 128 127 126 126 127 127 127 128 128 127 126 126 126 127 129 129 127 126 126 127 128 127 126 126 127 127 127 127 126 128 129 128 128 127 125 126 127 127 127 128 128 127 128 128 128 127 127 128 127 127 127 127 127 127 127 127 127 127 127 127 127 127 127 127 127 127 127 127 127 126 127 128 128 127 127 127 127 127 126 126 126 126 127 127 127 127 127 126 127 127 128 129 128 126 125 128 128 128 127 127 127 127 128 128 128 128 127 127 127 127 127 127 127 127 127 127 127 127 128 127 127 127 127 127 126 126 126 127 128 128 127 126 127 128 129 128 127 126 126 127 128 127 126 126 126 127 128 128 127 126 125 132
120 128 128 127 127 127 127 127 126 125 125 127 129 128 127 126 126 126 127 127 128 129 128 127 126 126 126 127 128 128 126 126 127 128 127 128 129 128 127 127 126 126 126 126 127 128 128 128 128 128 128 127 127 127 127 127 127 127 127 127 126 125 126 127 127 127 128 128 127 127 127 128 127 126 126 127 128 128 127 126 126 127 128 128 127 126 126 127 127 128 127 125 126 128 128 128 128 128 128 127 126 126 126 126 127 128 128 127 126 126 126 126 128 129 128 127 126 127 128 128 127 127 127 127 127 126 125 127 128 128 128 127 126 127 127 127 127 127 127 128 128 128 127 127 127 127 127 127 127 127 127 127 127 127 127 127 127 127 127 127 127 127 127 127 127 127 127 127 127 128 128 127 127 127 127 127 127 126 127 126 126 127 127 127 127 126 127 127 128 129 127 125 125 128 128 128 128 127 127 127 127 127 128 128 127 127 127 127 127 127 127 128 128 127 127 127 128 128 128 128 128 127 126 125 126 127 128 128 128 127 127 128 129 128 126 126 126 127 127 127 126 126 126 128 128 128 127 126 125 132
119 127 128 128 127 127 127 126 126 125 125 128 129 128 127 127 126 126 127 127 128 129 128 126 126 126 126 127 128 129 127 125 127 128 128 128 128 128 127 127 127 126 126 126 127 128 128 127 128 128 127 127 127 127 127 127 127 127 127 127 126 125 126 127 127 128 128 128 128 128 127 127 127 126 126 127 128 128 127 127 126 127 128 127 126 126 127 127 128 128 127 126 126 127 128 128 128 127 127 126 126 127 127 126 127 128 128 127 126 127 127 127 127 129 129 127 126 127 128 128 127 127 127 127 127 126 125 127 128 128 127 127 127 127 128 127 127 127 127 128 128 127 127 127 127 127 127 127 128 127 127 127 127 127 127 127 127 127 127 127 127 127 127 127 127 127 127 127 127 127 127 127 127 127 127 127 127 127 127 125 125 127 127 126 127 127 127 127 128 128 127 126 126 127 128 129 128 127 127 127 127 128 128 127 126 127 128 128 127 127 128 128 128 127 127 127 128 128 128 128 128 127 125 125 126 127 128 128 128 127 127 128 129 128 126 126 127 127 127 126 125 126 127 128 128 128 127 126 126 132
120 127 127 127 127 127 126 126 126 126 126 127 128 128 127 127 126 127 127 127 128 129 128 127 126 125 126 127 128 129 127 126 127 128 128 128 128 128 127 127 127 126 126 127 127 127 127 127 127 127 127 127 127 127 127 126 127 127 128 127 126 124 125 127 127 127 128 129 128 128 128 127 126 125 126 128 128 128 128 127 127 127 127 126 125 125 127 127 128 129 127 126 126 127 128 128 127 127 126 127 127 127 127 126 127 128 128 127 127 127 127 127 127 128 128 127 126 127 128 127 127 127 127 127 127 126 126 127 128 127 127 127 127 127 128 127 127 127 127 128 128 127 127 127 126 127 127 127 128 127 127 127 127 127 127 127 127 127 127 127 127 127 127 127 127 127 127 127 127 127 127 127 127 127 127 127 127 127 127 125 126 127 126 126 127 128 128 128 127 127 127 127 127 127 128 128 128 127 126 126 127 128 128 126 126 127 128 129 128 128 128 128 128 128 127 127 127 128 129 129 128 127 125 124 126 127 127 128 128 127 127 128 129 129 127 126 127 127 127 126 126 126 126 127 128 128 127 126 126 132
120 126 127 127 127 126 126 127 127 126 126 127 127 127 128 128 127 127 128 127 128 128 128 127 126 125 126 127 129 129 128 127 127 127 128 128 128 128 127 127 127 127 127 127 127 127 127 127 127 127 127 127 127 128 127 126 127 127 128 127 126 124 125 127 127 127 128 129 128 128 128 127 126 125 126 128 128 128 128 127 127 127 127 126 126 125 126 127 128 129 127 126 126 126 127 128 127 126 127 128 128 128 127 126 127 127 128 127 127 127 127 127 127 128 127 127 127 127 127 127 127 127 127 127 127 127 127 127 128 127 127 127 127 127 127 127 127 127 127 128 128 127 127 127 126 127 127 127 128 127 127 127 127 127 127 128 128 128 128 127 127 127 127 127 127 127 127 127 127 127 127 127 126 127 127 127 127 128 127 126 126 126 126 126 127 127 128 127 127 127 127 127 127 127 128 128 128 127 126 126 127 128 127 126 126 127 128 129 128 128 128 128 128 128 127 126 126 127 129 129 128 127 125 124 126 127 127 128 128 127 127 127 129 130 128 127 127 127 127 127 127 126 126 126 127 127 127 127 126 132
120 127 127 127 126 126 126 127 127 126 127 127 127 127 128 128 128 127 127 127 128 128 128 127 126 125 125 127 129 129 128 127 127 127 127 127 128 128 127 127 127 127 127 127 127 127 127 127 127 127 127 127 127 128 127 127 127 127 127 127 126 125 124 126 128 128 128 128 128 128 127 127 126 126 126 127 128 128 128 127 128 127 127 127 126 126 125 126 128 129 128 126 126 127 127 128 127 127 127 128 128 128 127 127 127 127 128 128 127 127 127 127 127 127 127 127 127 127 127 127 127 126 127 128 128 127 127 127 127 127 127 127 127 127 127 127 127 127 127 127 127 127 127 127 127 127 127 127 127 127 127 127 127 127 127 128 128 127 128 127 127 127 127 127 127 127 127 127 127 127 127 127 126 126 127 127 128 128 127 127 126 127 127 126 126 127 127 127 127 127 127 127 127 127 128 128 128 127 127 127 127 128 127 126 126 127 128 128 128 128 128 128 129 128 127 126 127 127 128 129 128 127 126 125 126 127 127 127 127 127 127 127 129 130 129 127 127 127 126 127 127 127 126 125 126 127 128 128 126 131
119 127 127 127 126 126 127 127 127 127 127 127 127 128 128 128 127 127 127 127 128 128 128 127 127 126 126 127 128 128 128 127 127 127 127 127 128 128 127 127 127 127 127 127 127 127 127 127 127 127 126 127 127 127 127 127 127 127 127 127 126 126 124 126 128 129 128 128 128 128 127 127 127 127 127 127 127 127 128 128 128 127 127 127 127 126 125 125 128 129 127 126 127 127 127 127 128 127 127 127 127 128 127 127 127 127 128 128 127 127 127 127 127 127 127 127 127 127 127 127 127 126 127 128 128 128 127 127 127 127 127 127 127 127 127 127 127 127 127 127 127 127 127 127 127 127 127 127 127 127 128 127 127 126 127 127 127 127 128 128 127 127 127 127 127 127 127 127 127 127 127 127 127 127 127 127 128 128 127 127 127 127 127 126 126 126 127 127 127 127 127 127 127 127 128 128 127 127 127 127 127 127 127 126 127 127 127 128 128 129 129 128 128 128 127 126 127 127 128 128 127 127 126 126 126 127 127 127 127 127 127 128 129 130 129 127 127 127 126 127 127 127 126 126 127 128 128 128 124 129
119 127 127 126 126 127 127 127 127 128 128 127 128 128 127 127 127 127 127 127 128 128 128 128 127 127 126 127 127 128 128 127 127 127 127 127 127 128 128 127 126 127 126 127 127 127 127 127 127 127 126 127 127 127 127 127 127 127 127 127 127 126 125 126 128 128 128 128 128 127 127 127 127 127 127 127 127 127 128 127 128 127 127 127 127 126 126 126 127 128 127 127 127 127 127 127 128 128 127 127 127 128 127 127 127 127 128 128 127 127 127 127 128 127 127 127 126 127 127 127 127 127 127 127 128 128 127 127 127 127 127 127 126 126 126 127 127 127 127 127 127 128 127 127 127 127 127 127 127 127 127 127 127 127 127 127 127 127 128 128 128 127 126 127 127 127 127 127 127 127 127 127 127 127 127 127 128 128 128 127 127 127 127 127 126 126 127 127 127 127 126 126 126 126 129 129 128 127 127 127 127 127 127 127 127 127 127 128 128 129 129 128 128 128 127 127 127 127 128 128 128 127 127 126 126 127 127 127 127 127 127 128 129 129 127 127 127 127 126 126 127 127 126 126 127 128 128 127 122 128
118 127 127 127 127 128 128 128 128 128 128 128 128 128 127 127 127 127 127 127 128 128 128 128 127 127 127 127 127 128 128 128 128 127 127 127 127 128 128 127 126 126 126 127 127 127 127 127 127 127 127 126 127 127 127 127 127 127 127 127 127 127 126 126 127 128 128 128 128 127 127 127 127 127 127 127 127 127 128 127 128 127 127 127 127 126 126 126 127 127 127 127 127 127 127 127 127 127 127 127 128 127 127 127 127 128 128 128 127 127 127 128 128 127 126 126 126 126 127 127 127 127 127 127 128 128 127 127 127 127 127 126 126 126 126 127 127 127 127 127 127 128 128 127 127 127 127 128 127 127 127 127 127 127 127 127 127 127 128 128 127 127 126 127 127 127 126 127 127 127 127 127 127 127 127 127 128 128 128 127 127 127 127 127 126 126 127 127 127 127 126 126 125 126 129 130 128 128 127 127 127 127 127 127 127 127 127 128 128 129 129 128 127 128 128 128 128 128 128 128 128 128 127 126 127 127 127 127 127 127 128 128 128 128 127 127 127 127 126 126 127 127 127 127 128 128 128 127 122 127
118 127 127 127 127 128 128 128 127 127 127 128 128 128 127 126 127 127 127 127 128 128 128 128 127 127 127 127 128 128 128 128 128 128 128 127 127 128 128 127 126 126 126 127 127 127 127 127 127 127 127 126 127 127 127 127 127 127 127 127 127 127 126 126 127 127 128 128 128 128 128 127 127 126 126 127 127 127 128 127 128 127 127 127 127 127 127 126 127 126 127 127 128 128 127 127 127 127 127 127 128 127 127 127 127 128 128 128 127 126 127 128 128 128 126 126 126 126 127 127 127 127 127 127 127 127 127 127 127 127 127 126 126 126 126 127 127 127 127 127 127 128 128 127 127 127 127 128 127 127 127 127 127 127 127 127 127 127 127 127 127 127 127 128 128 127 126 126 127 127 127 127 127 127 127 127 128 128 127 127 127 127 127 127 126 127 127 127 127 127 126 126 126 127 129 129 128 127 127 128 127 127 127 127 127 127 127 128 128 128 128 127 127 128 128 128 128 128 128 128 128 127 127 127 127 127 126 126 127 127 128 128 128 127 127 127 127 127 127 127 127 127 127 126 127 128 128 127 122 128
118 127 127 128 128 128 128 128 127 127 127 127 128 127 127 127 127 127 127 127 127 128 128 128 127 127 127 127 128 128 128 127 127 128 128 128 127 128 127 127 126 126 126 127 127 127 127 127 127 127 127 127 127 127 127 126 126 127 127 127 127 127 127 127 127 127 127 128 128 128 128 127 126 126 126 127 127 127 128 128 128 127 126 127 127 128 127 126 126 126 126 128 128 128 127 127 127 127 127 127 128 127 127 127 128 128 129 128 127 126 126 128 128 128 127 126 126 126 127 128 128 127 127 127 127 126 126 127 127 128 127 127 126 126 127 127 127 127 127 127 127 128 128 127 127 127 127 128 127 127 127 127 127 127 127 127 127 127 127 127 127 127 128 129 128 127 126 126 127 127 127 127 127 127 127 127 127 127 127 127 127 127 127 127 127 127 127 127 127 126 126 126 127 128 128 128 128 127 127 128 128 127 126 126 127 127 128 128 128 128 127 127 127 128 128 128 129 128 127 127 127 127 128 127 127 127 127 126 126 127 128 128 128 127 127 127 127 127 127 127 127 127 127 126 127 128 128 125 122 129
119 127 128 128 128 128 128 127 127 127 127 127 127 127 127 127 126 127 127 127 127 128 128 128 127 127 127 128 128 128 128 127 127 128 128 128 127 127 127 127 127 126 126 127 126 127 127 127 127 127 127 127 127 127 127 127 127 127 127 126 126 127 127 127 127 127 127 128 128 128 128 127 126 126 126 126 127 127 128 128 127 126 126 127 128 128 127 125 126 126 126 127 128 127 127 127 127 127 127 127 128 127 127 127 128 129 129 128 127 126 126 127 128 129 128 126 126 126 127 127 127 127 127 127 127 126 126 127 127 128 128 127 127 126 126 127 127 127 127 127 127 128 128 128 127 127 128 128 127 127 127 127 127 127 127 127 127 127 127 127 127 127 128 129 129 126 125 126 127 127 128 127 127 127 126 127 127 128 127 127 127 127 127 127 127 127 127 128 127 126 126 126 127 128 128 128 127 127 127 128 128 128 126 126 127 128 128 129 128 128 126 126 127 128 128 128 128 128 127 126 127 128 128 127 127 127 127 127 127 127 128 128 128 127 127 127 127 127 127 127 127 127 127 127 127 128 127 125 122 129
120 127 127 128 128 128 127 127 127 127 127 127 127 127 127 127 126 127 127 127 128 128 128 127 127 126 127 128 128 129 128 126 127 128 128 128 127 127 127 127 127 127 126 127 127 127 127 127 127 127 126 127 127 126 127 127 127 128 128 127 126 126 126 127 128 127 127 128 129 129 128 126 126 126 127 126 127 127 128 127 127 126 126 127 128 128 127 126 126 126 126 127 127 127 127 127 127 127 127 127 128 127 127 127 128 129 129 128 127 126 125 127 128 128 128 126 126 127 127 127 127 127 127 127 127 127 127 127 127 128 127 127 127 126 126 127 127 127 127 127 127 128 128 128 127 128 128 128 127 127 127 127 127 127 127 127 127 127 126 126 127 127 128 129 129 127 125 126 127 128 128 128 127 127 126 126 127 128 128 126 126 126 127 127 127 127 127 127 127 127 126 126 127 128 128 128 127 127 127 128 128 128 127 126 127 128 129 129 128 128 127 126 127 127 128 128 128 128 126 126 127 128 128 127 127 128 128 127 127 127 127 127 127 127 127 128 127 127 127 127 127 127 127 127 127 127 127 126 122 129
122 127 127 127 127 128 127 127 127 127 127 127 127 128 127 127 126 127 127 127 128 128 128 127 127 126 127 128 128 129 128 127 127 128 128 128 127 127 127 127 127 127 126 127 127 127 127 127 126 126 127 127 127 126 127 127 127 128 128 127 126 126 126 127 127 127 127 128 128 129 128 126 126 127 127 127 127 127 128 127 126 126 127 127 127 127 127 127 127 126 126 127 127 127 127 127 127 127 127 127 127 127 127 127 128 129 128 127 127 126 126 127 127 127 127 127 127 127 127 127 127 127 127 127 127 127 127 127 127 127 127 127 127 126 126 127 127 127 127 127 127 127 127 127 127 128 128 128 127 127 127 126 126 126 127 127 127 127 126 126 127 127 128 129 129 127 126 126 127 128 128 127 127 127 126 127 127 128 128 126 126 126 127 127 127 127 127 127 127 127 127 126 127 127 128 128 127 127 127 128 128 127 127 127 127 128 128 128 128 128 127 127 127 127 127 127 127 127 127 127 127 128 127 127 127 128 128 127 127 127 127 127 127 127 127 127 127 127 127 127 127 127 127 127 127 127 127 126 123 128
