P2
# Simple pgm image example
250 360
255
167 180 179 177 175 174 174 173 172 171 170 170 171 174 176 175 176 177 176 174 175 175 173 171 170 169 170 172 173 172 170 169 169 170 170 170 169 169 168 167 167 169 169 169 169 169 170 171 170 169 170 171 173 172 170 168 168 167 167 168 169 170 172 174 174 173 171 171 170 171 171 172 173 172 171 171 171 173 175 174 173 174 175 176 177 176 175 175 174 172 171 174 177 175 171 170 170 172 173 174 172 172 174 175 177 178 177 175 175 175 177 178 178 178 178 176 172 170 170 171 171 171 171 172 172 171 170 170 171 172 171 171 172 175 176 174 171 170 170 171 170 170 170 171 171 171 170 169 169 169 170 169 167 168 169 169 168 167 167 168 167 167 167 167 168 169 169 171 171 171 173 174 172 171 170 169 166 164 164 165 167 167 166 165 165 166 166 165 164 164 165 165 166 166 166 166 167 168 169 168 166 165 166 166 168 168 168 167 166 165 165 165 165 165 166 168 168 168 169 170 170 169 168 167 165 164 164 163 163 163 163 162 162 162 162 162 162 162 163 163 164 165 164 163 162 162 161 162 162 154
129 127 126 127 130 132 130 125 122 124 127 129 128 127 127 127 127 129 131 131 130 129 128 127 127 126 127 127 128 127 126 123 123 127 131 130 130 131 134 133 132 132 132 131 130 127 122 121 124 127 127 126 123 121 122 126 129 130 130 130 129 130 132 131 129 128 130 131 131 131 130 127 126 129 131 131 130 128 129 130 131 130 128 125 123 122 124 127 129 130 133 136 138 136 131 128 127 128 129 130 131 132 133 134 133 130 128 128 131 133 131 129 128 127 127 126 128 128 128 127 127 129 131 130 128 126 125 125 127 127 129 131 131 129 128 129 129 129 130 131 132 132 131 129 126 124 124 125 126 126 125 125 124 124 123 124 125 126 127 127 127 128 129 129 129 129 127 127 127 129 129 129 128 127 126 125 126 128 127 123 123 127 130 129 128 128 127 127 128 128 128 128 128 127 127 126 127 128 129 128 127 127 128 128 128 128 128 127 127 127 128 129 129 129 129 128 128 130 132 131 126 124 123 123 124 124 124 124 125 125 124 124 126 126 126 126 125 126 126 126 125 124 124 124 124 125 125 126 127 127
127 128 128 128 131 135 135 131 129 129 130 132 133 132 130 130 129 128 128 128 127 127 128 129 130 129 128 127 125 126 127 126 125 127 129 129 128 128 132 134 133 131 131 133 133 131 128 126 127 128 127 125 125 126 127 129 132 134 132 129 128 128 129 128 127 127 129 129 130 131 132 130 129 130 132 133 134 133 131 132 134 132 128 125 125 127 128 127 130 135 134 131 130 130 131 131 129 128 127 128 129 130 129 130 128 124 123 127 132 134 132 129 129 130 129 129 130 131 130 128 128 130 131 128 128 132 136 137 135 135 136 139 137 132 127 128 131 132 131 131 131 132 130 128 126 126 127 128 129 129 127 127 127 125 124 124 125 126 126 127 128 129 131 132 131 130 129 127 127 126 125 124 125 126 126 126 127 129 130 129 127 127 128 128 126 125 125 127 128 129 128 128 128 129 129 129 129 129 128 129 129 129 129 130 129 128 127 127 128 128 127 127 128 128 128 127 127 129 130 128 125 124 124 125 127 128 128 127 126 125 125 125 126 127 127 127 127 126 126 126 127 127 127 127 127 127 127 127 127 126
129 131 132 131 130 130 128 127 128 129 131 130 129 128 128 127 127 127 127 127 127 127 126 128 131 133 133 130 126 125 127 129 130 129 128 129 127 126 127 130 131 130 131 133 133 132 131 129 127 127 128 128 130 132 132 130 129 131 131 129 127 125 122 123 125 129 132 132 131 130 130 130 130 130 129 131 133 132 130 129 129 129 128 127 126 128 128 126 128 131 131 128 126 127 130 131 130 128 126 126 126 126 125 125 124 122 125 129 129 129 132 133 132 130 129 128 130 132 131 128 128 132 134 133 134 138 143 144 143 143 144 144 142 135 127 126 130 132 132 131 130 130 131 132 133 133 132 130 130 130 129 128 128 128 127 127 127 127 128 128 128 129 129 130 130 129 127 126 125 124 124 124 125 127 127 127 127 128 130 130 129 128 128 128 128 127 127 128 129 129 129 128 129 132 134 134 134 132 131 130 130 130 131 131 133 132 130 129 130 130 129 130 131 130 128 127 127 125 122 122 124 125 125 127 128 129 129 129 128 127 129 129 129 128 128 128 128 127 127 127 128 128 128 128 128 128 129 128 126 126
132 134 133 131 126 122 120 123 126 127 127 126 124 123 124 126 126 128 130 132 131 128 128 129 131 133 133 132 129 127 128 131 131 129 126 126 127 126 125 126 128 127 127 128 128 129 128 126 126 126 127 129 131 132 131 129 127 126 127 129 128 127 126 128 130 133 135 136 133 128 126 128 130 129 127 127 126 125 124 124 124 126 128 127 125 124 124 126 126 125 127 129 128 129 130 131 131 130 130 130 130 129 128 127 127 129 130 129 126 124 127 132 133 129 127 127 130 133 133 131 132 135 136 138 140 140 140 143 144 144 143 140 137 132 130 130 132 134 135 136 136 136 135 133 133 134 133 130 130 132 132 130 129 129 130 129 128 128 129 129 128 127 126 126 127 128 127 126 125 126 127 127 128 129 128 127 127 127 127 127 128 128 128 129 130 131 131 130 129 129 131 130 130 132 134 135 134 132 129 128 130 130 130 132 132 132 131 129 129 129 131 132 132 130 129 129 129 125 122 123 125 127 127 127 127 127 127 126 127 127 128 130 130 129 128 128 128 128 128 127 125 125 126 128 129 130 130 128 127 127
128 128 128 128 126 122 122 126 129 128 125 124 125 125 124 126 127 128 130 132 129 127 128 130 130 129 128 128 128 127 126 127 126 125 123 125 127 128 127 125 125 125 125 125 125 124 125 127 128 129 129 131 133 132 131 131 129 125 125 126 127 128 132 132 131 132 132 131 129 127 128 131 131 128 125 125 125 125 124 123 125 127 130 130 128 125 127 130 128 126 127 129 129 127 126 126 129 131 131 131 131 131 131 131 132 135 135 133 132 129 127 128 129 128 128 130 132 135 137 138 138 135 135 137 139 137 136 135 136 136 133 130 129 131 135 138 138 136 135 139 144 142 138 134 133 134 133 130 129 130 131 130 129 130 130 130 130 129 128 128 128 127 126 126 127 128 128 127 126 127 129 130 130 130 129 128 128 127 127 126 128 130 131 131 132 132 133 132 130 129 131 131 130 129 129 130 131 130 128 128 129 130 131 131 129 127 128 129 128 128 129 129 126 126 127 127 127 127 127 127 127 128 128 128 128 127 127 126 126 127 127 128 128 129 129 128 128 127 127 126 125 125 126 127 128 129 129 128 128 128
120 119 121 124 127 126 127 129 130 129 126 126 128 128 126 124 124 126 127 125 123 125 128 128 126 125 125 126 127 127 126 124 123 122 122 124 128 129 129 128 127 128 127 124 124 126 130 132 130 130 132 133 132 131 132 133 131 128 128 126 125 127 128 128 127 127 126 123 124 128 130 130 129 127 126 127 129 130 131 130 128 128 129 130 130 129 132 134 133 131 131 129 126 124 123 125 128 130 130 129 129 130 131 131 133 136 137 137 135 133 130 126 124 124 126 128 128 128 132 138 139 136 133 132 131 131 131 128 125 125 124 122 125 132 138 139 138 136 135 137 137 136 135 135 134 132 131 130 129 128 127 127 128 128 129 129 130 129 128 128 127 127 128 128 127 127 128 127 126 126 127 128 129 130 130 130 130 130 129 130 132 136 136 132 130 131 132 132 130 128 128 129 129 126 124 125 128 129 129 128 127 130 131 128 125 125 127 128 128 127 127 125 124 125 126 124 124 126 129 129 128 127 127 127 127 127 127 127 127 128 129 128 128 128 128 127 127 127 126 127 128 129 127 126 127 129 129 129 129 128
121 122 125 126 127 129 130 130 130 131 130 126 124 123 122 122 125 125 123 121 123 127 129 126 124 125 125 125 127 129 129 126 124 123 124 126 127 126 126 127 128 129 127 126 128 131 133 132 129 128 129 130 129 129 130 130 131 132 131 130 129 128 127 126 124 123 122 121 124 126 127 127 128 129 131 131 131 131 132 133 131 129 129 130 132 133 133 133 132 132 131 128 126 126 127 127 128 130 131 131 131 132 131 131 131 132 133 132 130 130 132 128 123 123 126 127 126 125 127 130 130 127 123 122 123 124 125 123 119 117 118 119 122 128 131 130 128 129 132 130 124 124 128 130 129 126 127 130 132 131 130 130 128 127 127 128 129 130 130 130 128 128 129 131 131 129 129 128 127 126 124 124 126 128 130 131 130 128 127 128 128 129 130 129 127 127 129 129 130 129 127 128 128 126 123 122 122 124 125 125 126 129 129 126 125 126 127 127 127 128 127 125 126 127 127 126 124 125 126 128 128 126 125 125 126 126 126 127 128 129 129 128 127 127 128 128 127 126 126 127 128 128 127 127 127 128 129 129 128 128
126 130 133 130 126 127 128 127 127 129 129 126 123 122 122 123 125 125 122 122 124 127 127 124 124 125 125 124 125 127 128 126 125 126 128 127 126 125 124 125 126 126 128 129 129 129 128 127 129 128 128 129 129 130 131 130 131 131 129 129 130 129 127 126 124 122 122 125 128 127 127 128 128 130 132 131 128 126 127 130 132 133 132 133 135 135 132 130 129 129 127 126 126 129 131 131 129 129 130 131 132 133 132 130 129 131 131 130 131 131 130 129 129 129 127 127 129 128 125 123 123 121 120 120 122 124 124 121 118 117 118 120 121 124 125 123 121 123 126 124 122 124 128 129 128 128 131 134 134 132 132 133 132 130 128 128 130 131 133 132 132 131 132 133 134 131 127 126 127 126 125 124 123 124 126 126 126 126 126 126 124 121 122 126 127 126 126 126 128 130 129 126 125 127 127 124 121 121 123 126 130 132 131 131 133 133 130 130 132 131 128 127 127 128 129 128 126 124 125 128 129 127 126 126 127 128 128 129 129 128 128 127 127 127 127 127 127 127 127 127 126 126 127 129 129 127 127 128 127 127
130 131 132 129 126 126 127 127 126 124 125 127 126 125 126 126 126 126 126 126 128 128 127 127 127 126 127 127 124 123 124 125 127 129 130 127 125 126 129 130 128 127 127 126 125 124 125 128 131 132 132 132 130 129 128 129 130 129 127 125 126 126 124 124 125 124 124 127 129 128 127 126 126 128 131 130 128 126 126 129 132 133 134 135 136 134 132 129 126 124 124 125 126 129 132 132 130 129 130 131 131 130 129 129 131 133 135 135 134 130 126 129 134 134 129 127 128 127 125 126 128 132 133 131 130 132 132 130 128 128 129 131 131 127 123 123 125 126 126 125 127 128 128 128 129 131 134 134 131 129 128 129 133 136 135 130 128 131 133 132 133 134 134 133 132 129 126 125 125 126 126 125 123 123 124 125 126 126 129 133 132 124 121 124 126 126 125 125 127 129 128 126 125 127 128 127 124 123 125 125 128 130 131 132 133 132 129 130 131 130 130 129 127 126 126 127 127 126 126 127 128 128 128 129 129 130 131 131 131 129 127 127 127 127 126 126 128 130 130 128 126 126 128 129 129 128 127 126 126 126
130 128 125 126 127 128 129 130 129 126 126 128 128 127 128 129 127 126 127 129 130 128 126 126 126 126 128 129 127 124 123 126 128 128 128 127 126 129 131 130 128 128 127 126 126 127 128 128 129 133 134 132 130 128 128 130 131 131 129 127 126 126 125 124 126 128 127 125 123 124 124 124 125 127 129 130 130 131 130 130 129 129 130 132 133 132 130 129 127 125 123 125 127 128 130 131 131 132 132 133 131 127 127 129 131 129 129 131 130 128 128 130 132 132 131 130 130 133 136 137 136 137 139 139 138 138 136 135 136 136 135 135 134 130 127 127 127 127 126 126 127 127 126 126 128 131 131 129 129 130 129 128 131 136 137 134 132 132 132 130 130 131 130 128 127 126 127 128 127 127 128 128 127 125 125 126 127 127 129 133 131 125 123 124 126 127 127 126 124 124 125 127 126 125 124 125 125 125 125 125 123 123 125 126 125 125 127 129 127 126 128 129 128 126 125 126 128 128 127 125 125 127 129 128 127 127 129 130 129 129 128 128 129 128 127 126 127 128 129 129 129 129 129 129 129 128 127 127 127 128
127 123 122 126 128 128 126 125 126 126 127 128 129 130 131 131 129 125 125 129 128 126 125 125 125 124 123 124 126 127 126 127 127 125 124 124 126 127 125 124 126 128 128 129 131 131 127 125 125 128 130 130 129 130 131 131 131 131 131 131 129 129 128 126 127 127 126 124 123 124 124 124 125 126 125 125 126 126 126 125 124 124 125 126 127 128 128 129 130 129 126 127 129 129 127 128 129 131 133 133 132 129 128 129 128 124 124 126 128 131 133 132 132 132 133 133 132 135 137 135 133 132 133 137 139 135 130 129 132 132 129 127 127 128 131 132 130 127 125 125 126 125 125 126 129 130 129 128 130 132 133 134 134 133 135 137 137 136 135 134 130 126 124 122 121 123 127 129 129 129 130 131 130 127 124 125 127 127 125 121 121 124 126 126 126 126 126 125 123 121 122 124 124 123 122 124 125 125 127 128 125 120 119 118 117 121 127 130 128 126 126 128 129 128 128 128 128 129 128 126 126 127 128 127 125 125 126 126 127 129 130 130 130 129 129 128 127 126 126 127 129 130 129 128 128 128 129 129 130 129
126 124 124 127 129 128 126 122 121 123 125 126 128 129 129 130 129 127 128 129 128 126 127 128 127 124 123 124 126 127 127 127 127 127 125 125 126 125 122 122 125 127 128 127 127 128 127 126 127 126 125 125 126 128 130 129 127 127 127 127 126 125 127 129 129 127 125 126 128 128 127 126 126 125 124 123 124 125 123 123 123 125 125 122 121 123 127 129 132 132 131 132 133 131 128 126 126 126 127 129 131 131 131 129 127 127 128 129 130 133 134 133 133 133 132 131 130 130 130 131 131 129 128 131 134 130 127 129 132 133 134 132 129 130 133 136 136 133 129 128 127 126 125 127 128 127 127 131 134 132 132 134 133 131 131 133 134 133 134 134 132 127 125 123 121 122 126 128 128 129 131 133 132 128 123 123 125 126 123 118 119 124 127 126 125 125 126 126 126 125 124 124 125 125 125 125 126 126 126 126 125 121 119 119 120 122 126 127 127 127 127 127 128 129 131 130 129 129 128 127 126 127 127 127 127 127 126 126 127 129 130 130 129 129 129 129 128 126 126 126 127 128 127 126 125 126 127 129 128 127
129 127 126 127 128 130 132 132 129 128 128 127 126 127 128 127 127 129 129 127 125 125 128 129 129 128 128 128 127 127 127 127 128 129 130 129 128 128 128 128 126 125 127 126 125 126 128 129 129 127 124 122 122 123 125 125 123 123 124 125 126 127 130 134 134 133 131 131 132 133 132 131 128 126 126 127 130 131 128 126 127 130 130 126 122 123 125 128 128 129 133 135 133 131 130 129 127 125 124 125 128 131 133 133 133 132 129 128 129 132 133 131 128 128 129 130 131 130 127 128 129 128 125 122 118 115 118 124 130 133 135 132 130 130 131 131 133 134 133 129 128 130 132 133 130 127 128 133 134 130 128 131 130 126 122 121 123 125 128 129 129 127 126 125 124 124 125 127 128 129 130 132 132 129 126 125 125 125 125 124 124 124 125 125 126 128 129 128 128 127 127 127 128 128 127 126 126 125 123 123 124 125 125 126 127 126 124 123 124 126 126 126 127 128 128 127 126 126 126 126 126 125 125 126 128 128 128 128 129 129 128 128 128 128 127 127 128 127 127 127 126 125 126 126 126 125 124 124 125 125
128 129 129 128 128 129 132 135 136 135 134 130 126 126 129 130 130 130 128 125 124 125 127 128 129 129 128 127 128 128 128 128 129 130 129 128 129 131 132 132 129 127 127 129 129 127 128 132 131 129 127 124 122 120 121 122 122 123 126 128 130 131 132 132 132 132 131 131 130 130 130 130 128 127 128 130 131 130 130 131 133 134 133 132 129 127 127 127 126 127 132 134 133 132 132 131 129 127 126 125 127 128 131 134 135 132 128 127 130 131 130 129 128 128 131 134 135 131 124 119 116 114 113 108 100 96 100 104 107 110 110 111 116 119 118 115 118 123 127 127 129 134 139 140 137 131 128 127 127 127 127 129 129 125 120 119 122 123 123 123 122 122 123 124 126 126 126 129 130 130 129 127 127 129 129 128 127 127 128 128 126 125 125 126 127 127 126 126 127 128 129 129 129 130 130 129 127 126 125 125 126 128 128 128 128 127 124 124 126 128 128 126 127 126 125 125 126 126 127 128 127 127 126 127 129 130 129 129 130 129 128 128 127 126 126 127 129 130 129 128 127 126 127 128 128 127 126 125 125 126
128 133 137 136 132 129 129 130 133 134 133 131 130 130 130 130 130 130 129 126 126 127 127 127 128 128 128 128 130 130 129 130 130 130 129 129 129 128 127 128 129 127 126 127 128 126 126 128 130 130 127 123 121 121 121 121 122 125 129 131 133 132 129 126 126 129 131 130 126 123 122 123 125 128 130 130 128 126 128 133 136 133 129 127 129 130 129 126 127 130 131 130 128 128 130 131 129 127 126 127 127 127 128 130 132 131 132 133 132 129 128 131 132 130 129 126 122 116 108 100 94 93 94 93 91 90 89 87 83 83 85 89 95 98 97 97 100 105 111 116 121 126 130 133 133 131 128 124 123 127 130 129 128 127 125 127 130 128 123 120 122 126 128 129 131 132 131 130 130 130 127 125 126 130 131 129 128 128 128 128 127 127 127 127 128 126 126 126 128 129 129 128 128 129 130 131 131 130 132 133 132 130 131 130 128 128 129 129 129 129 128 127 127 127 126 126 128 128 127 128 129 128 128 128 129 130 130 131 131 130 130 130 128 127 127 129 130 130 129 129 128 129 129 128 128 128 129 129 128 128
133 135 135 134 131 129 128 127 127 128 129 130 131 130 128 126 126 127 127 126 125 125 125 124 125 127 129 131 132 132 131 130 130 131 132 130 127 124 123 122 123 123 123 121 120 121 123 122 123 124 123 122 124 126 123 120 122 125 128 129 130 129 126 124 125 129 131 130 128 126 122 120 122 126 128 126 124 123 124 125 123 121 121 122 124 126 125 124 124 124 123 121 121 122 125 127 127 126 125 124 124 125 128 130 130 131 132 132 128 124 123 124 121 113 105 96 88 84 82 81 81 83 84 87 91 93 91 88 84 83 84 84 83 81 82 86 89 90 93 97 100 101 103 107 114 125 130 128 127 131 134 131 129 129 132 135 135 129 123 124 131 136 137 135 134 134 133 130 131 132 132 129 128 129 130 130 129 127 125 126 128 128 127 127 127 127 127 127 128 128 127 126 125 125 125 127 129 131 133 133 131 130 130 128 125 126 129 128 124 122 124 126 128 128 126 125 127 130 128 128 129 128 128 127 126 126 129 132 132 131 130 129 129 129 129 129 129 129 128 129 130 130 129 127 126 127 128 129 129 128
130 127 124 124 124 126 128 128 127 127 128 129 131 130 129 128 126 125 125 126 125 125 125 125 126 128 132 135 135 133 131 131 131 130 130 128 127 128 126 124 123 123 124 123 121 122 125 126 125 125 125 128 131 130 128 126 128 129 127 125 127 128 129 128 127 125 126 128 129 129 129 128 126 125 123 123 124 124 123 120 117 118 122 125 125 123 123 124 124 123 121 120 122 125 127 128 126 126 125 122 122 127 131 131 129 129 129 127 123 117 106 96 89 83 80 79 79 84 91 98 103 105 106 108 111 112 112 111 111 110 109 106 103 100 100 99 96 91 88 87 87 87 87 90 101 116 125 127 130 134 135 132 131 132 136 137 134 128 127 130 134 135 134 132 130 130 131 132 132 133 134 134 130 124 122 126 128 128 127 127 127 127 127 126 125 125 127 129 130 129 127 127 126 126 125 124 125 127 128 127 127 128 128 127 126 126 127 125 122 122 124 127 128 127 125 125 127 129 129 129 128 127 128 128 128 128 128 129 130 130 127 126 129 131 131 129 128 127 127 127 128 128 127 126 125 126 127 128 129 129
124 121 119 120 122 125 127 128 128 128 128 129 131 133 134 134 131 128 129 129 128 127 128 130 131 130 131 132 132 130 129 129 129 128 127 127 129 129 128 128 127 127 128 127 127 127 127 127 127 129 132 133 130 129 132 135 134 131 129 128 128 129 131 131 127 123 122 126 129 129 130 131 130 128 125 125 127 129 129 126 125 127 128 129 129 129 128 128 128 128 126 127 128 129 128 126 127 128 126 126 129 133 131 127 125 125 123 117 106 96 87 80 78 85 95 103 109 114 119 123 126 127 126 126 127 127 127 127 128 128 127 126 125 125 124 121 116 111 107 103 99 94 91 90 93 97 106 118 127 130 130 130 132 134 134 131 129 131 133 131 129 129 130 129 129 129 130 129 127 127 127 129 128 124 121 124 127 129 129 129 128 128 129 130 128 127 129 131 130 129 129 129 129 127 125 125 126 127 126 125 126 127 127 129 130 130 128 127 128 129 130 129 127 127 129 129 127 126 127 127 125 126 129 131 132 132 130 127 127 129 129 128 128 129 130 129 127 127 127 128 127 126 125 126 126 126 128 130 130 129
124 121 119 119 124 128 126 126 126 127 128 128 130 133 135 135 133 130 129 129 129 129 130 130 130 130 128 126 126 128 129 129 128 128 127 127 127 126 127 128 128 129 128 128 129 129 127 126 126 127 130 131 127 125 127 130 129 126 126 128 127 126 126 128 128 126 124 126 128 129 128 128 128 129 128 127 128 131 132 132 131 130 128 128 130 132 132 130 129 128 127 128 130 128 124 123 126 127 127 130 133 132 129 124 118 110 99 88 80 80 87 97 105 114 121 126 127 127 128 128 127 126 126 125 125 125 126 126 126 126 127 127 127 127 127 128 127 126 125 123 118 112 107 102 94 84 83 92 104 112 118 122 127 130 131 129 130 132 132 127 124 124 125 126 126 124 124 125 124 122 121 121 124 129 132 130 128 129 130 129 129 131 132 134 134 132 131 130 130 131 131 131 130 127 125 126 127 126 123 123 125 127 126 128 131 132 131 132 133 133 132 130 131 133 134 132 128 126 125 126 127 128 128 129 130 131 132 130 127 128 132 132 128 126 128 129 128 128 129 128 127 126 126 127 128 128 130 130 130 129
123 120 120 122 127 129 127 125 125 127 130 131 131 132 132 132 131 130 128 130 131 131 129 126 126 129 129 127 125 126 129 130 129 127 127 127 127 127 127 127 128 129 128 128 129 130 129 128 129 128 123 121 122 122 121 123 126 127 127 127 126 123 123 124 126 126 125 125 126 127 129 130 129 127 127 130 130 129 129 130 130 129 127 123 123 125 127 127 127 127 127 127 125 123 123 126 127 127 128 128 128 125 120 112 100 90 82 79 86 98 109 118 125 127 127 127 127 127 127 126 126 126 126 126 126 126 126 125 124 124 125 126 127 128 128 128 128 129 129 128 126 125 123 119 112 103 94 84 81 88 99 111 119 125 128 131 135 137 137 132 126 122 121 122 122 121 122 126 129 126 123 121 122 128 132 131 128 126 127 128 129 131 130 129 131 132 128 127 130 132 132 132 133 134 132 130 129 127 125 125 126 126 124 125 129 130 129 130 131 132 130 129 131 132 131 131 130 129 128 129 130 129 128 126 126 127 128 128 126 128 132 133 129 127 127 128 129 131 131 130 128 127 127 127 129 131 132 131 129 127
125 125 126 127 128 128 128 127 124 126 130 133 133 131 127 124 125 127 128 129 131 130 127 126 126 129 130 130 128 127 129 132 132 130 128 127 127 128 128 129 129 128 127 129 130 130 129 127 126 126 123 121 123 125 126 128 131 131 129 127 126 125 123 120 120 123 126 126 127 130 131 133 133 128 127 129 129 128 127 128 128 130 129 124 122 124 127 129 130 131 132 130 125 121 122 127 130 130 131 129 124 119 110 99 90 88 93 103 114 122 127 129 130 130 130 128 127 127 126 126 126 126 126 127 127 127 126 126 125 124 124 125 127 128 127 127 127 128 129 129 129 128 127 126 125 124 118 107 94 85 86 97 107 116 125 130 133 135 137 136 133 130 127 124 123 126 130 133 134 134 132 128 125 126 128 129 129 127 127 129 131 130 127 125 126 127 126 124 125 128 130 130 132 134 136 135 133 131 130 129 129 128 128 130 130 130 130 129 127 126 126 126 125 125 128 132 133 130 129 128 129 129 128 127 127 127 125 125 128 131 131 130 130 129 127 128 130 132 132 131 130 129 127 128 129 131 130 129 127 127
129 132 134 133 129 127 127 129 128 127 128 129 129 128 125 123 123 124 126 127 127 126 126 128 128 126 126 127 129 130 131 131 132 131 128 127 128 128 129 129 128 126 126 130 132 131 129 126 122 123 126 128 128 128 131 132 131 129 128 128 129 131 130 127 126 128 131 130 128 129 131 133 131 127 126 126 126 128 130 132 132 129 127 128 129 130 132 133 133 134 135 135 134 132 130 131 133 134 133 125 117 109 102 97 98 104 114 123 127 127 127 128 128 130 130 129 128 127 127 127 126 126 126 126 126 126 127 127 127 127 128 128 127 127 127 126 126 127 127 128 129 129 129 128 127 126 125 124 118 108 96 89 91 101 114 124 127 126 127 131 135 135 131 129 130 132 133 131 131 133 134 133 131 129 128 129 132 132 131 131 131 129 127 127 126 126 128 127 124 126 129 128 126 126 129 131 131 131 131 131 131 133 137 139 137 135 136 135 132 129 126 126 127 129 133 133 131 130 130 129 130 130 129 129 132 131 129 129 131 130 127 125 127 128 128 128 130 129 129 129 130 130 130 129 129 127 125 125 126 127
131 135 134 131 127 124 125 129 132 131 126 125 126 125 127 128 127 125 124 124 125 125 125 126 125 123 123 122 124 129 130 129 128 128 129 130 130 129 128 127 127 127 127 128 130 130 129 129 127 125 126 129 129 128 127 128 129 129 129 129 130 132 133 133 133 133 131 129 125 123 125 127 126 126 126 124 124 128 131 131 129 127 128 132 133 131 130 129 129 131 132 133 136 140 140 135 133 132 127 116 106 99 96 100 110 120 126 128 127 127 126 125 126 128 128 128 127 127 127 127 128 127 126 126 127 127 127 126 127 129 129 127 126 126 127 127 126 126 126 126 127 128 129 128 127 127 127 126 126 124 116 105 96 93 99 112 122 126 126 130 132 131 129 131 136 136 133 129 128 128 131 134 134 131 128 128 130 132 133 132 129 127 128 130 129 130 132 132 130 129 130 130 128 127 128 129 131 132 132 132 133 135 138 137 136 135 133 133 135 133 128 126 127 130 130 129 128 130 135 137 135 133 131 131 131 131 132 132 131 126 124 124 124 124 126 127 127 126 125 126 129 131 131 130 128 126 124 125 126 127
131 131 130 128 125 123 123 125 129 130 128 127 127 127 127 127 127 127 126 125 126 126 125 124 125 125 124 123 124 127 130 129 127 127 129 130 130 130 130 130 131 131 131 132 132 131 130 129 128 126 125 127 130 131 129 128 130 131 129 130 129 127 126 128 130 128 125 124 124 122 120 119 121 124 126 127 129 130 130 127 125 126 131 132 131 128 127 126 127 127 127 129 131 134 135 133 130 124 115 107 100 95 100 111 121 127 128 128 128 128 128 128 128 128 127 126 127 127 127 127 128 128 127 125 126 126 126 126 128 128 126 125 126 126 126 127 127 126 126 126 126 126 126 127 127 127 127 127 126 126 126 124 115 100 91 97 111 123 130 132 132 132 133 135 138 138 135 131 130 128 128 129 130 132 131 128 127 131 134 133 130 129 131 132 133 133 133 132 132 131 130 132 134 135 134 133 133 133 132 133 133 132 131 130 131 131 128 127 127 129 129 127 124 124 126 128 128 130 132 134 133 131 132 131 127 126 127 128 127 125 124 125 125 125 126 127 126 125 125 126 128 131 132 131 130 128 127 126 127 127
130 128 126 125 125 127 127 123 123 126 128 128 127 126 125 125 126 129 132 131 129 128 127 127 128 130 129 129 128 128 129 129 127 126 128 128 128 129 131 131 130 131 133 135 134 133 131 128 126 125 125 126 129 130 128 126 127 128 129 131 130 126 122 123 124 124 123 124 127 127 124 120 121 123 127 131 134 134 131 128 127 129 130 129 128 127 126 125 125 125 125 126 127 127 127 128 125 114 105 102 101 105 115 123 127 127 127 127 127 128 128 129 130 129 127 127 127 127 126 126 126 127 126 126 125 125 126 127 127 127 126 126 126 126 126 126 127 127 127 127 126 126 126 126 127 128 129 129 127 127 126 126 124 117 103 91 89 103 122 130 132 135 139 141 140 138 134 132 130 128 124 122 126 133 136 134 131 130 131 130 130 130 130 130 130 130 130 130 132 131 130 132 135 136 134 133 131 129 128 130 131 129 128 130 133 133 130 127 126 129 133 132 127 126 128 130 131 129 127 127 127 127 128 128 127 125 123 120 121 124 126 128 129 128 127 127 126 128 131 131 130 130 131 132 131 130 128 127 127 127
128 129 128 126 127 129 129 125 123 123 124 125 125 124 124 127 129 132 134 134 134 133 131 130 129 131 133 134 133 129 128 128 129 130 130 130 129 128 128 127 128 131 133 132 130 130 131 133 134 133 133 132 129 127 126 127 126 126 128 127 125 125 125 125 125 125 125 125 128 129 128 127 127 128 131 132 132 132 129 126 126 128 128 127 127 127 128 126 125 127 128 128 128 128 126 122 113 104 103 106 113 122 127 128 127 127 127 126 126 126 127 129 131 129 127 127 127 127 126 126 126 127 128 128 127 127 128 128 127 127 127 127 127 127 127 127 128 128 128 128 128 127 127 127 127 127 128 128 127 127 126 126 126 126 120 104 88 84 98 116 128 134 136 138 137 136 137 136 132 129 127 127 128 130 133 134 132 129 126 127 130 129 126 124 125 127 127 128 129 130 131 131 131 131 131 130 128 127 128 129 131 132 132 132 133 133 132 132 130 131 132 131 129 128 129 129 130 129 129 128 127 127 127 127 127 127 125 122 122 123 126 129 132 131 129 128 128 129 132 134 133 130 129 131 132 131 130 128 127 126
126 127 128 130 130 130 128 126 124 123 122 123 125 124 124 127 130 130 130 131 132 133 134 132 128 128 132 134 134 131 128 128 131 133 132 131 131 129 127 128 130 132 132 131 129 129 132 135 137 137 136 133 131 130 131 131 131 129 125 121 121 124 128 130 129 127 128 129 128 126 126 128 130 131 131 130 128 127 126 125 126 126 124 126 129 129 129 128 127 130 133 133 131 129 126 116 104 100 106 116 124 128 129 128 127 127 126 126 126 126 127 129 131 129 127 127 128 127 127 127 127 128 129 129 129 128 128 128 128 128 128 128 129 129 129 128 128 128 128 128 128 127 127 127 127 127 126 127 128 127 127 127 126 126 125 120 109 94 86 100 122 132 132 130 129 131 135 136 134 134 135 135 132 128 127 129 131 130 127 127 129 131 131 128 127 127 126 125 124 124 126 126 124 123 124 124 124 126 129 130 132 134 135 132 127 127 130 132 130 128 127 128 128 128 126 124 126 130 131 129 126 126 128 129 126 125 126 127 126 126 124 126 130 132 132 131 130 129 130 132 133 131 128 128 130 131 132 132 129 127
125 122 124 129 132 131 130 128 125 123 124 126 127 126 125 124 126 127 128 129 128 129 131 131 128 127 128 129 129 129 129 128 128 127 124 122 124 127 129 131 132 132 131 130 130 131 132 130 129 131 132 131 132 133 133 130 128 126 123 123 126 128 130 131 129 127 128 129 128 126 126 128 130 131 130 129 126 123 125 128 128 125 124 125 128 130 127 127 129 131 131 129 126 123 117 106 100 103 112 123 128 128 127 127 128 128 127 127 127 127 127 128 129 127 126 126 127 127 128 128 128 128 128 128 127 127 127 127 127 128 128 128 128 129 128 127 127 127 126 127 127 127 127 127 127 127 127 128 128 128 127 127 127 127 127 127 124 114 99 94 109 125 131 129 127 127 129 132 135 137 137 137 137 133 128 129 132 132 129 127 128 131 134 133 129 126 125 125 124 121 119 118 118 117 118 120 124 128 131 131 131 132 131 126 123 124 127 129 128 126 126 127 127 126 124 124 128 132 132 130 128 127 127 129 128 126 126 127 127 128 126 125 127 132 134 133 131 130 129 128 128 130 131 129 128 128 128 129 128 128
126 125 127 132 135 135 133 130 128 129 129 129 129 128 127 128 129 127 126 127 128 128 129 131 133 132 129 127 127 128 128 127 126 123 120 119 121 126 131 133 133 132 130 128 125 126 128 127 127 131 136 137 135 133 132 129 127 126 127 130 132 133 132 131 129 128 127 126 127 128 128 129 131 132 132 129 124 121 122 125 126 125 127 128 127 127 127 130 133 132 128 124 121 116 106 99 103 113 121 125 127 127 126 126 127 127 127 127 127 128 128 127 124 123 124 126 126 126 126 127 127 126 126 126 126 127 126 126 126 126 127 127 126 125 125 126 126 126 127 127 126 127 127 127 127 128 128 127 126 127 127 127 128 128 127 127 127 124 116 100 94 107 123 128 128 128 129 131 133 136 136 135 135 135 132 131 132 133 131 129 128 128 129 130 129 130 131 131 129 125 121 118 118 120 120 124 129 132 133 134 132 128 123 122 124 125 126 126 125 123 122 125 127 127 127 128 129 129 128 127 128 130 131 131 132 132 129 127 126 126 130 132 129 129 131 131 131 131 128 126 128 132 134 132 128 125 123 124 125 127
128 131 132 132 133 133 131 131 132 132 131 132 132 132 131 133 135 131 128 128 130 130 129 132 135 134 130 127 129 130 129 126 124 123 125 127 128 127 129 130 130 130 129 127 124 123 125 128 130 133 135 135 132 129 129 129 129 130 131 131 130 130 130 130 129 127 127 126 126 126 126 128 131 133 131 127 125 124 123 123 123 125 128 129 128 127 129 133 134 129 126 126 126 117 104 103 113 124 126 125 124 126 126 126 126 126 127 127 127 128 130 128 124 123 125 126 126 126 126 126 126 126 126 126 127 127 127 126 126 126 126 126 126 125 125 126 126 126 126 126 126 127 128 127 127 127 127 127 126 126 127 128 128 128 127 127 127 127 124 110 92 90 108 123 128 130 131 131 130 131 132 131 129 129 129 129 130 130 131 131 129 127 125 127 131 132 132 131 130 130 128 125 124 124 123 123 127 130 132 133 131 126 123 123 126 126 123 120 119 121 123 126 130 131 134 136 132 127 124 123 125 129 132 131 130 131 130 129 127 126 130 133 130 126 126 127 128 129 128 127 128 131 132 129 127 126 126 125 126 127
129 132 133 132 132 131 132 135 137 137 136 134 132 133 136 136 134 132 131 131 131 131 129 129 130 130 129 129 130 129 127 124 120 121 124 128 129 127 127 128 130 130 129 128 127 127 127 128 130 131 130 128 127 126 127 128 129 130 132 131 129 129 129 129 128 129 129 127 126 126 127 130 133 132 128 127 129 131 131 130 128 129 130 132 131 129 129 131 129 126 126 127 122 110 106 114 123 127 126 125 125 126 127 126 126 126 127 127 128 132 135 136 133 131 129 128 128 128 128 127 127 127 127 128 128 129 129 128 128 127 127 127 127 126 126 126 126 126 126 125 126 127 128 128 128 127 127 128 128 127 127 127 126 126 126 127 127 126 125 120 106 90 93 112 125 129 131 133 132 129 128 131 130 125 120 121 123 126 127 127 126 126 127 128 130 130 128 128 129 130 131 131 130 129 128 126 125 127 127 125 124 126 126 125 125 126 123 119 121 125 128 129 129 131 134 136 135 129 125 124 128 130 130 128 126 127 129 129 128 128 129 128 126 125 125 126 124 124 127 127 127 126 126 127 129 131 131 128 128 128
128 131 133 134 133 133 135 137 138 139 137 134 132 134 137 135 130 130 130 129 130 132 131 128 127 129 130 129 126 123 121 121 120 121 123 125 126 127 127 128 129 129 128 129 130 131 130 128 125 122 120 123 126 129 130 130 130 132 135 135 134 134 132 130 131 132 132 132 131 130 132 134 132 128 127 129 133 134 134 134 135 135 134 134 134 132 131 130 128 128 129 123 107 99 109 122 127 126 125 126 127 127 127 127 127 129 132 135 140 142 143 144 145 148 148 147 145 141 139 138 138 137 135 132 130 130 129 129 129 129 129 128 128 128 127 127 127 126 126 126 127 127 128 128 128 128 127 128 128 127 127 126 125 125 126 127 127 126 126 126 121 106 90 96 115 126 128 130 128 126 127 129 129 125 122 122 123 125 124 123 123 127 129 130 131 132 132 132 131 131 133 136 135 134 136 138 135 129 123 122 124 125 125 125 126 127 127 126 128 130 131 131 131 131 127 124 125 126 126 127 130 131 130 127 126 127 129 129 128 127 127 126 126 126 127 127 126 124 127 130 128 124 123 127 131 132 132 131 131 131
129 129 131 133 130 128 132 136 137 134 131 132 135 135 132 129 129 130 129 128 130 133 135 132 130 130 128 124 123 124 125 125 126 129 131 131 132 132 129 126 126 127 129 128 128 129 131 131 128 124 122 125 129 130 131 130 130 133 134 133 133 132 131 132 133 133 133 134 133 132 133 133 128 126 128 131 134 133 131 132 134 136 135 135 136 136 135 133 131 130 128 116 104 105 117 125 127 127 127 127 127 128 131 135 139 143 148 151 153 152 148 148 154 162 163 161 157 154 151 150 150 148 146 143 140 137 134 132 130 129 128 129 129 129 129 128 128 127 127 127 127 127 127 127 127 128 127 127 127 127 127 126 126 126 127 128 128 127 128 128 127 121 105 93 103 121 126 124 123 124 126 125 126 130 134 134 132 129 127 127 128 130 130 130 130 131 132 131 131 132 135 136 134 134 139 142 137 129 126 128 129 128 127 128 127 125 126 127 128 129 130 132 134 132 125 120 118 121 123 124 125 127 129 130 129 128 129 130 131 130 125 123 127 129 130 130 130 130 131 134 133 129 125 127 131 131 131 131 131 131
128 127 128 129 128 129 134 138 137 133 129 129 130 129 125 121 124 128 132 133 133 133 134 134 132 129 128 128 129 130 131 131 132 134 135 135 134 132 129 128 129 129 129 127 126 127 130 133 134 135 135 136 135 133 132 131 130 130 129 128 128 129 130 130 131 132 131 130 130 131 132 130 127 127 130 131 130 129 129 130 131 133 134 133 132 133 133 131 130 128 117 102 103 115 124 127 127 128 130 132 136 141 148 152 154 157 161 163 165 165 160 158 162 164 158 153 153 154 152 148 147 146 146 147 148 146 143 140 137 134 133 132 131 130 130 129 129 129 128 128 128 127 127 127 127 128 128 128 127 127 127 127 127 127 127 127 127 128 128 128 127 126 120 103 97 112 124 124 123 124 124 125 127 134 139 139 135 132 133 134 133 132 131 130 128 129 131 131 132 134 133 132 133 136 136 133 128 127 130 131 131 131 132 132 129 126 125 127 129 128 127 128 130 130 128 126 125 124 123 123 121 123 128 133 133 131 128 128 133 133 127 124 127 130 132 131 132 133 133 133 133 133 132 132 134 136 134 131 130 129
126 125 125 125 128 132 134 133 133 133 133 133 130 125 122 121 121 125 130 133 133 131 131 133 133 130 128 130 131 131 131 131 131 133 133 132 130 128 128 129 129 128 125 125 126 126 125 128 131 132 134 134 134 135 134 131 129 126 126 127 127 126 125 126 128 129 129 127 127 129 130 127 127 131 132 130 127 127 128 129 130 131 131 130 128 128 127 128 128 121 105 98 107 121 127 127 129 135 141 147 151 155 160 165 167 168 167 167 166 165 163 157 153 152 151 148 148 148 145 141 139 138 139 142 143 143 145 145 143 140 137 136 134 133 132 132 131 130 129 128 128 128 128 128 127 127 128 128 128 128 129 128 128 127 127 127 127 127 127 127 127 127 125 116 101 100 115 127 128 127 126 126 127 129 131 131 131 133 135 135 133 129 128 131 132 132 133 135 135 133 129 131 138 141 135 128 127 131 132 130 128 129 130 128 128 128 130 132 133 130 128 128 129 129 130 131 132 132 129 125 122 122 125 130 133 131 128 129 130 128 129 131 130 129 131 132 132 131 128 127 132 137 139 136 133 133 133 132 131 128
127 126 125 123 126 129 128 125 126 131 133 131 128 125 125 127 126 125 125 125 126 126 126 129 132 133 131 129 128 128 129 130 132 133 133 131 130 132 132 129 126 126 125 126 128 126 125 125 125 125 125 125 126 128 128 126 124 123 124 127 127 125 124 125 127 130 131 129 127 127 126 125 127 133 135 133 131 130 131 131 131 130 127 124 124 125 125 124 121 111 103 108 119 126 128 131 138 144 149 153 156 159 162 165 165 161 154 149 145 143 145 140 130 130 140 143 140 137 137 137 133 132 133 133 133 133 136 138 137 135 134 134 133 132 132 132 132 131 130 129 129 128 127 127 127 127 127 127 128 128 128 129 128 128 128 127 127 127 127 127 127 127 127 124 107 92 102 122 132 132 130 128 129 128 125 124 126 128 129 130 129 127 128 131 133 130 129 131 132 131 131 133 136 137 133 131 133 134 133 129 125 124 125 126 126 128 130 130 130 129 128 128 128 127 128 130 130 129 128 127 128 127 125 124 127 129 130 132 129 127 131 132 129 127 127 127 126 124 123 124 129 134 134 132 130 128 127 130 131 129
125 126 125 123 122 124 125 125 126 129 129 125 124 127 129 129 127 124 122 120 121 122 124 127 129 132 133 131 126 125 127 130 132 132 130 130 132 134 134 130 128 129 130 131 133 133 130 128 126 125 123 122 123 123 124 126 128 129 130 131 130 128 127 127 128 130 131 131 130 128 126 126 128 129 130 131 130 129 129 129 129 128 124 121 122 124 124 119 110 102 104 114 124 128 132 139 144 142 139 138 139 141 142 141 137 133 132 132 135 142 148 151 150 148 152 155 151 147 148 148 144 139 134 131 131 131 131 130 131 132 132 130 130 130 129 129 129 130 130 131 130 128 127 127 127 127 127 127 128 128 128 128 129 128 127 126 126 127 126 126 126 127 127 125 117 101 97 112 127 130 131 131 131 132 132 126 122 122 125 126 125 126 128 129 129 127 125 125 127 130 135 134 130 126 127 131 134 134 134 131 127 125 127 129 129 127 125 126 126 128 130 128 125 123 125 128 128 125 126 130 133 130 123 118 120 127 131 131 130 132 130 126 126 126 126 125 124 124 125 123 121 122 124 128 130 130 129 129 129 127
126 128 129 126 123 121 121 125 129 129 124 121 124 128 129 128 126 123 120 119 120 123 128 131 130 127 129 132 132 130 130 131 131 129 130 132 132 131 132 133 132 132 132 133 135 136 133 131 129 128 126 125 125 124 125 127 129 130 131 131 130 129 127 127 127 127 128 131 133 133 132 131 129 126 124 125 128 129 128 126 126 125 123 124 126 126 124 119 110 104 109 119 126 131 136 139 137 132 128 126 130 138 141 143 146 149 153 157 157 155 156 163 169 167 162 161 163 165 164 160 159 158 154 150 149 147 143 138 137 137 136 135 134 132 130 128 128 129 129 130 130 129 128 128 128 128 128 128 128 128 128 127 127 127 126 125 126 127 127 126 126 127 127 127 126 115 98 100 117 127 130 131 130 131 135 133 125 123 125 126 125 126 126 126 125 125 123 121 121 124 129 130 127 124 125 129 130 131 131 131 131 130 129 129 130 130 131 131 129 129 131 129 125 123 124 126 130 133 133 132 132 129 124 118 117 121 124 126 130 131 126 125 127 129 127 124 123 125 128 127 120 118 122 125 125 127 130 130 127 126
130 129 128 130 129 124 120 122 125 124 122 123 126 128 126 126 127 126 124 125 127 129 130 130 129 127 128 134 138 137 133 133 133 134 135 136 132 128 128 132 133 131 129 129 130 132 134 132 131 132 130 128 126 124 124 123 123 125 128 128 126 126 126 126 127 129 131 133 135 136 134 131 130 128 127 127 129 131 132 130 129 127 127 129 129 127 124 118 111 110 116 125 129 132 132 129 128 130 134 143 156 168 171 168 166 164 162 161 156 148 142 142 145 146 145 147 154 159 160 160 161 161 161 161 160 157 153 147 141 138 137 136 137 136 134 131 130 129 128 128 128 128 129 129 128 128 128 128 128 128 127 127 126 126 126 127 127 127 128 128 128 127 126 127 127 122 107 98 108 122 128 130 129 128 131 133 131 127 126 128 129 126 124 124 124 125 124 123 121 119 120 123 125 127 128 128 128 129 129 130 131 130 127 127 128 130 132 133 130 128 127 126 126 127 126 124 126 132 134 131 127 125 125 125 121 118 120 125 128 126 125 126 128 128 124 120 120 122 126 129 128 126 126 124 122 123 126 130 130 128
135 134 132 133 134 129 125 122 117 115 121 127 128 125 123 124 125 126 129 132 130 128 126 122 122 126 131 136 138 138 137 137 138 138 137 134 132 131 129 130 131 130 129 129 128 130 130 128 129 133 134 133 129 127 126 125 125 126 127 125 123 125 128 129 128 129 131 132 132 133 133 132 132 134 133 131 130 129 129 130 130 130 131 131 130 127 122 113 108 112 122 128 129 130 131 133 138 149 165 177 177 169 159 150 144 142 139 136 135 135 133 131 131 134 136 139 141 143 147 153 154 153 152 151 149 148 147 148 145 139 136 134 134 134 135 134 132 130 128 128 128 129 129 129 128 128 127 127 127 127 127 128 128 127 127 127 128 128 128 128 128 127 127 126 126 126 118 103 101 116 126 127 127 126 126 128 130 130 127 126 128 128 126 123 122 124 129 130 127 124 121 122 126 130 129 127 126 127 127 129 131 131 130 129 127 126 126 128 129 128 126 127 128 131 131 127 125 128 130 131 127 125 128 131 129 126 127 128 126 125 125 125 124 125 127 128 129 127 126 128 129 130 129 128 128 129 130 130 131 130
134 137 139 137 133 129 128 125 120 117 121 126 127 125 124 126 126 128 132 131 127 125 123 120 121 127 132 132 132 136 139 138 135 133 131 129 130 131 129 127 127 130 133 134 130 126 124 125 127 130 133 134 133 132 133 133 132 129 125 123 125 128 131 133 132 129 129 128 128 129 131 133 133 133 131 129 128 128 128 128 129 129 131 131 128 122 113 106 109 118 125 128 130 132 137 143 151 164 173 171 160 146 136 132 132 133 134 135 137 137 136 135 135 136 136 135 134 134 136 139 141 144 147 148 148 146 145 147 148 145 141 136 132 130 131 131 130 129 129 129 129 129 129 129 129 128 128 127 127 127 127 127 127 127 127 127 128 128 127 127 127 127 127 127 126 126 122 110 103 113 123 126 127 127 127 129 129 127 124 123 127 131 130 125 121 123 126 127 124 123 124 124 126 129 129 126 125 125 127 128 129 130 130 129 128 125 125 126 129 129 128 128 131 135 137 133 129 128 130 132 131 129 131 134 135 133 132 129 128 128 129 127 124 125 130 137 138 135 131 127 124 124 128 131 131 131 129 126 128 131
129 131 133 131 127 127 130 130 128 125 124 124 125 126 127 129 131 133 133 131 128 127 127 129 131 132 130 126 125 128 130 128 126 126 128 130 131 131 130 126 125 126 130 132 131 127 124 125 125 126 129 132 134 135 136 137 136 132 128 128 131 132 133 134 133 131 129 127 125 124 125 127 127 125 124 124 125 126 127 127 127 127 129 128 123 115 107 106 113 121 126 129 132 136 139 144 151 155 155 148 140 134 132 132 133 134 134 135 136 136 136 135 134 133 132 132 132 133 134 135 136 139 142 146 146 146 144 141 141 142 141 137 133 130 128 128 128 129 129 128 127 128 129 129 130 129 128 127 127 126 126 126 126 127 127 127 127 127 127 127 127 127 127 127 127 126 125 119 106 105 117 125 127 129 130 130 128 123 122 125 127 127 125 124 123 123 120 118 119 123 127 129 127 127 126 124 121 124 127 128 127 127 127 128 130 129 125 125 128 131 131 129 130 132 133 134 132 128 128 130 132 132 131 131 132 132 130 129 128 130 132 133 131 130 130 132 136 138 134 128 125 126 128 129 126 121 119 121 124 126
129 128 123 119 121 127 133 135 134 133 132 128 125 127 130 133 136 137 136 134 131 130 130 132 135 134 130 128 127 125 123 124 126 130 134 136 136 134 132 130 128 127 126 127 130 131 130 129 127 126 126 130 133 132 132 133 134 134 134 134 134 134 134 133 132 131 128 126 125 124 123 124 124 121 120 122 124 125 127 127 127 126 126 126 124 116 108 109 116 123 127 130 134 137 139 144 146 144 142 138 133 130 130 130 131 131 131 130 130 130 131 132 131 129 128 129 131 132 132 133 134 135 136 134 133 135 135 132 131 133 133 133 133 131 130 128 128 129 130 129 128 128 129 129 129 129 128 128 127 127 126 126 126 127 127 127 126 126 127 127 127 127 127 128 127 127 126 122 111 104 114 125 128 129 129 130 130 128 128 128 125 122 120 121 124 122 117 118 126 130 130 129 127 124 123 123 122 122 124 126 127 127 128 128 129 131 130 127 125 128 131 130 129 126 125 128 131 131 130 131 135 136 130 125 126 129 129 127 126 127 131 136 137 136 134 132 133 134 133 133 135 136 133 128 124 120 119 121 121 122
129 129 125 121 124 128 130 133 136 136 136 133 128 127 128 128 131 134 133 132 131 129 128 129 130 131 132 132 130 127 126 130 133 134 134 133 132 129 127 129 132 131 127 124 125 128 130 130 128 125 123 124 127 128 126 125 126 129 132 134 133 132 132 133 133 131 128 127 127 125 123 124 125 122 118 118 123 127 129 129 127 124 123 125 121 114 110 113 119 125 127 130 133 136 138 138 138 136 131 127 127 127 127 128 128 128 127 127 127 127 128 128 127 127 127 128 129 129 128 128 130 130 129 128 128 127 127 127 127 127 126 125 127 129 130 130 130 130 130 131 131 130 129 128 128 128 129 128 128 128 128 128 127 127 127 127 127 126 126 127 127 127 127 127 127 127 127 126 120 111 115 124 127 126 127 129 133 135 132 127 123 121 120 120 123 124 124 127 133 133 129 126 124 122 122 126 128 128 126 126 127 129 130 130 129 130 133 130 125 125 128 130 128 125 123 125 128 132 134 133 132 130 127 125 128 131 131 129 128 129 130 132 133 130 129 129 126 124 129 135 138 136 131 127 125 125 126 128 129 129
128 130 132 134 132 129 127 130 133 132 132 132 130 127 125 125 127 128 129 132 133 131 132 133 131 131 134 134 130 128 128 129 129 128 126 125 125 125 128 132 132 129 126 124 123 124 128 130 128 125 121 119 121 125 126 124 125 128 130 130 130 130 131 131 132 132 130 128 127 126 124 123 123 122 121 120 121 124 128 128 126 125 123 115 106 104 110 119 124 126 128 129 131 133 133 130 129 127 123 122 123 124 125 126 126 126 126 126 125 125 124 124 125 125 126 127 127 126 126 126 127 128 127 127 126 125 123 124 126 125 124 123 124 126 128 130 131 129 129 130 130 130 129 128 127 128 129 129 129 128 128 128 127 127 127 127 128 128 127 127 127 127 127 127 127 127 127 126 121 110 108 119 127 126 126 127 130 128 123 119 119 120 120 120 122 129 136 139 137 134 132 128 123 122 126 133 137 135 130 126 126 128 131 132 131 130 128 127 127 128 127 126 126 127 126 126 127 130 133 131 126 125 128 130 133 134 134 133 133 135 133 130 128 126 124 125 126 126 126 128 130 127 123 123 128 132 133 135 135 132
128 130 134 136 135 132 129 130 132 130 128 128 130 131 133 136 135 133 134 138 139 141 142 141 136 132 130 128 128 129 129 127 128 129 129 128 127 130 134 134 129 126 126 126 126 126 127 128 128 127 125 123 124 126 128 128 128 130 130 127 126 127 128 129 131 133 134 133 132 133 131 127 124 125 126 125 121 122 125 125 122 119 117 109 100 100 111 122 127 127 129 131 132 131 129 126 123 119 120 122 123 124 125 125 125 126 126 125 124 123 122 122 123 124 124 125 125 125 126 126 126 126 125 125 124 122 120 122 124 125 126 127 127 127 127 128 129 128 128 128 128 127 127 126 126 126 127 129 129 128 128 127 127 127 127 128 128 128 128 128 127 127 127 127 126 127 127 127 125 114 105 113 124 127 127 128 128 125 121 119 119 120 123 123 123 130 137 137 133 131 133 132 132 134 136 136 136 134 131 129 127 127 128 129 128 124 120 122 127 129 127 125 126 128 129 126 124 125 128 128 128 130 134 136 134 131 132 134 135 136 134 131 129 131 133 133 135 134 129 127 127 125 123 124 129 134 133 132 132 130
127 128 130 132 132 132 135 138 138 132 126 123 127 133 139 142 140 137 134 134 141 149 152 149 145 136 126 124 128 130 130 131 132 134 133 132 131 130 130 129 130 131 133 135 135 134 132 130 128 129 130 131 131 131 132 131 130 128 128 128 128 127 126 126 127 129 131 131 132 134 135 132 130 131 132 132 129 125 122 122 123 120 114 108 106 109 118 125 127 129 131 133 133 131 128 127 124 121 122 123 123 124 125 124 124 124 124 123 122 122 121 121 121 122 122 123 123 124 124 125 125 124 123 123 120 117 118 120 120 122 125 127 129 128 127 127 129 131 131 129 126 125 126 126 127 126 127 128 128 128 128 128 127 127 127 127 128 128 127 127 127 127 127 127 126 127 127 128 127 120 108 108 120 127 127 127 125 123 123 124 125 127 127 126 125 127 129 128 125 126 127 128 131 136 134 129 127 128 130 132 127 121 124 127 124 119 118 123 128 130 128 126 126 128 129 127 124 123 125 126 129 132 135 138 136 132 132 134 134 132 132 132 131 132 135 135 134 134 134 131 127 127 128 128 127 125 124 123 127 131
127 125 124 127 129 130 134 140 140 134 128 124 127 132 136 135 132 129 127 129 137 142 143 143 143 140 135 133 132 131 132 134 135 137 136 134 133 131 129 129 132 136 138 139 139 139 137 135 133 133 133 134 135 135 135 134 131 129 130 133 135 133 129 126 124 124 124 125 127 129 130 132 132 134 138 140 137 128 119 120 127 128 117 107 111 122 126 127 128 129 131 133 132 131 131 130 127 125 123 123 124 124 125 124 123 122 121 120 120 120 120 120 120 121 121 121 122 122 123 124 124 123 122 120 117 114 115 117 117 118 120 124 128 129 130 130 131 132 131 129 128 128 128 128 128 128 127 128 128 128 127 127 127 127 127 126 126 126 127 127 127 127 127 127 128 127 127 128 127 125 116 110 118 125 124 118 110 110 118 125 128 129 129 128 128 128 129 125 119 116 114 114 119 123 121 117 117 124 130 131 122 114 120 125 125 125 126 128 130 128 127 126 126 125 126 128 127 124 123 127 130 131 131 131 131 132 133 133 132 129 131 133 132 132 132 131 131 131 133 131 127 127 131 133 131 126 123 121 123 126
127 125 123 125 128 130 131 133 135 135 132 130 130 131 130 127 125 125 125 127 131 131 128 129 132 135 139 140 137 134 135 140 141 140 139 139 138 135 133 131 131 132 132 131 134 137 137 134 134 134 135 135 134 133 132 131 130 130 132 133 133 131 129 127 126 125 124 124 125 126 127 129 131 134 136 137 134 127 122 122 126 123 111 108 119 128 128 128 128 128 128 128 129 131 133 131 128 125 124 124 124 124 124 123 121 119 118 118 119 120 120 120 120 121 121 121 121 122 122 122 122 121 121 118 115 115 116 116 117 118 121 124 127 130 132 131 130 130 129 128 129 129 129 129 129 128 127 127 128 129 128 128 128 128 128 127 126 127 128 128 128 128 127 127 127 127 126 126 127 127 121 110 111 120 120 109 102 109 119 125 127 128 129 129 128 127 129 125 114 106 104 110 115 116 117 117 117 122 126 125 120 118 123 127 129 132 134 132 129 127 129 131 129 126 127 129 129 127 124 124 127 129 128 126 126 129 132 132 131 129 128 129 131 133 131 129 129 129 131 131 129 128 132 135 135 132 130 127 122 121
127 125 124 125 129 133 133 128 125 128 132 133 129 127 128 127 126 127 127 127 130 131 130 127 125 126 131 135 137 136 136 138 137 133 132 134 133 132 131 131 129 128 127 127 129 133 133 131 132 133 134 133 130 128 127 127 129 131 130 127 125 125 127 128 129 129 128 128 129 128 128 129 130 130 131 131 130 131 129 122 114 105 105 115 125 127 127 127 127 127 126 126 128 131 131 130 129 127 125 124 123 123 123 121 119 118 117 117 118 118 119 119 120 120 121 121 122 122 122 121 121 120 119 116 115 118 120 121 122 123 125 127 128 129 130 130 129 129 129 129 130 130 130 130 129 128 128 127 127 129 129 129 129 129 130 129 128 127 128 127 127 127 127 126 126 126 126 126 126 126 121 107 104 112 111 106 111 119 121 122 124 126 126 125 122 121 123 121 115 111 112 117 117 116 120 126 128 125 122 117 117 127 132 131 132 135 138 136 129 127 130 132 132 130 128 129 131 130 126 121 120 122 125 126 126 127 128 128 129 129 129 129 130 129 127 126 126 127 127 128 130 131 130 130 132 132 130 128 126 125
125 124 124 124 126 129 128 122 119 121 129 132 128 126 128 127 126 127 130 132 131 129 128 127 124 125 127 129 130 131 128 125 125 124 122 121 124 127 130 134 136 136 136 135 133 131 131 131 132 131 132 135 136 132 128 127 129 128 125 123 125 127 129 130 129 128 128 131 132 131 130 130 129 129 129 130 132 137 139 129 110 101 111 123 125 124 125 127 127 127 128 129 130 131 130 129 128 126 125 124 122 119 119 119 119 119 119 118 117 117 117 118 119 120 121 122 123 123 123 122 121 121 119 117 120 123 124 125 127 128 129 129 129 128 129 131 132 131 131 133 134 133 131 131 130 129 129 128 127 128 128 128 128 129 129 129 128 127 127 127 127 127 127 126 126 126 126 127 127 127 124 116 108 103 101 108 118 120 118 119 123 125 126 124 122 119 115 115 119 123 123 121 118 117 120 125 128 128 123 115 116 129 133 131 130 129 131 134 130 124 122 125 128 127 125 125 128 129 127 124 121 120 123 126 126 127 126 126 127 128 129 130 128 127 126 125 122 121 124 127 130 130 128 126 128 129 128 129 129 128
126 127 127 125 122 119 115 112 115 122 126 128 128 127 128 127 124 123 124 127 126 120 113 113 122 127 127 127 128 126 122 120 122 123 123 124 127 135 140 142 142 143 144 143 139 134 131 130 131 133 135 137 136 131 127 127 128 126 125 126 128 130 131 130 129 127 128 129 129 129 130 130 131 131 131 133 140 146 144 129 110 109 120 123 122 123 126 127 128 128 129 129 128 127 127 127 127 125 123 123 122 119 118 121 123 123 123 121 120 119 118 119 119 121 123 124 125 125 125 124 124 123 122 122 124 125 126 127 129 131 132 131 130 129 130 132 133 133 132 133 134 134 132 132 132 131 130 128 127 126 127 127 127 127 127 128 128 127 127 127 127 128 128 128 127 127 127 127 128 127 127 123 111 103 108 118 123 123 122 124 125 126 126 125 123 117 110 114 123 126 123 119 116 116 116 119 122 123 119 114 118 124 125 125 119 110 112 122 127 126 123 124 127 126 124 124 127 129 131 132 130 126 125 127 130 129 128 127 127 128 128 127 126 128 129 128 125 124 127 130 129 127 124 123 122 124 128 131 130 128
127 127 127 126 124 122 117 112 115 122 123 123 125 125 123 123 120 115 115 121 124 123 116 109 111 116 117 120 124 125 126 129 130 131 134 137 139 140 138 135 131 130 133 136 135 132 130 128 131 137 138 133 126 123 126 128 129 131 136 136 133 132 130 128 126 126 125 123 123 126 129 132 133 132 134 139 144 141 129 112 107 116 121 121 123 126 128 128 128 130 130 128 126 124 125 126 127 125 122 123 124 124 124 124 125 126 125 124 123 122 121 121 121 122 124 126 127 127 127 128 128 127 127 127 128 127 127 129 132 134 134 134 133 132 131 130 130 131 131 131 131 133 134 133 133 132 130 128 127 127 127 128 127 127 127 127 127 128 127 127 127 128 128 128 128 127 127 127 127 127 127 122 112 111 119 124 126 127 127 126 126 124 122 122 122 118 115 118 123 123 122 121 119 120 122 124 126 122 114 110 118 123 123 122 114 105 107 117 127 133 132 130 131 131 132 133 132 132 133 134 135 135 134 132 132 130 128 128 128 128 128 127 128 129 129 129 132 133 131 128 127 128 127 123 121 123 126 127 128 128
122 120 121 126 129 130 128 123 120 120 121 122 120 115 111 114 118 119 117 115 116 125 131 124 115 113 112 114 122 130 138 141 138 136 136 139 134 119 110 111 116 124 129 130 131 132 134 138 140 138 134 129 127 128 129 129 129 133 141 144 142 137 131 125 121 120 121 123 125 128 132 134 134 135 138 139 136 127 112 106 114 121 120 121 124 127 127 127 128 132 135 133 130 129 129 129 128 126 125 125 127 128 128 127 128 128 127 126 125 124 124 123 123 124 126 127 128 129 130 131 131 131 133 133 131 129 129 133 136 135 135 137 139 138 136 132 131 131 131 131 130 131 133 132 129 128 127 127 127 127 127 127 128 128 127 126 126 126 126 126 126 126 126 127 127 127 127 127 127 127 127 123 118 118 122 124 124 125 125 124 124 121 119 122 125 124 121 119 121 123 124 124 123 125 128 132 131 122 113 115 122 124 122 121 119 117 115 119 130 137 138 134 133 136 138 137 135 133 131 132 135 138 137 133 130 127 127 128 127 127 127 128 129 128 127 128 132 133 130 127 126 129 131 129 126 127 125 121 122 126
117 112 114 118 121 125 128 127 122 117 118 119 118 112 109 112 120 124 121 114 112 115 120 124 123 122 123 124 129 136 139 137 133 130 130 127 115 102 97 98 110 127 133 133 134 135 138 143 143 137 133 132 133 135 131 128 128 129 131 137 140 137 131 126 123 124 127 131 133 133 135 138 141 142 139 133 129 121 108 109 120 123 122 124 126 126 126 126 128 131 135 136 135 135 132 130 129 129 129 128 127 128 130 130 131 131 130 129 127 127 127 125 125 126 127 128 129 130 131 132 134 135 137 138 136 134 135 136 138 139 140 142 143 143 141 138 135 133 132 131 131 130 130 129 127 125 125 126 126 127 127 127 128 128 127 127 127 126 126 125 125 126 126 127 127 127 127 127 127 127 127 126 124 123 125 127 126 124 122 123 124 123 123 125 127 126 123 121 122 125 126 124 124 124 124 127 127 119 115 122 128 123 119 118 119 122 121 121 127 133 134 132 131 133 134 133 132 131 130 131 132 132 131 130 128 126 126 125 123 123 123 123 124 126 127 127 128 129 129 129 128 127 128 130 130 129 126 122 122 126
120 115 109 105 108 113 115 116 118 118 115 114 117 120 118 115 117 118 120 122 124 122 120 123 124 124 130 137 137 135 133 131 128 120 115 113 111 113 113 108 107 113 123 129 130 128 129 133 135 135 134 132 129 126 125 125 125 122 120 125 130 129 129 131 133 135 137 140 143 143 143 143 142 140 136 132 128 113 102 110 121 124 124 126 127 127 127 127 128 129 131 133 135 134 131 130 130 130 130 129 127 128 128 129 129 130 129 129 130 130 130 129 129 130 130 129 129 130 130 131 133 135 137 140 144 147 145 142 141 143 144 143 141 141 142 142 140 138 134 132 132 130 129 129 130 130 129 127 127 127 128 127 127 127 127 128 128 127 127 127 127 127 127 127 128 128 127 127 127 127 127 126 125 124 126 128 126 121 120 122 123 124 124 124 123 123 123 124 124 125 126 126 127 125 121 116 113 112 118 128 130 122 116 116 119 124 126 125 126 127 129 130 130 129 129 129 129 130 130 130 130 129 128 128 128 128 125 123 124 124 122 123 126 126 126 127 127 128 129 129 129 128 126 126 127 125 124 125 123 122
130 128 120 112 108 102 98 102 111 115 114 111 114 120 120 117 116 116 118 121 124 130 136 139 133 126 128 134 133 131 131 129 120 106 98 100 109 121 126 122 113 106 106 115 121 122 123 127 130 131 131 131 127 122 123 125 128 129 124 123 124 123 126 132 136 138 140 147 151 150 147 141 134 131 130 130 125 112 109 117 123 124 125 127 127 127 127 127 128 130 131 132 132 131 131 131 131 131 132 130 128 128 127 126 125 126 127 129 131 133 133 134 134 132 130 128 127 127 128 128 129 130 131 134 140 144 144 142 140 140 140 138 137 136 138 140 140 139 136 134 132 130 129 130 132 132 130 128 127 126 128 128 127 126 127 127 127 128 128 128 128 127 127 127 127 127 127 127 127 127 127 126 125 123 123 125 123 121 121 119 119 121 123 122 120 120 121 123 123 123 124 127 128 126 121 113 108 112 121 129 129 125 121 118 119 124 127 128 129 129 129 130 130 127 126 127 128 131 131 130 129 129 129 129 129 128 128 127 128 128 127 126 126 127 127 127 127 127 127 128 128 129 127 124 121 119 123 127 125 122
130 130 128 125 116 106 101 102 105 111 119 122 123 121 119 118 118 117 118 118 114 115 126 137 134 126 123 126 126 124 123 120 109 101 100 102 110 120 125 125 121 111 101 103 115 124 125 124 124 127 128 130 132 133 132 133 138 141 138 131 129 131 134 138 143 144 144 144 144 141 138 135 133 133 133 128 119 114 119 125 124 123 125 127 127 126 126 127 128 130 130 129 130 131 132 132 132 134 133 131 130 129 127 126 124 125 126 129 131 133 134 134 133 131 128 126 125 125 125 126 127 128 127 128 131 133 136 134 132 131 131 131 131 130 131 133 134 133 132 132 130 129 128 128 128 128 129 129 129 128 128 128 127 126 126 127 127 128 128 128 128 127 127 126 126 126 127 127 127 127 127 127 125 122 121 121 123 127 127 120 117 121 125 126 125 123 122 123 123 123 124 126 126 124 120 117 116 119 126 128 125 125 127 124 123 125 126 127 129 129 129 128 128 127 126 125 127 129 129 128 129 128 127 126 127 127 128 130 130 129 128 125 123 126 129 130 129 126 125 125 126 127 126 122 119 120 127 130 127 125
122 124 126 125 122 120 118 113 109 113 125 135 136 133 132 129 123 122 122 120 112 103 104 112 121 124 121 121 122 118 111 105 104 110 114 116 119 120 120 124 125 118 107 103 110 123 129 126 122 122 121 121 126 133 137 140 140 140 141 137 137 143 145 144 144 146 145 138 132 131 131 134 139 142 140 131 117 112 120 125 124 124 126 126 126 126 126 127 127 126 125 124 125 128 129 129 130 130 130 129 128 126 126 125 125 126 127 129 129 130 131 131 130 129 127 125 124 124 125 125 122 119 118 119 124 127 127 125 123 122 122 123 125 125 125 125 126 127 127 127 127 127 127 126 125 124 127 130 131 129 127 126 127 127 127 127 127 127 127 127 127 128 128 127 126 126 127 127 127 128 128 128 127 124 122 121 122 126 127 123 121 123 127 128 128 128 128 128 128 128 128 126 124 121 119 119 119 122 127 127 123 122 125 125 126 127 124 122 123 127 128 127 126 127 127 126 125 125 125 127 127 126 125 125 126 126 126 127 128 128 127 126 126 127 129 129 128 126 126 125 124 122 120 118 119 124 126 122 121 124
123 126 126 123 123 124 124 122 120 120 123 128 130 131 133 134 132 130 125 117 112 109 106 107 115 119 114 107 106 108 104 101 111 124 126 122 122 120 118 121 125 121 114 106 106 119 131 129 121 117 118 119 124 133 139 140 137 136 136 135 135 139 143 141 137 136 136 133 130 130 131 134 138 139 135 126 115 111 118 124 125 126 126 126 127 127 127 127 126 125 124 123 122 123 124 124 123 122 122 122 120 119 119 121 123 125 127 129 129 128 128 128 129 128 126 124 123 120 112 102 94 90 91 95 102 108 111 114 116 116 117 119 122 123 121 120 120 122 124 123 123 124 126 126 126 125 125 128 129 129 127 127 127 128 127 127 127 127 127 127 127 127 128 128 128 127 127 127 128 128 128 128 127 126 124 124 124 124 124 125 124 123 124 126 128 130 131 131 131 131 130 128 124 121 120 120 121 124 127 127 124 122 120 118 121 125 122 118 118 124 127 127 127 127 128 128 126 124 124 125 125 126 127 128 127 126 126 127 127 127 127 127 128 127 126 124 122 122 123 122 118 114 113 117 121 121 116 115 119 124
129 127 125 123 123 125 125 125 126 123 118 117 119 118 118 122 129 131 125 116 112 114 115 114 117 118 113 103 97 102 107 111 124 137 136 127 123 122 119 117 117 115 113 110 109 115 121 114 100 99 110 124 135 141 142 139 136 132 130 131 130 130 132 134 132 130 128 128 130 132 130 130 131 129 126 121 114 113 119 125 128 128 127 127 128 128 127 127 126 125 125 124 124 123 123 122 120 116 110 106 105 105 106 110 117 121 124 126 128 127 126 127 129 128 124 117 107 96 82 71 69 71 76 82 87 91 100 111 117 117 117 120 123 122 120 118 116 116 118 119 121 123 123 123 125 127 126 126 127 128 129 129 128 127 127 127 127 127 127 127 127 127 127 129 129 128 128 128 128 128 128 127 127 126 127 128 127 124 123 124 124 123 122 125 128 130 131 130 130 130 129 128 126 125 124 123 125 127 126 124 124 125 121 117 118 122 124 120 112 108 115 123 127 128 128 128 127 126 125 126 126 126 126 127 126 127 128 128 127 128 130 132 132 128 125 121 117 116 117 116 114 112 113 117 122 121 117 119 123 125
128 124 121 122 124 125 126 127 127 124 119 116 117 117 118 121 125 128 127 122 116 114 113 115 121 125 124 118 111 111 115 120 127 134 134 130 127 125 123 118 114 114 117 122 119 107 92 80 76 81 94 112 128 134 133 134 133 129 126 126 125 125 125 127 128 127 126 128 131 131 130 129 129 127 127 124 116 115 120 125 127 128 127 127 128 128 128 127 126 125 125 126 127 127 125 123 119 112 104 99 98 98 102 106 112 118 121 123 123 122 122 124 126 127 119 102 85 76 72 76 81 87 93 94 92 91 96 104 111 113 113 114 115 115 113 112 112 113 114 118 120 120 120 122 125 128 129 127 126 127 129 129 128 127 127 127 127 126 126 127 127 126 126 127 128 129 128 128 127 127 127 127 127 127 127 128 127 125 123 124 125 123 122 123 126 128 129 130 130 129 128 126 127 128 126 125 126 127 125 123 124 127 127 124 122 124 127 123 109 95 96 110 123 127 127 127 128 127 126 126 126 126 126 126 127 127 128 128 127 128 130 132 132 129 124 121 120 120 120 119 119 119 117 118 120 122 125 127 127 126
116 112 116 123 126 125 126 127 127 125 122 120 120 123 127 128 127 128 131 131 126 120 115 113 114 116 119 120 118 117 119 120 117 114 118 122 121 119 121 120 118 118 121 120 109 86 70 74 89 93 90 92 98 106 117 126 129 127 124 122 122 124 127 127 126 124 124 127 129 128 127 127 126 124 123 118 112 114 120 123 124 126 127 128 128 128 128 128 127 126 128 131 134 134 130 123 115 108 102 96 92 93 97 103 108 114 120 122 121 121 122 121 118 113 102 89 82 84 92 100 105 108 110 108 105 103 100 97 97 101 103 101 101 103 105 108 112 116 117 118 119 119 120 122 124 126 127 126 126 126 127 127 127 127 127 127 126 126 126 126 126 126 126 126 127 128 129 128 126 126 126 127 127 127 127 126 125 124 125 126 127 127 126 125 124 125 127 129 128 127 125 125 127 128 127 126 126 126 124 124 126 128 128 126 125 126 128 125 118 109 103 107 118 126 127 127 128 128 128 127 126 126 128 129 129 129 128 127 128 128 127 127 127 126 125 126 128 126 122 123 127 127 124 123 123 124 127 130 130 127
111 111 120 126 127 126 126 126 126 125 125 123 122 124 126 125 124 123 125 129 132 130 125 116 108 108 114 117 116 114 112 111 105 101 107 113 113 113 117 120 121 123 124 117 100 88 90 104 115 113 103 89 77 77 93 113 123 123 121 121 123 125 125 124 124 125 125 122 118 116 117 116 113 113 111 105 106 116 124 124 124 126 127 127 127 127 127 127 126 126 129 132 134 132 125 116 106 100 97 95 93 93 93 95 100 107 115 120 122 122 122 118 107 93 86 88 93 97 104 111 113 112 110 110 111 111 108 103 98 99 102 103 102 105 110 112 113 116 118 118 117 118 120 121 122 124 125 126 126 127 127 127 127 128 127 126 126 127 127 127 127 127 127 127 127 128 128 128 128 127 127 126 126 127 125 123 123 124 126 127 129 129 127 124 123 121 121 121 122 124 125 125 125 126 127 127 127 127 125 123 126 127 124 123 124 125 126 125 124 125 123 118 121 127 130 129 127 126 127 127 126 125 125 127 128 128 128 128 128 128 128 128 127 127 128 131 131 126 122 124 128 128 127 127 126 125 125 126 125 124
121 122 126 126 125 126 127 127 128 129 127 124 122 124 126 125 123 121 120 125 130 132 129 124 122 123 126 125 120 114 111 111 110 110 113 117 119 118 119 123 125 127 127 122 116 115 119 124 126 126 119 105 92 82 80 91 109 118 121 123 123 121 119 120 124 128 126 118 112 113 115 111 106 104 101 101 109 120 126 126 126 127 128 127 127 127 127 126 125 125 126 123 117 109 102 100 99 98 99 103 106 106 103 98 96 100 108 117 119 118 119 116 104 93 92 100 107 110 112 115 116 116 114 112 112 112 112 110 108 106 106 109 110 111 112 112 113 115 116 116 117 119 120 122 123 124 125 127 128 128 128 127 127 127 127 127 127 127 128 128 128 128 129 128 127 127 127 128 128 128 127 127 127 125 122 121 123 126 127 127 127 125 122 119 119 118 115 114 119 124 126 124 123 124 126 127 128 127 125 123 126 125 121 121 123 123 123 124 126 129 127 122 122 127 129 128 127 126 126 127 127 126 125 123 123 125 127 127 127 127 129 130 130 129 129 128 127 126 127 128 126 123 124 127 128 127 125 123 121 123
126 125 124 123 123 125 126 128 130 131 129 127 129 130 129 127 125 125 127 128 126 124 126 129 132 132 126 121 120 120 119 120 121 122 121 121 122 122 123 124 125 125 122 120 121 125 128 129 130 129 126 120 115 108 94 81 90 111 121 122 120 116 113 118 124 124 121 114 111 115 115 109 106 104 103 110 119 125 126 126 127 128 128 128 128 128 128 128 128 124 119 112 103 96 94 95 101 107 112 117 118 116 112 106 98 95 101 109 113 113 112 111 108 105 105 110 115 118 120 121 121 122 126 130 135 138 139 138 133 124 116 113 113 113 113 114 115 114 115 118 120 123 124 123 123 124 125 126 128 128 127 127 127 128 128 128 127 127 128 128 128 128 128 128 127 127 127 127 127 127 127 127 127 125 122 124 127 127 127 127 125 123 122 122 122 121 119 118 119 123 126 125 124 124 125 126 127 126 124 124 123 120 118 119 123 124 124 125 127 128 127 122 120 122 125 125 127 128 128 128 128 127 127 125 123 124 125 126 126 126 127 128 128 127 126 122 120 124 130 129 122 120 126 136 140 134 128 125 123 125
127 124 123 124 125 126 127 127 127 128 128 132 135 134 130 127 125 126 127 126 124 125 129 133 131 125 118 115 119 123 124 125 124 123 121 119 119 121 122 121 120 119 116 116 121 125 127 129 129 128 126 124 123 122 113 94 86 101 115 115 114 114 115 120 121 119 117 115 113 115 118 117 112 112 117 124 127 127 126 126 127 128 128 127 127 127 127 127 127 123 115 108 104 103 105 111 123 135 143 146 144 139 130 118 108 100 99 107 113 116 115 112 110 110 112 114 118 122 124 124 126 132 142 150 155 158 158 156 149 142 133 125 119 117 117 119 119 119 120 121 123 124 126 126 125 126 126 126 126 126 126 127 128 128 128 128 127 126 126 126 127 127 127 127 128 128 128 127 127 127 127 127 127 126 126 128 129 128 127 125 124 124 125 127 126 125 125 124 120 119 122 126 128 127 126 126 126 125 125 125 121 113 111 118 124 127 127 126 127 127 126 124 123 123 125 126 127 128 127 125 123 124 126 127 128 126 125 125 125 124 122 123 123 122 119 117 119 125 129 126 122 123 129 137 139 135 129 126 125 126
127 126 126 128 129 128 128 127 126 126 128 133 137 135 131 129 126 122 121 121 124 130 133 131 126 122 120 119 122 125 126 126 124 123 122 120 119 120 120 119 117 117 118 121 125 127 126 126 126 126 126 126 126 126 122 113 105 107 114 117 120 128 135 130 120 113 111 114 116 114 115 120 121 121 126 129 128 127 127 127 127 127 127 127 127 126 126 126 126 123 119 116 114 113 118 129 139 144 144 142 139 139 138 132 123 112 106 110 118 121 121 118 114 114 117 120 122 124 126 128 134 141 142 136 127 120 116 115 118 123 128 129 128 125 124 124 124 125 125 125 125 127 128 129 129 129 129 128 127 127 127 128 128 127 127 127 127 126 126 126 126 126 126 127 127 128 128 127 126 126 126 127 127 127 127 127 128 129 128 126 126 127 128 127 126 126 126 126 123 121 121 124 126 126 127 126 126 126 128 127 121 115 116 121 126 127 127 127 127 126 125 125 124 125 127 128 128 127 124 119 116 120 125 126 125 123 122 124 125 123 121 119 116 114 114 117 123 125 123 122 124 128 128 126 126 126 125 125 128 129
125 126 128 129 130 129 128 127 126 126 128 130 133 131 127 124 124 122 121 123 126 128 128 123 120 121 123 125 124 124 125 125 126 125 123 122 123 123 123 123 122 121 122 125 128 128 126 125 126 128 129 128 127 126 124 122 122 126 129 128 130 138 141 134 125 116 111 112 112 108 107 114 120 122 122 121 124 126 127 128 127 127 127 127 127 127 127 127 126 125 124 123 124 125 127 126 118 108 101 98 99 104 113 124 128 122 111 108 117 123 123 119 116 117 120 124 126 126 128 132 134 130 119 108 99 90 85 87 95 105 113 120 125 126 127 126 126 126 127 128 132 135 135 134 133 131 130 128 127 126 126 126 126 126 127 127 127 127 127 127 127 127 126 126 126 127 127 127 127 126 126 127 127 127 126 125 127 129 130 129 128 128 128 127 125 126 128 129 129 128 126 124 123 122 123 124 125 127 129 128 125 123 124 124 123 121 120 122 124 125 126 124 122 125 128 129 130 129 126 122 120 122 126 126 122 121 121 122 123 123 120 116 112 113 118 122 123 122 119 119 123 129 129 123 119 120 123 127 130 131
126 128 129 129 128 128 128 127 127 128 128 127 124 123 122 121 123 126 127 128 127 124 120 118 118 119 122 125 124 123 124 124 126 127 126 125 126 127 127 127 127 125 124 125 126 127 126 126 127 129 130 129 127 126 126 126 127 133 137 135 131 129 128 128 128 126 124 122 119 118 120 122 123 123 121 122 126 127 126 126 126 127 126 126 127 127 127 127 126 126 125 125 126 126 123 117 112 109 105 101 101 104 107 113 123 126 117 110 117 125 126 122 117 117 120 125 127 129 131 131 128 124 126 130 127 118 111 111 114 115 116 118 120 123 126 126 127 127 129 134 141 143 140 136 133 131 129 128 127 126 126 126 127 127 128 128 128 127 128 128 127 126 126 126 127 126 127 127 128 128 128 127 127 127 126 125 126 128 128 127 126 125 125 125 125 126 128 129 130 130 129 127 124 122 122 122 123 125 128 129 129 127 125 123 121 118 116 117 120 123 126 124 121 122 127 130 131 130 129 129 130 129 127 123 122 124 124 123 122 122 119 116 116 117 120 123 123 122 121 122 125 130 130 125 121 122 125 127 129 129
128 128 128 128 128 129 131 131 129 128 128 125 119 117 121 125 128 130 132 132 130 124 120 119 121 123 124 125 125 124 124 125 126 127 127 127 127 128 129 130 129 128 128 128 127 127 126 124 124 126 129 129 127 126 128 128 126 127 133 134 127 120 121 118 115 118 125 130 131 131 131 127 124 123 124 129 135 135 129 125 125 126 127 127 127 127 127 127 128 131 135 135 132 128 127 131 140 144 139 130 127 126 124 120 121 128 129 121 121 125 127 125 123 121 122 124 128 133 136 137 141 152 165 169 160 145 134 130 130 128 127 129 131 131 133 137 142 146 148 148 146 143 139 135 132 129 128 128 129 128 127 128 128 128 128 127 128 128 128 127 126 125 126 126 126 127 127 127 128 128 128 127 127 126 126 125 125 125 125 125 125 124 124 125 127 126 125 125 125 123 122 124 125 125 124 122 122 123 124 127 129 129 127 125 125 124 122 119 118 121 124 123 118 117 124 128 126 125 126 129 132 131 125 120 121 122 124 124 122 121 122 124 126 125 122 122 125 126 126 126 126 125 125 125 126 126 125 125 126 126
127 127 125 125 126 129 131 131 130 129 128 125 120 120 124 128 130 131 132 132 130 127 125 125 126 126 126 126 125 125 125 126 126 127 128 130 130 129 129 130 129 128 129 129 128 126 124 122 122 125 127 128 126 126 128 132 132 129 125 121 118 114 111 106 96 93 101 115 128 128 122 121 123 122 124 131 137 137 131 127 126 126 127 127 128 128 128 127 130 138 147 150 145 142 144 150 156 157 152 148 145 143 141 139 138 138 137 130 126 127 126 126 127 127 127 127 129 134 140 146 157 168 169 162 159 156 150 145 143 143 144 145 144 143 145 151 156 160 161 156 147 140 136 133 132 130 128 128 127 128 127 126 126 126 126 126 128 129 129 127 126 127 127 127 127 127 127 127 127 127 127 127 127 127 127 127 127 126 126 127 128 127 127 127 128 127 126 124 122 120 119 120 123 124 125 124 122 120 119 120 125 129 130 129 128 128 128 125 121 121 124 126 122 118 122 126 124 123 124 126 129 127 124 125 124 122 122 123 121 122 125 127 129 128 125 124 124 125 128 130 126 122 121 122 124 125 125 125 125 126
128 128 126 124 125 127 127 126 127 129 129 126 126 126 127 129 129 129 130 129 128 129 129 128 128 127 126 125 125 127 127 126 126 128 131 132 130 126 123 124 126 127 128 128 125 124 124 125 126 126 125 125 125 126 134 152 162 146 120 111 115 115 108 98 92 89 90 97 110 115 111 112 121 127 129 130 132 130 127 126 127 127 127 128 127 126 127 127 130 135 142 146 147 146 148 151 153 158 167 171 163 154 151 150 147 140 134 132 130 128 126 126 127 130 130 129 129 131 134 137 138 137 134 133 143 156 159 155 152 151 148 144 141 140 143 145 147 149 151 150 146 140 134 131 131 131 130 128 127 127 127 126 125 126 126 126 127 128 128 128 128 128 128 128 128 127 127 127 127 127 127 127 127 127 128 129 130 129 128 128 129 130 129 128 127 127 128 127 126 125 124 124 124 125 126 126 124 121 119 118 120 126 131 132 130 129 129 128 125 122 125 129 128 122 120 122 124 125 126 126 124 122 124 128 129 128 128 126 124 125 127 126 124 122 124 126 125 124 128 130 130 128 127 124 124 125 127 127 127 127
129 129 127 126 126 127 126 125 126 127 128 128 130 131 129 128 127 126 127 128 129 129 129 129 129 128 128 128 129 130 130 129 129 130 131 130 126 121 118 121 126 129 129 126 125 125 126 128 129 127 125 124 124 126 138 160 161 134 113 114 120 117 107 99 104 113 111 101 96 102 107 109 117 129 133 129 125 122 123 126 127 128 128 127 126 126 126 127 129 131 132 134 137 137 134 131 127 129 136 141 138 133 131 132 131 129 129 131 132 130 127 126 126 126 128 129 130 128 127 125 115 102 99 103 111 123 133 137 136 135 131 126 124 127 131 133 135 139 142 145 144 140 134 130 130 130 129 127 126 127 127 126 126 127 126 126 127 127 126 127 128 128 128 128 128 127 127 127 127 127 127 127 127 127 126 127 128 128 127 127 128 129 129 127 127 127 128 129 129 129 128 128 128 129 128 128 127 126 124 124 124 125 128 130 132 132 131 129 127 124 124 127 127 124 121 121 123 124 127 128 124 120 121 123 126 128 127 124 124 126 127 127 124 122 124 126 128 129 127 126 128 131 131 127 125 125 128 129 129 128
128 127 127 127 127 128 128 127 127 127 129 130 130 128 127 126 125 125 125 128 130 129 128 128 128 128 129 131 132 132 131 131 130 129 127 124 122 122 122 124 127 129 127 126 127 128 129 129 127 126 125 125 124 125 130 129 113 103 110 118 116 106 98 103 117 125 123 113 104 105 110 112 117 126 132 128 118 117 124 127 127 127 127 126 126 126 126 127 130 133 133 135 140 140 131 117 104 95 91 95 104 111 116 122 128 133 135 136 135 132 128 126 125 125 127 131 132 130 128 126 120 108 99 97 97 101 111 118 119 118 119 121 127 134 137 139 140 141 142 141 139 137 133 130 128 126 124 124 124 124 125 126 127 127 127 127 127 127 128 128 127 127 127 127 127 127 127 127 127 127 127 127 127 127 126 124 123 125 126 126 126 125 125 125 126 126 126 126 128 128 127 127 127 127 127 127 128 128 127 127 126 125 124 126 130 132 130 129 129 128 126 126 125 124 125 125 125 125 128 129 127 123 121 121 125 126 122 118 122 125 125 124 125 126 125 124 125 127 125 123 126 128 128 124 123 124 126 128 129 128
128 128 128 129 128 127 129 130 130 131 132 131 127 124 126 127 127 127 129 131 130 127 126 126 125 126 126 127 128 129 129 129 128 128 127 123 122 125 128 128 128 128 128 127 127 127 128 127 126 125 126 127 125 124 120 103 89 98 114 118 111 104 105 113 122 128 127 124 120 116 115 116 118 122 123 116 111 118 126 128 127 127 127 127 128 128 128 128 130 135 140 147 155 159 152 138 124 113 109 112 120 129 136 143 152 156 152 143 137 135 130 126 126 128 130 132 134 134 134 134 138 138 130 122 118 120 122 124 126 129 134 143 155 163 161 156 149 142 136 132 129 128 128 128 126 124 123 124 125 125 125 127 127 127 128 127 127 127 128 128 127 126 126 126 126 126 127 127 127 127 127 127 127 127 126 125 124 124 125 124 123 122 123 125 126 126 126 126 127 128 127 127 128 127 126 127 128 129 128 127 126 125 124 124 124 125 125 127 130 130 128 125 123 120 119 122 125 128 128 126 125 124 125 126 125 123 120 121 124 124 123 124 126 129 129 127 125 126 126 126 125 125 125 124 125 127 127 127 127 127
128 129 131 133 131 128 126 128 131 131 130 127 125 126 128 128 128 128 128 127 125 124 123 123 124 124 122 122 125 127 126 125 126 128 128 126 125 127 130 130 129 128 128 127 126 125 126 125 123 122 124 124 123 122 118 106 98 102 111 114 110 111 116 121 125 129 130 130 127 122 118 118 117 114 108 103 111 122 127 128 128 127 127 128 128 128 128 128 128 133 141 153 166 175 175 173 171 167 162 158 158 162 165 167 167 163 157 147 138 134 130 126 127 130 131 132 135 139 145 151 157 159 158 158 161 168 171 171 171 175 181 186 188 182 169 155 144 133 126 121 117 117 122 125 126 126 125 126 127 128 126 126 126 127 128 128 127 127 127 127 127 127 127 126 126 126 126 126 127 127 127 128 127 127 126 126 126 126 126 126 125 125 126 128 128 128 128 129 130 131 131 132 134 134 134 134 131 128 128 129 128 128 128 126 123 122 122 123 125 129 128 124 123 117 109 114 124 128 127 123 121 125 129 128 125 121 121 123 122 121 122 124 127 130 131 131 131 131 129 126 125 124 125 127 129 129 128 127 127 127
128 130 132 132 130 127 126 126 126 125 124 123 125 126 126 125 125 125 123 119 119 123 124 124 124 124 123 125 126 126 125 123 122 124 125 126 128 130 130 129 128 126 125 124 124 123 124 124 123 121 120 121 122 123 120 116 112 107 104 107 110 116 121 123 124 127 129 130 127 123 120 120 119 111 102 105 116 123 125 126 126 126 127 127 127 126 126 127 128 130 136 143 151 156 163 175 185 189 186 178 174 172 170 164 152 143 142 142 136 131 126 123 126 130 131 131 134 140 150 157 158 161 170 179 187 195 201 204 204 201 197 190 177 163 151 141 132 126 120 116 114 115 119 123 124 125 125 126 127 128 127 126 126 127 127 127 127 127 127 127 128 128 128 127 126 126 126 126 126 126 127 127 127 127 126 126 126 127 127 127 128 129 129 129 128 127 127 127 129 131 133 133 133 135 137 136 133 128 127 128 128 128 128 127 124 123 123 123 123 123 123 123 124 120 113 115 124 127 125 124 127 131 132 131 126 121 121 123 124 126 127 126 128 132 133 131 128 126 125 124 124 125 127 128 129 130 130 129 130 129
128 129 126 121 120 122 124 125 124 123 122 124 125 125 124 123 124 124 122 119 119 122 125 126 126 125 127 129 128 125 123 121 119 118 118 122 128 130 128 127 126 125 125 124 123 122 121 122 123 121 120 122 125 125 120 117 118 116 109 110 117 122 125 127 125 124 126 128 127 124 122 122 120 112 108 114 121 125 126 126 126 126 126 126 126 126 127 128 129 130 130 125 120 123 133 142 146 152 160 166 167 165 162 155 145 137 136 140 138 131 126 124 127 131 133 133 134 138 142 141 144 153 161 164 164 164 166 169 170 167 162 153 141 135 133 130 125 122 118 116 116 118 120 121 122 124 126 127 128 128 128 127 127 126 127 127 128 127 127 127 127 127 127 127 126 126 126 127 126 126 127 127 127 127 126 126 126 128 129 128 129 129 128 127 127 127 127 128 129 130 131 130 128 126 125 124 125 127 127 126 125 126 127 128 127 125 125 127 126 122 120 121 124 126 123 120 122 124 126 130 136 136 131 127 126 125 124 126 128 127 125 126 129 131 130 127 123 122 123 124 127 128 128 129 129 130 131 132 132 130
128 125 117 110 110 116 120 123 125 124 123 123 124 125 125 124 125 125 124 123 122 123 124 126 126 127 127 126 125 124 123 123 121 118 118 122 126 127 126 125 125 127 128 127 126 124 123 121 121 122 122 124 126 125 119 118 122 123 117 116 120 124 126 128 128 125 125 126 125 124 123 123 119 113 113 120 125 127 128 128 128 127 126 126 127 127 128 129 128 125 120 113 108 111 118 121 123 127 135 146 152 151 149 147 144 143 145 143 138 131 127 125 127 129 132 134 135 135 133 133 139 144 143 142 140 136 132 131 131 130 129 128 127 124 122 122 122 120 118 117 118 121 123 123 124 126 127 127 126 126 127 127 127 127 127 127 128 127 127 126 126 126 126 127 127 127 127 127 128 128 127 126 127 127 127 127 128 131 133 134 133 130 127 127 128 127 127 128 128 126 125 124 122 119 117 117 119 124 128 127 125 124 125 126 126 126 125 125 125 123 120 118 121 125 125 120 118 122 127 131 134 131 124 121 125 131 131 129 127 124 124 128 129 127 126 128 128 127 126 127 128 129 129 129 130 131 131 131 130 128
126 123 119 117 116 118 121 124 126 125 124 124 124 125 126 126 127 127 127 127 126 126 126 125 125 126 125 124 123 125 127 129 127 122 122 126 128 128 126 125 126 127 127 128 129 128 126 124 124 125 126 126 127 126 124 125 127 126 121 118 119 122 124 126 127 126 125 125 125 124 124 123 121 118 118 122 125 127 128 129 128 127 126 126 127 128 128 127 126 121 114 113 114 115 118 122 126 129 131 135 139 140 136 132 130 135 139 137 135 132 129 128 128 129 129 130 131 130 128 130 133 131 128 127 126 124 123 123 123 121 120 121 122 121 118 119 119 117 117 117 120 123 125 126 127 128 128 127 126 126 126 127 128 128 127 127 127 127 127 127 127 127 127 128 128 128 127 127 128 128 127 127 127 127 127 127 128 130 134 136 134 131 129 128 128 127 125 124 123 123 124 122 121 121 122 123 123 124 127 128 126 125 126 126 126 126 126 125 124 125 124 122 122 123 122 116 111 116 123 126 124 122 122 124 126 131 132 128 126 127 129 130 128 126 128 134 136 134 130 129 129 129 130 131 133 133 131 129 127 127
126 125 126 130 130 128 126 128 129 128 127 126 126 127 128 130 130 130 129 129 128 127 127 125 123 122 122 123 124 127 129 130 129 126 125 127 129 129 128 127 127 126 126 128 129 129 129 128 128 128 128 128 129 128 128 128 127 125 121 119 118 118 120 123 125 126 125 124 125 126 127 127 124 122 122 124 126 127 128 128 128 128 128 128 128 128 127 126 124 119 116 117 120 121 123 126 128 129 131 132 134 135 132 128 126 126 126 129 132 133 132 131 130 129 128 128 128 127 127 127 125 122 121 119 118 118 119 121 123 124 124 123 121 120 120 119 117 116 116 119 121 123 124 126 128 127 127 128 129 129 129 128 128 127 127 127 127 127 128 128 128 127 128 128 128 127 127 127 127 127 127 127 128 128 128 127 128 130 132 134 134 133 133 132 130 129 127 126 126 127 127 127 128 129 130 130 129 127 126 128 132 133 131 129 128 129 129 128 128 129 131 131 128 124 120 115 107 101 102 106 110 114 120 124 123 123 124 126 125 126 128 128 126 126 129 132 133 133 132 131 130 128 128 129 130 130 128 127 126 127
128 128 127 129 133 134 133 133 131 129 127 127 128 130 131 132 132 130 129 128 127 127 126 124 122 121 122 124 125 127 128 128 128 128 128 128 128 129 130 131 130 129 128 127 127 129 131 131 129 127 127 127 127 128 127 126 124 122 121 120 119 118 120 123 126 126 125 125 125 127 128 128 125 122 123 126 127 128 127 126 127 127 128 128 128 127 127 126 123 119 118 119 121 123 125 127 128 128 128 129 129 128 126 125 126 126 125 128 132 134 133 131 129 128 129 129 130 128 124 121 119 118 119 121 122 123 123 124 125 126 125 124 122 119 119 120 118 117 119 121 121 122 123 125 126 125 125 126 126 128 129 129 128 127 127 126 127 127 128 127 127 127 127 126 127 127 127 127 127 127 127 127 128 128 128 129 134 139 140 139 140 142 143 143 143 143 144 143 141 138 136 138 139 138 138 138 138 135 132 134 139 140 137 133 133 133 131 129 130 131 131 131 128 124 120 118 112 103 97 99 104 110 116 118 117 116 116 121 124 123 121 119 119 122 123 123 124 128 131 130 126 123 121 122 123 124 124 126 127 127
128 125 121 121 123 127 130 130 128 127 126 127 127 127 127 127 127 127 127 127 127 126 125 123 122 123 124 125 126 126 127 127 129 131 130 127 126 126 129 132 131 129 127 126 126 128 130 130 128 127 126 126 126 127 127 125 124 124 124 124 124 124 124 125 127 127 126 126 127 128 129 128 124 122 123 124 125 125 124 124 126 127 127 127 127 127 127 126 124 120 120 122 124 126 127 128 127 126 125 124 124 122 121 122 123 125 126 129 131 132 131 130 131 130 130 129 128 126 124 123 123 122 122 124 126 127 127 126 125 123 123 123 121 119 120 121 122 122 122 122 122 123 123 123 123 124 126 127 126 126 127 128 128 127 127 128 128 128 127 126 126 126 127 126 127 128 128 127 127 127 126 127 127 128 128 131 138 143 142 139 139 141 143 144 147 152 158 158 153 149 149 153 153 150 147 147 148 147 145 142 141 140 142 144 144 142 140 141 142 140 139 138 136 134 131 128 125 123 120 118 117 118 120 121 120 118 118 120 121 122 119 116 115 116 116 115 115 118 121 122 121 120 120 120 120 121 123 126 127 127
120 117 118 119 118 117 120 122 123 124 124 124 124 123 120 118 118 120 123 125 126 126 124 123 124 126 127 127 127 127 126 125 127 130 130 128 126 127 128 129 128 125 124 124 126 126 126 126 127 126 126 125 126 128 128 126 126 127 127 126 126 126 125 125 125 125 125 125 126 128 128 125 120 120 123 124 124 123 124 125 127 127 127 127 127 127 127 126 125 122 121 122 125 126 126 126 126 125 123 121 119 118 119 118 113 114 119 126 128 125 122 126 132 132 130 128 124 123 126 127 127 125 124 125 125 123 121 120 119 119 120 119 118 120 122 123 125 125 125 125 126 126 126 124 124 127 129 130 129 127 126 125 126 127 127 128 128 127 127 126 127 127 128 128 128 127 127 127 127 127 127 127 127 127 127 125 123 122 123 125 127 127 125 124 125 130 138 143 144 143 144 146 147 146 144 141 140 142 143 142 140 140 145 150 151 149 149 150 149 149 150 149 149 150 148 145 142 139 137 135 135 138 139 137 133 130 130 129 127 126 127 128 126 123 121 120 120 121 120 122 126 129 129 127 127 129 130 129 129 129
115 115 121 124 122 119 118 120 122 124 124 124 124 123 122 119 117 118 121 124 125 126 126 126 128 129 129 129 129 127 125 125 127 130 131 131 130 130 129 126 123 122 123 125 127 126 126 126 127 128 127 125 126 128 128 126 126 127 127 126 125 125 125 125 124 123 123 123 125 127 126 122 119 121 125 126 125 125 126 127 127 127 127 127 127 127 128 128 127 124 122 120 122 124 123 124 125 124 123 122 120 118 114 108 106 110 117 125 125 119 117 123 130 131 129 127 124 119 119 121 120 118 119 121 121 119 118 117 117 118 117 114 116 121 122 122 122 124 125 126 127 127 127 125 124 126 128 129 129 128 127 126 126 127 127 127 127 127 126 127 128 128 128 128 128 127 127 127 127 127 127 127 126 126 126 122 112 106 107 112 115 114 112 112 112 113 115 120 127 130 127 124 125 127 127 126 125 127 130 132 133 134 135 138 142 147 149 148 145 143 143 143 143 145 147 149 147 143 141 144 148 150 147 143 142 143 145 145 141 139 140 141 138 132 127 124 124 126 127 128 133 139 140 138 140 143 143 137 132 130
121 122 125 126 126 124 121 122 125 126 127 127 125 125 124 124 122 121 122 123 125 126 127 128 128 128 128 128 128 128 128 128 129 130 131 132 130 127 126 125 123 123 125 127 128 127 127 128 129 129 128 127 127 127 128 128 129 128 128 128 128 127 127 128 127 125 124 125 126 127 125 123 123 124 126 126 126 126 127 127 127 127 127 127 127 127 127 127 126 123 120 120 121 122 122 122 123 124 124 124 122 117 109 105 107 114 122 125 122 120 122 126 126 126 126 125 122 116 114 117 118 116 114 115 116 119 120 120 120 118 114 114 118 120 119 118 119 121 123 124 124 123 122 123 123 124 124 126 127 127 128 128 128 127 127 126 126 126 126 127 128 127 127 127 127 128 128 127 127 127 127 126 126 126 126 125 120 115 112 110 108 110 114 117 117 113 109 108 112 115 115 114 113 114 116 118 119 120 121 121 121 120 119 118 121 127 132 135 134 132 130 129 126 125 128 133 137 139 141 144 145 144 140 139 140 142 142 142 141 137 132 127 124 123 121 118 117 119 122 123 127 134 138 139 139 137 135 132 127 125
126 127 127 127 127 125 123 123 125 127 127 127 126 126 126 127 126 125 123 124 125 126 127 128 127 128 128 127 128 129 130 129 128 128 128 128 126 126 126 127 128 128 128 128 128 127 128 129 129 129 129 128 126 126 127 129 129 127 128 131 131 130 129 128 126 124 123 124 126 125 124 124 124 125 126 127 127 127 127 126 126 127 127 127 127 127 126 126 126 122 120 120 119 119 117 116 118 122 124 125 122 116 114 113 115 120 125 126 124 125 128 127 124 124 125 125 123 120 119 122 125 126 123 119 118 120 122 120 116 113 114 116 117 117 117 116 117 120 121 122 121 121 122 125 127 126 125 125 126 127 127 128 128 128 127 127 126 127 127 127 127 126 126 126 127 127 127 127 127 128 127 127 127 127 127 127 126 124 121 116 114 117 119 121 120 115 110 106 105 107 110 110 110 111 112 112 112 110 109 108 109 110 109 108 106 105 106 108 112 116 119 120 118 116 115 118 124 129 134 134 132 131 133 133 130 127 124 121 117 111 108 106 109 114 118 119 118 115 115 115 114 116 123 131 135 130 125 123 122 123
127 127 127 127 127 127 126 125 126 127 127 127 127 128 128 128 128 127 125 125 126 126 126 127 127 128 129 129 128 129 130 130 129 128 127 126 126 126 127 127 128 129 128 127 127 127 127 127 127 128 129 129 127 125 126 126 127 127 128 131 133 132 130 127 125 124 124 125 126 125 125 124 124 126 127 127 127 127 127 126 126 127 127 127 127 126 126 127 127 125 122 119 115 114 115 114 115 120 124 124 122 119 119 120 125 132 135 134 130 129 129 128 126 127 128 129 129 126 124 127 134 140 138 129 122 118 116 116 115 115 117 116 115 117 118 118 118 120 122 123 123 123 124 125 126 127 127 126 127 127 127 127 127 127 127 127 127 127 127 127 126 126 126 126 128 128 128 128 128 127 127 127 127 127 127 127 126 125 124 123 123 123 123 122 123 122 119 115 112 112 113 113 112 112 112 113 112 110 109 108 108 109 110 109 108 105 101 99 101 107 113 116 117 117 116 114 114 116 119 118 115 111 112 116 117 113 108 104 104 106 108 110 113 118 121 122 120 115 113 114 113 110 113 124 134 133 124 120 121 123
126 126 126 127 128 127 126 126 127 128 128 127 127 127 127 127 126 127 127 127 126 125 124 125 126 127 127 126 125 125 128 130 130 128 127 128 128 127 127 128 128 127 128 128 128 128 127 127 129 128 128 128 129 129 127 126 126 128 129 130 131 132 130 127 128 129 129 128 127 127 128 128 127 127 127 127 127 127 127 127 127 127 128 127 127 127 126 126 126 126 124 120 113 110 113 116 117 116 117 116 115 118 120 120 123 131 137 136 133 131 131 130 128 128 128 129 129 126 121 124 135 140 135 127 122 118 117 119 122 122 120 117 115 113 115 119 122 123 124 125 126 126 125 125 125 126 128 128 128 128 127 127 128 127 127 127 127 126 126 126 127 127 127 127 127 128 128 129 128 128 128 128 128 128 127 127 126 125 126 127 127 126 125 125 125 125 126 125 123 121 120 119 118 118 119 121 122 122 122 120 119 119 120 118 116 114 113 111 110 109 109 111 116 118 119 116 112 111 110 107 104 101 99 103 108 109 107 109 116 121 122 121 124 125 124 121 119 119 119 120 120 116 111 109 110 110 109 111 114 119
127 126 127 127 127 127 126 124 125 128 128 127 127 126 126 126 125 126 126 127 126 125 125 125 127 127 126 124 122 122 124 127 128 128 127 128 130 129 128 129 129 130 131 131 130 128 128 130 132 131 128 129 132 132 130 127 127 128 129 128 127 128 128 127 127 129 129 129 129 129 130 130 128 127 127 127 127 127 128 128 128 128 128 127 127 127 126 126 126 126 124 120 114 110 112 116 117 114 111 111 113 117 118 114 113 119 127 128 127 126 123 119 119 121 122 122 121 121 116 114 121 127 127 127 126 124 122 120 121 120 119 119 117 113 114 120 123 124 124 124 124 125 126 126 126 127 128 128 128 127 127 128 129 128 127 127 126 126 126 127 127 128 128 127 126 125 126 127 127 128 128 128 127 127 127 127 126 125 126 129 129 127 127 127 126 126 127 128 127 125 123 122 122 123 124 127 129 129 129 128 127 125 125 126 126 124 123 124 123 118 113 111 113 117 121 121 119 116 113 110 109 109 108 106 108 114 119 123 126 127 127 128 130 127 123 121 122 125 126 125 124 122 115 105 96 96 101 107 112 119
127 127 127 127 127 127 126 122 120 123 127 128 127 127 128 128 128 127 126 125 126 127 128 128 129 128 127 126 125 122 121 122 124 126 127 128 130 129 128 129 130 132 131 129 128 128 130 131 130 130 129 130 130 129 127 127 127 128 127 125 124 124 125 126 126 127 128 129 129 128 128 128 128 128 127 127 127 127 127 127 128 128 128 127 127 127 126 126 126 125 123 121 119 117 116 117 116 115 113 113 117 122 122 116 108 101 101 103 104 101 98 101 107 111 112 112 113 115 115 111 113 122 129 131 129 125 121 118 117 117 116 116 117 118 121 123 124 124 124 124 124 124 126 127 128 128 128 127 127 128 129 129 127 127 128 128 127 127 127 127 127 127 127 127 126 125 125 125 126 126 127 126 126 127 127 127 127 127 127 128 127 127 128 129 128 128 128 128 128 127 125 123 123 123 124 126 128 128 129 130 129 126 125 126 128 127 127 129 129 127 124 121 119 119 121 123 123 122 120 119 120 121 119 117 117 121 124 126 125 124 127 130 129 126 123 126 130 131 128 125 123 124 123 116 110 110 113 117 122 126
127 127 128 128 128 128 126 121 118 120 126 129 128 128 129 130 130 129 128 127 127 128 129 129 129 128 128 128 128 126 123 121 122 124 125 127 129 130 129 129 130 130 129 127 128 130 130 129 128 128 129 129 126 125 126 127 128 127 126 124 124 125 126 127 128 128 128 128 127 126 126 127 129 129 127 127 128 127 126 126 126 126 126 126 126 127 127 127 126 125 123 122 123 122 119 115 115 115 115 115 120 128 138 138 122 97 78 72 70 72 83 98 107 109 109 110 113 115 116 114 111 114 125 132 129 124 121 120 119 117 116 115 115 119 123 125 125 125 126 126 126 126 126 128 128 128 127 127 127 128 129 128 126 126 128 128 128 127 127 127 127 127 127 127 127 126 126 126 127 127 126 126 127 127 127 127 127 127 126 127 127 127 127 127 129 129 127 126 125 126 127 126 125 125 125 124 124 126 128 128 129 129 127 126 124 125 127 128 127 125 125 126 124 123 123 123 124 123 122 122 123 124 124 124 125 125 126 126 124 123 126 130 129 127 126 127 131 132 130 127 125 126 126 124 121 122 126 128 129 129
126 126 127 127 127 127 126 123 120 120 124 128 130 130 129 129 129 129 128 126 126 126 127 129 129 128 127 127 127 127 126 124 123 122 123 125 127 129 129 128 128 128 129 130 129 129 130 129 128 128 128 127 125 124 126 127 128 127 126 126 127 128 129 130 129 128 127 126 125 126 126 127 128 128 127 128 128 128 127 126 126 125 125 125 126 127 128 128 127 126 125 124 124 122 117 114 115 116 117 123 130 138 153 169 162 129 95 76 71 79 94 107 113 115 118 120 120 121 122 118 110 110 119 125 124 121 121 122 119 117 117 117 118 121 123 125 125 125 126 127 127 126 126 126 127 127 126 127 128 128 127 127 126 127 128 128 128 127 127 127 128 128 127 127 127 127 127 127 127 128 128 127 127 127 127 127 126 126 125 125 127 127 126 126 126 126 125 124 124 125 126 127 128 127 127 126 125 125 126 127 128 128 127 124 123 125 127 127 127 127 126 124 124 124 124 123 123 122 122 121 121 121 123 125 126 127 126 126 125 125 127 128 126 125 127 127 126 127 129 129 126 125 125 126 125 126 129 131 131 129
126 125 125 125 125 126 125 125 124 122 122 125 128 129 128 127 128 128 128 127 125 124 126 128 129 128 127 127 127 127 128 127 126 125 125 124 124 126 127 127 127 128 129 129 128 127 127 127 125 125 125 125 124 125 127 129 130 131 130 130 130 130 130 130 128 127 127 127 127 126 126 127 127 127 127 127 127 128 128 128 127 126 126 126 126 127 127 128 128 127 126 125 124 121 118 115 114 115 119 126 133 141 153 171 189 182 145 110 97 103 113 118 121 125 128 129 128 128 130 127 120 114 110 110 113 114 114 112 111 111 115 119 122 123 124 125 126 126 126 126 126 127 126 126 127 128 127 127 127 127 126 126 128 128 127 127 126 126 126 126 126 126 126 127 127 128 128 127 127 127 128 128 128 128 127 127 126 126 126 126 127 128 128 127 125 125 126 126 126 127 127 128 129 129 127 126 126 125 124 124 124 125 125 125 126 128 129 129 130 131 130 129 129 130 129 126 123 123 123 123 122 121 122 123 123 123 122 123 126 128 128 126 124 124 125 126 125 126 129 132 131 127 126 126 127 128 131 132 131 129
126 126 125 125 126 126 125 126 126 123 120 123 127 128 127 127 128 129 130 129 127 126 126 127 127 128 128 128 127 127 128 128 128 127 126 123 122 124 125 126 127 128 128 128 128 126 125 124 124 125 126 127 127 129 130 130 131 132 132 132 131 131 129 127 127 127 128 128 128 127 127 128 128 127 127 127 127 127 127 128 128 127 127 128 128 127 127 127 128 128 127 125 124 123 122 119 115 113 115 119 124 132 139 146 166 188 184 156 130 121 122 124 127 129 130 131 132 135 136 132 126 115 103 100 103 106 105 104 106 110 116 122 125 125 125 125 126 127 127 127 126 127 127 127 127 127 127 127 126 126 126 126 126 127 127 126 126 126 127 126 125 125 126 127 127 128 128 128 127 126 127 127 127 127 127 127 127 127 127 128 130 131 132 131 130 130 131 131 130 129 129 129 130 131 130 128 127 127 126 124 123 124 126 128 129 130 129 129 130 131 132 133 134 134 132 128 125 123 122 121 120 120 121 121 121 122 122 124 127 129 127 125 127 128 127 125 127 129 131 135 136 134 130 130 132 132 131 129 128 128
127 127 127 128 128 127 127 127 126 123 121 124 128 128 128 127 128 128 129 128 128 129 129 129 127 127 128 127 126 125 125 125 127 127 126 125 125 126 127 128 128 128 128 128 127 127 126 126 127 129 129 130 131 131 129 128 128 129 129 129 128 127 126 125 126 127 127 127 128 128 128 128 127 126 127 127 126 126 127 128 128 128 128 129 129 128 128 128 128 128 127 125 124 125 125 123 120 116 114 114 116 121 125 127 133 148 170 174 157 139 130 129 130 131 131 132 136 139 138 131 121 110 103 101 101 105 109 112 116 120 123 125 127 127 126 125 126 128 128 127 127 127 128 128 126 126 127 128 127 126 126 126 126 126 126 127 128 128 128 128 127 127 127 127 127 128 128 128 128 127 126 126 126 126 127 127 127 127 127 128 129 130 130 130 132 133 133 133 132 131 130 129 129 130 131 130 129 129 129 129 128 128 128 130 130 130 128 126 126 126 127 128 128 127 125 123 122 122 121 120 122 123 124 125 126 127 128 126 126 128 127 125 127 130 130 129 130 130 131 133 134 134 133 133 133 132 130 128 126 126
128 128 128 129 128 128 128 127 126 124 124 125 127 128 127 127 127 128 128 129 130 130 130 129 128 128 127 126 124 124 125 125 127 128 130 130 130 129 129 128 126 125 125 124 125 126 127 127 127 127 127 127 128 128 127 127 128 127 126 126 125 124 125 126 127 128 129 128 128 129 129 127 126 126 127 127 127 127 127 128 128 128 128 128 128 128 127 126 126 127 126 123 123 125 126 126 125 123 121 116 113 111 110 113 115 119 134 152 155 147 140 136 136 136 136 137 139 138 134 126 114 105 104 106 108 111 115 120 124 127 128 128 128 128 128 127 127 128 129 129 129 129 130 130 129 128 128 128 127 126 126 127 127 127 127 127 128 128 129 129 128 128 127 127 127 128 128 128 128 127 127 127 127 128 128 128 128 127 127 128 128 127 126 126 127 128 128 128 130 131 130 128 127 127 128 129 129 130 131 132 131 129 128 129 129 127 125 122 121 122 122 121 120 120 120 120 122 124 126 128 128 128 128 128 127 127 127 125 125 127 129 129 129 130 131 131 130 129 129 130 130 131 133 132 129 127 127 126 124 124
127 127 128 128 128 128 127 128 128 127 126 126 126 127 126 127 127 128 128 128 129 128 128 128 128 128 127 125 126 127 127 127 128 129 130 129 127 126 126 125 123 123 123 124 126 127 127 126 125 124 124 126 126 127 129 129 128 126 125 125 125 126 128 129 129 129 129 128 128 129 129 129 128 128 128 127 127 127 126 126 127 128 128 128 128 128 128 126 125 125 125 123 122 124 127 127 126 126 123 117 109 100 94 93 98 110 126 140 146 145 145 144 142 140 139 137 135 133 128 123 116 111 110 111 113 118 122 126 128 130 131 131 130 129 129 128 127 126 127 130 131 130 128 128 129 128 127 126 126 126 127 127 127 127 127 127 127 127 128 128 128 127 127 128 128 127 127 127 126 126 127 128 128 128 128 128 128 128 127 126 127 127 127 126 124 123 122 122 123 124 125 125 126 126 126 127 128 128 129 128 126 124 124 124 125 124 123 122 121 121 121 122 122 123 124 126 128 130 131 132 131 131 130 128 126 125 126 128 129 129 129 131 131 129 129 129 128 126 126 127 128 127 126 124 121 120 120 121 121 122
127 127 127 127 128 127 127 129 129 128 126 126 127 127 127 127 127 127 126 127 127 126 125 125 126 125 125 124 126 127 127 127 127 127 126 125 124 124 124 124 124 125 126 128 130 130 129 128 127 126 125 126 127 129 130 130 129 128 127 127 127 127 127 128 128 128 127 127 127 126 127 129 130 130 128 128 127 127 126 126 127 127 127 128 128 128 128 128 127 126 125 125 124 124 125 126 127 128 125 118 109 96 84 81 88 97 108 122 136 145 146 143 140 137 134 131 129 127 124 121 118 116 115 117 122 128 130 130 130 130 131 130 129 129 129 130 128 126 126 128 129 127 126 126 127 128 127 126 126 126 127 127 126 126 127 127 127 127 127 127 127 128 128 128 127 126 126 125 125 125 126 127 127 127 128 128 128 127 126 125 126 127 127 125 124 126 128 127 124 122 122 125 127 127 127 127 127 127 127 125 124 124 125 124 124 124 125 126 126 125 125 126 127 128 130 133 134 135 134 132 132 133 133 131 131 132 133 134 133 131 130 131 130 128 127 127 126 125 124 122 120 118 116 115 116 118 120 121 122 123
126 126 127 127 127 127 127 127 128 128 126 124 125 126 127 127 128 127 126 126 126 126 124 123 123 123 124 126 128 128 128 127 127 125 125 125 126 127 127 127 127 127 127 129 129 128 128 128 129 129 129 129 129 128 128 128 128 128 128 128 128 127 126 126 126 126 126 125 124 125 126 128 129 129 128 127 127 127 128 128 128 127 127 127 128 128 128 129 129 128 127 126 123 122 123 126 128 129 129 124 117 106 91 81 76 68 64 78 106 127 131 129 126 125 125 123 121 118 117 114 112 111 115 123 133 138 135 132 131 129 128 127 127 127 128 129 129 128 127 127 127 127 127 127 126 126 127 126 126 126 126 126 125 125 126 126 127 127 128 128 128 128 128 128 128 126 125 125 125 126 126 125 126 126 127 127 127 126 125 125 126 126 125 125 126 129 132 132 129 127 125 126 127 128 128 128 129 129 129 129 130 131 130 129 129 129 130 130 130 130 130 130 130 130 133 136 136 135 133 132 132 132 133 135 135 135 134 133 131 130 129 128 126 126 127 127 127 126 123 118 117 118 117 118 121 124 125 125 126 127
127 126 127 127 127 127 126 126 126 128 128 127 126 127 127 127 127 127 126 126 127 127 126 125 124 125 127 130 131 130 128 127 127 127 127 127 128 128 128 127 127 126 127 128 126 125 125 126 128 129 129 129 128 127 126 126 126 127 127 128 128 127 126 125 124 124 124 124 125 126 126 126 128 129 129 127 127 127 128 128 128 128 127 127 127 127 127 127 127 128 127 126 123 121 123 126 128 130 133 132 127 120 111 98 86 76 70 73 88 105 114 115 114 114 114 113 112 111 111 113 115 118 126 135 139 137 134 132 130 129 128 128 127 127 127 126 128 130 129 127 126 127 128 127 127 126 126 126 126 125 125 125 126 126 126 126 126 127 128 128 128 128 128 127 127 127 127 127 127 126 126 126 126 127 127 127 127 127 126 126 126 127 128 129 129 128 127 127 127 127 127 128 127 127 127 128 130 131 132 132 132 133 132 131 131 131 130 131 132 132 133 133 132 132 133 132 131 130 131 133 132 130 131 133 132 131 130 128 127 127 126 125 125 127 128 128 126 122 118 117 120 123 125 127 128 127 127 127 128 129
128 128 128 127 126 126 127 127 127 130 131 130 128 127 128 127 126 126 126 127 127 126 126 127 127 128 128 129 129 128 128 128 129 129 130 130 130 129 128 127 127 127 127 127 127 127 126 126 127 127 127 125 125 125 125 124 124 125 126 127 128 128 127 125 122 120 121 123 126 126 125 124 127 129 129 127 127 127 127 127 127 127 127 127 127 127 127 126 126 126 127 126 123 120 121 124 128 131 136 140 141 139 141 146 150 147 136 125 118 115 116 118 120 120 120 119 119 120 122 128 135 142 146 144 137 132 131 130 129 128 127 127 126 125 125 125 126 128 129 127 126 126 127 128 127 126 126 127 127 126 126 128 128 127 127 127 127 127 127 127 127 127 127 126 126 127 128 128 128 127 127 127 127 128 128 128 127 127 127 126 125 126 130 131 130 127 125 125 127 128 129 129 128 128 129 130 129 128 127 127 128 130 132 131 129 129 130 132 133 134 134 133 132 130 129 128 128 129 131 133 132 130 129 129 129 127 126 125 124 124 124 125 127 127 126 123 119 117 119 122 124 127 131 133 132 130 127 126 127 127
129 130 129 127 126 127 128 128 129 129 130 128 126 125 126 127 125 126 127 128 127 125 125 126 128 129 129 129 128 128 129 130 129 129 129 129 129 127 126 126 124 123 122 123 126 127 128 128 128 127 126 125 124 124 124 123 122 123 125 127 129 129 128 127 124 123 123 125 126 126 125 126 127 127 127 127 127 127 127 126 126 127 128 128 127 127 126 126 126 127 127 127 126 121 119 121 127 132 136 142 151 160 173 189 197 192 186 181 171 155 144 144 147 146 143 142 142 142 143 144 147 149 146 137 130 128 128 129 128 127 126 125 125 126 126 125 124 124 125 126 126 126 127 128 127 126 126 125 126 127 128 128 128 127 127 127 127 127 126 127 127 127 127 127 127 128 128 128 128 128 127 127 127 127 128 128 127 127 127 126 125 127 128 129 129 127 125 126 128 130 131 129 128 130 131 130 127 124 123 124 127 129 129 130 129 129 130 131 131 131 131 129 127 126 126 126 128 129 130 130 130 129 127 126 126 126 125 124 124 124 125 126 126 124 121 118 118 121 125 126 125 127 130 132 131 129 127 126 126 127
128 129 129 127 127 127 127 128 129 128 128 128 126 125 126 126 126 126 127 127 127 128 128 129 129 129 129 128 127 127 128 128 127 127 126 126 125 125 124 123 122 120 119 121 123 124 125 125 126 127 127 127 128 127 126 125 123 122 124 126 126 127 128 128 128 129 130 129 129 129 130 129 127 126 126 128 128 127 127 127 127 127 127 127 126 126 126 126 127 127 127 127 126 123 119 118 120 124 127 132 142 155 170 180 173 160 158 160 159 155 154 157 156 150 145 143 143 142 142 141 140 137 133 130 128 127 126 126 126 126 125 123 124 125 126 125 124 123 123 126 128 128 127 127 127 126 125 125 127 128 127 126 126 126 127 128 128 127 127 127 127 127 127 128 128 128 128 128 128 128 128 128 127 126 127 127 127 126 127 126 126 126 126 126 126 125 124 124 126 129 130 130 131 131 131 129 127 127 127 128 128 128 128 129 129 130 131 128 126 127 127 126 125 125 125 126 127 126 125 125 126 127 127 125 125 125 125 125 125 124 121 119 118 118 118 121 125 128 128 127 125 125 126 127 127 128 129 129 127 127
127 127 127 127 126 127 128 129 129 129 130 129 127 126 126 126 127 127 128 128 129 131 131 131 130 128 127 127 126 126 126 127 127 126 126 126 126 125 124 123 124 124 124 124 125 125 125 125 124 124 125 127 129 129 128 126 125 124 123 123 123 125 126 128 131 132 133 132 131 131 133 133 131 128 127 128 129 128 128 128 128 127 127 126 125 125 126 128 129 128 126 125 125 124 120 115 114 112 112 116 122 131 138 137 128 120 112 101 99 107 116 119 120 123 124 124 124 124 125 127 128 128 127 127 126 125 124 124 124 124 123 124 124 124 125 126 125 124 124 126 129 129 127 125 125 126 127 128 129 128 127 126 126 126 127 128 128 128 128 128 128 128 128 128 128 128 128 127 128 128 129 128 127 126 126 127 127 127 127 127 125 124 125 126 127 129 130 130 129 128 128 129 130 129 128 129 130 131 130 129 128 127 127 128 129 129 129 128 127 126 126 127 127 126 126 127 127 126 123 122 123 126 127 126 125 125 124 123 120 118 117 115 115 117 121 125 129 130 131 131 130 129 130 131 132 132 133 130 128 128
126 126 125 126 126 126 127 129 130 131 129 127 125 126 127 128 129 129 129 128 129 130 130 129 128 127 127 128 129 129 128 128 127 127 127 127 127 127 127 126 128 130 130 129 128 128 127 125 123 122 123 123 123 124 124 123 125 126 125 125 127 126 126 127 129 130 131 131 131 130 131 133 133 130 128 128 128 128 128 128 127 127 127 126 126 126 128 129 129 129 127 126 125 125 122 116 112 111 110 109 110 114 113 107 107 115 114 103 95 96 96 94 96 103 108 112 116 120 121 121 120 120 121 123 124 124 124 123 124 122 122 124 125 125 125 125 125 125 126 126 126 126 125 124 125 127 129 128 126 126 127 126 127 127 127 127 127 127 127 128 128 128 127 127 127 127 126 126 127 128 128 128 127 127 126 126 127 128 127 127 126 126 128 129 130 131 132 131 130 129 129 129 128 127 126 126 127 128 128 128 127 126 127 128 129 128 128 130 130 127 125 125 125 125 125 125 125 125 124 122 120 120 121 122 122 121 119 118 117 117 119 121 122 123 125 127 127 127 128 131 133 133 133 132 130 129 128 127 129 129
126 125 125 126 127 127 127 128 128 127 125 124 125 126 127 128 128 128 128 127 126 126 126 126 125 126 128 128 129 129 127 126 126 126 128 129 128 127 127 127 129 131 132 131 129 127 126 125 125 126 126 124 122 121 122 124 125 126 127 128 128 127 126 126 126 127 127 128 128 127 126 127 128 128 129 128 127 127 127 127 126 126 126 127 127 127 127 127 128 128 127 127 126 126 124 120 115 112 112 112 110 108 106 106 111 121 128 127 122 117 114 112 112 113 115 120 124 127 126 125 124 123 123 124 125 125 124 123 122 121 121 123 123 123 122 123 125 126 126 126 125 124 124 125 126 127 128 126 126 126 127 127 128 129 128 127 126 127 127 127 127 127 127 127 127 127 126 126 126 126 125 127 128 128 128 127 127 127 128 128 128 130 133 134 131 128 126 125 125 126 129 131 130 130 129 128 127 127 128 128 127 127 127 126 125 125 124 126 128 127 125 124 124 123 122 120 118 118 119 119 117 115 115 117 119 119 117 118 120 123 125 125 126 127 128 128 127 125 126 129 133 133 130 127 125 123 124 127 129 129
127 126 126 126 127 128 128 127 125 122 121 121 122 123 124 124 124 124 125 125 125 123 123 124 125 126 126 125 124 124 124 123 124 125 126 126 126 124 124 126 128 129 130 129 128 128 127 127 128 129 129 128 128 127 128 129 128 126 127 127 127 127 128 127 126 125 125 126 127 126 124 123 123 125 127 127 127 127 127 127 126 126 126 127 128 128 127 126 126 127 127 127 127 127 125 123 119 114 113 115 116 111 108 111 117 123 131 140 144 142 140 140 138 138 138 138 136 134 134 134 134 132 130 127 124 124 124 124 122 121 121 122 122 122 123 124 125 127 127 126 126 126 127 127 127 127 126 126 127 127 127 127 128 129 128 128 127 127 127 127 127 127 127 127 127 127 127 127 126 126 125 126 127 127 127 128 127 128 128 127 127 129 131 131 129 126 124 124 125 126 128 129 129 129 130 131 131 130 130 131 130 128 127 125 124 124 123 121 123 126 128 128 127 125 122 120 117 117 117 119 119 119 117 117 120 121 122 123 125 127 127 127 128 129 129 127 127 126 126 128 131 132 131 129 129 128 128 129 128 127
127 126 126 127 127 127 128 127 124 122 121 119 119 120 122 122 124 124 124 124 124 123 123 123 124 124 124 123 122 123 123 123 124 124 124 124 124 124 124 126 127 126 124 126 128 129 129 128 128 128 127 128 129 129 130 131 131 129 128 127 126 127 127 127 127 126 125 126 126 127 128 127 126 126 126 126 127 127 127 127 128 127 126 126 127 128 127 127 127 127 128 129 129 128 127 125 122 118 114 114 115 115 113 114 119 124 133 150 164 168 166 165 163 159 154 148 142 140 140 139 135 132 129 127 124 123 125 125 125 124 123 122 122 124 125 125 125 126 126 126 127 129 129 128 127 127 126 127 127 127 127 128 127 127 127 127 128 128 128 127 127 126 126 126 127 127 127 127 128 128 128 127 126 126 126 126 127 127 127 126 126 125 125 125 125 126 126 127 127 126 125 125 126 127 129 130 132 132 132 133 131 128 127 127 128 127 125 123 124 127 129 128 127 126 126 126 126 125 124 124 125 124 123 121 122 124 126 126 127 127 128 129 131 130 128 127 127 129 129 128 128 129 131 131 131 130 129 127 126 126
127 127 127 128 127 127 127 126 125 124 123 122 121 121 121 122 125 126 126 126 127 128 129 127 126 125 125 126 126 126 127 127 126 125 124 123 124 126 127 126 125 124 123 124 126 128 128 129 129 128 126 127 129 129 129 129 130 131 131 129 128 127 127 128 127 127 126 126 126 127 129 130 131 130 127 126 126 127 128 128 128 127 126 125 126 127 127 128 127 128 128 129 129 128 127 126 124 122 118 113 112 115 118 120 122 129 141 158 172 182 186 184 178 172 164 154 146 142 140 135 130 127 129 129 128 126 125 125 124 124 123 123 124 125 125 125 125 124 123 123 124 126 127 128 127 127 127 127 127 127 128 128 127 126 126 127 128 128 128 127 127 126 126 126 127 128 128 128 128 129 129 129 128 127 127 127 127 126 126 126 126 124 123 124 128 130 129 129 129 128 127 127 128 129 128 128 128 129 130 130 130 129 130 131 131 130 131 130 128 126 125 125 127 130 131 130 131 131 130 130 128 127 127 126 125 125 127 129 130 130 130 130 132 132 132 133 133 134 134 131 128 127 129 130 131 130 129 128 127 127
127 129 130 129 128 127 125 125 125 126 126 125 123 122 124 125 126 127 128 129 130 132 133 133 131 129 128 128 129 129 130 130 129 128 127 126 127 128 128 128 128 127 126 125 125 127 128 129 130 130 131 132 133 133 134 133 133 133 134 133 134 134 134 134 133 133 133 132 131 131 131 132 132 131 128 127 127 127 128 129 129 128 126 126 126 127 127 127 127 127 127 127 127 127 127 127 126 125 123 118 113 112 114 113 117 129 146 157 161 163 167 170 170 165 158 150 143 138 133 129 126 126 126 126 126 125 124 122 121 121 121 123 124 125 125 125 125 124 124 124 124 123 124 126 127 126 126 126 127 127 127 127 126 126 126 127 127 127 127 127 127 128 127 127 127 128 128 128 128 128 128 129 128 127 127 127 127 127 126 126 127 126 126 128 131 132 132 131 130 130 130 128 127 127 126 124 124 126 126 125 125 128 130 130 129 129 131 131 128 125 126 129 132 133 133 131 131 132 131 129 129 130 133 134 131 128 130 132 133 131 131 132 133 133 135 138 138 137 135 133 130 128 129 130 130 130 131 131 129 128
128 129 130 129 128 126 123 123 125 125 125 125 124 123 125 128 128 127 127 128 128 128 129 130 131 130 129 129 129 129 128 128 129 130 130 130 130 129 129 130 131 130 130 127 125 125 126 127 129 131 134 135 134 134 134 134 134 134 134 134 135 137 137 137 137 138 139 138 138 137 136 135 135 134 131 129 129 129 128 128 128 128 128 128 127 127 128 128 127 127 127 127 126 126 126 127 127 127 126 123 117 111 108 107 111 120 130 136 137 136 137 142 147 146 141 137 135 130 125 124 125 125 123 122 123 124 123 121 120 121 123 123 124 124 125 125 126 128 129 128 127 125 125 126 127 127 126 126 128 127 127 127 127 127 127 127 127 127 127 127 127 127 127 126 126 126 127 128 128 127 128 127 127 127 127 127 127 127 126 126 127 128 129 130 131 132 133 132 131 130 128 126 126 126 126 127 128 128 126 123 123 126 128 126 124 124 125 127 127 127 128 130 130 131 131 131 131 131 131 131 133 137 139 140 138 135 136 138 136 133 134 134 132 131 132 132 131 131 130 129 129 129 128 129 129 130 130 131 129 128
126 126 126 126 127 126 126 125 124 124 124 125 125 123 122 123 123 123 124 125 125 125 125 125 126 126 126 127 127 125 124 124 126 127 127 127 127 128 130 129 128 128 129 128 126 125 125 125 126 128 129 130 129 128 127 128 128 128 128 128 129 130 130 131 130 130 131 132 134 134 134 132 132 133 131 130 129 128 127 126 126 127 128 128 128 127 127 127 128 128 128 127 126 126 127 128 129 128 127 125 122 116 110 107 108 110 111 110 114 122 130 132 127 122 123 126 127 126 124 125 126 126 124 124 123 122 122 122 122 124 126 125 125 125 126 127 128 129 129 127 126 125 125 126 127 127 127 127 128 127 126 127 127 127 128 127 127 127 127 127 127 127 127 126 126 126 126 127 127 128 127 128 128 128 127 127 126 127 127 127 127 127 127 126 127 129 130 132 133 131 128 127 128 129 130 131 131 129 127 125 127 128 128 126 125 125 125 126 127 127 126 125 124 124 125 128 129 130 132 134 135 136 136 136 136 137 136 135 135 135 135 132 129 128 127 124 122 122 122 124 125 126 125 126 129 131 131 130 130 129
125 124 124 125 126 127 127 126 125 124 125 125 125 122 119 117 119 121 122 124 126 127 126 123 123 124 124 125 125 124 124 125 125 125 125 124 123 124 125 124 124 126 128 129 128 128 127 126 125 125 124 124 124 125 124 123 123 123 122 122 122 123 123 124 123 122 121 121 122 124 124 124 125 126 127 126 126 126 126 126 127 127 127 128 128 128 127 127 128 128 128 128 127 127 127 128 128 127 126 125 125 122 116 108 104 99 94 92 95 104 115 117 113 111 114 118 122 124 124 125 125 124 123 122 121 121 121 121 123 124 126 126 125 126 127 129 128 126 126 126 126 126 126 126 126 127 127 127 127 127 127 127 128 128 128 128 127 126 126 126 126 126 127 127 127 126 126 126 127 128 127 127 127 128 127 127 126 127 127 127 127 125 124 124 126 127 127 128 129 130 130 129 128 130 131 130 128 127 126 127 130 130 128 128 130 131 131 130 130 129 126 124 123 122 122 124 124 123 124 126 126 126 127 127 129 131 129 127 127 128 128 128 127 126 124 123 122 122 124 124 125 124 122 122 125 128 128 127 127 127
126 126 126 127 127 125 125 126 126 126 125 126 126 125 121 119 119 121 123 125 128 128 127 125 125 126 125 124 123 124 126 126 126 126 126 125 124 123 122 122 124 124 125 127 128 128 128 127 126 124 122 120 119 119 119 119 120 121 121 120 119 119 119 120 121 121 120 117 116 116 117 120 123 125 127 127 126 125 126 126 126 127 128 128 128 128 128 128 128 128 128 128 128 128 128 128 127 127 126 126 126 125 122 116 107 96 88 86 90 92 92 94 102 111 115 114 116 119 122 122 122 122 121 119 119 120 121 123 125 126 126 127 127 128 128 126 125 124 125 126 127 127 128 127 126 126 127 128 128 129 128 127 128 128 127 127 126 126 125 125 126 126 127 128 128 128 127 126 127 127 127 126 127 128 128 128 128 127 127 127 127 128 128 127 126 127 127 125 125 127 129 129 127 128 128 128 127 128 129 130 131 130 127 128 130 131 131 130 129 130 130 128 128 128 127 126 124 123 123 122 122 122 121 122 123 124 124 124 124 125 126 127 127 126 125 125 125 126 127 126 124 123 122 121 120 120 120 120 121 124
126 126 127 128 127 125 125 126 126 126 126 126 127 127 126 124 122 121 123 126 127 127 127 127 128 128 128 127 126 126 127 128 127 127 128 128 129 128 126 126 126 125 125 127 127 127 127 127 127 126 126 125 123 121 121 122 124 125 125 124 123 122 121 122 123 125 126 125 123 121 121 124 127 130 131 129 127 127 126 126 126 127 128 128 127 127 127 127 126 126 126 127 128 128 128 128 127 127 127 127 127 127 126 122 115 107 98 93 92 92 88 86 90 98 104 108 112 116 118 119 119 118 118 118 119 120 121 124 125 126 126 128 129 129 126 124 123 123 125 126 126 127 127 127 127 126 128 130 130 128 128 127 127 126 126 126 126 126 126 126 126 127 128 128 128 128 127 126 126 127 127 127 127 128 128 128 128 127 127 127 127 128 129 127 125 125 125 125 126 127 127 127 126 125 125 127 128 128 129 130 131 131 130 129 129 129 128 127 129 131 132 130 129 129 129 129 129 129 130 130 131 129 126 124 123 122 123 122 121 122 124 126 126 125 125 124 123 124 125 126 127 126 125 124 122 119 118 120 122 125
126 127 127 127 127 128 128 127 126 126 127 127 127 128 128 127 124 122 122 125 127 127 127 128 128 128 129 130 131 130 130 130 128 127 128 131 131 129 128 128 128 128 129 129 129 128 127 128 129 129 129 130 130 130 130 131 132 133 132 132 132 132 132 132 132 133 135 136 135 134 133 132 132 134 133 129 127 127 127 126 127 127 127 127 127 127 126 126 126 126 127 127 127 128 128 128 127 128 128 128 128 128 127 125 121 116 109 102 97 96 96 95 94 95 100 108 113 115 115 115 115 116 118 120 122 123 123 123 124 125 126 127 127 125 123 123 124 124 125 125 125 125 125 126 128 130 130 129 128 128 129 129 127 126 127 127 127 127 127 128 127 127 128 127 127 128 128 128 127 127 128 128 127 127 127 127 127 127 126 126 127 127 125 124 124 123 124 126 126 125 124 123 123 122 121 122 124 124 123 125 126 127 129 128 127 126 126 127 129 130 130 129 127 126 127 129 129 129 128 130 133 134 133 131 128 126 126 126 124 122 120 120 122 124 126 125 125 124 126 130 132 132 132 132 130 128 126 126 126 126
127 127 128 127 127 128 129 128 127 127 128 128 128 127 127 127 126 125 124 124 125 127 128 129 129 129 130 132 133 133 132 132 131 130 129 129 129 129 130 129 129 129 129 129 128 127 127 128 129 129 126 127 131 134 134 134 134 134 135 136 136 136 136 136 136 135 136 137 137 137 137 135 133 134 135 132 128 127 127 128 128 127 127 127 127 126 125 125 127 128 128 127 128 128 128 127 126 127 128 129 128 127 127 126 124 121 116 109 104 100 100 102 104 106 109 112 114 115 115 115 117 120 122 123 124 126 126 125 126 128 128 127 125 124 124 124 125 125 125 125 126 126 126 127 130 131 130 128 127 128 129 129 128 127 127 127 128 128 128 128 128 127 127 126 126 127 128 128 128 127 127 128 128 127 127 127 127 127 127 127 127 126 126 127 126 123 123 124 123 120 119 119 119 119 118 117 118 120 121 121 120 121 122 123 123 123 124 127 127 125 123 125 126 126 126 126 125 123 120 121 124 127 130 131 130 128 127 128 130 129 125 122 124 128 130 130 129 129 132 134 133 134 134 134 133 133 131 128 127 127
128 127 126 125 126 127 127 127 128 130 130 129 128 128 127 127 127 127 127 126 125 126 129 130 129 129 130 130 131 131 131 130 131 131 129 126 126 128 129 129 130 129 128 127 126 125 126 127 127 127 126 127 129 130 130 130 129 129 130 131 130 130 130 130 130 130 131 132 134 134 134 133 131 132 135 134 129 126 128 129 128 127 126 127 127 127 126 127 127 127 127 127 127 127 126 126 125 126 126 127 127 126 126 126 125 124 120 115 110 106 104 105 108 110 112 113 115 117 120 122 124 124 123 123 124 126 127 127 127 129 129 128 127 127 126 126 126 126 126 126 126 127 128 129 130 129 128 127 127 127 127 127 127 127 127 127 128 128 128 128 128 127 127 127 127 127 127 128 128 127 127 128 128 128 128 128 127 127 127 127 126 126 127 128 125 122 120 121 122 120 119 120 121 121 120 119 118 120 123 123 120 120 121 122 123 123 123 123 123 121 119 119 121 123 122 120 119 117 117 119 120 122 123 124 126 126 125 124 125 126 126 126 126 127 126 127 128 130 131 130 128 129 131 131 131 132 134 134 133 131
127 127 125 125 126 127 128 129 130 131 130 128 128 128 128 127 127 127 127 124 121 122 126 128 128 127 126 126 126 126 126 126 126 126 124 124 124 124 124 126 126 125 125 125 125 126 126 125 124 124 127 128 127 125 125 124 123 121 121 122 122 122 123 124 125 126 127 128 129 130 130 129 129 129 131 132 129 127 127 127 127 127 127 127 127 127 128 128 127 127 127 127 127 127 127 126 127 126 125 126 126 126 127 127 126 126 125 122 119 115 111 111 113 115 117 119 121 122 124 124 124 123 123 124 124 125 125 125 125 123 123 124 126 126 127 128 129 128 127 127 126 127 129 129 128 127 127 127 128 127 127 126 127 128 128 127 126 126 127 127 128 128 127 127 127 128 128 128 128 128 128 128 128 128 128 127 127 128 128 127 127 126 125 124 124 124 125 125 125 125 124 125 126 126 125 125 124 124 126 126 125 124 122 122 123 123 121 119 118 119 120 120 120 120 121 121 121 121 123 125 125 121 117 117 120 123 124 122 120 120 121 123 122 120 121 124 126 125 122 118 119 123 127 129 129 130 132 134 134 131
127 127 127 126 127 128 129 129 130 128 126 125 125 126 127 128 127 125 123 119 118 121 124 125 126 125 124 123 124 125 125 125 124 123 123 124 124 124 124 124 122 122 123 124 126 127 127 126 125 125 127 127 125 123 122 122 121 120 119 118 119 120 120 120 121 121 121 121 122 123 124 125 126 126 127 129 128 127 126 126 126 127 127 127 127 127 128 128 128 128 127 127 127 128 128 129 129 128 127 127 127 128 128 127 126 126 126 125 123 121 120 119 119 120 121 122 123 123 122 122 122 124 126 126 125 123 123 124 122 120 120 122 125 126 127 128 129 128 127 126 127 128 129 129 128 126 126 126 127 127 126 127 128 128 128 127 126 126 126 127 127 127 126 126 127 127 127 127 127 127 127 127 127 127 127 127 127 128 128 127 127 126 123 123 125 128 128 127 126 128 129 128 127 127 126 127 127 126 125 124 125 124 122 122 124 124 123 121 121 123 126 126 123 123 124 126 127 128 128 128 124 120 117 117 118 121 122 122 120 119 120 120 118 118 122 127 130 128 122 117 116 118 120 122 124 124 125 126 127 127
126 126 126 127 127 127 128 129 128 126 125 125 124 125 127 128 127 125 122 121 122 124 125 125 125 126 126 125 124 124 124 124 124 124 126 126 127 128 128 126 125 126 127 128 129 130 130 130 130 130 131 131 129 128 129 129 129 129 129 129 129 130 130 128 127 126 125 125 126 126 127 127 128 127 128 130 129 128 127 127 127 127 127 127 127 127 127 127 127 127 127 127 127 127 127 128 129 129 129 128 127 127 127 126 126 126 125 125 125 124 124 123 123 123 123 123 122 122 122 123 124 125 127 127 125 124 124 124 124 124 124 125 126 127 127 127 127 127 127 127 127 127 127 127 127 127 127 127 128 128 128 128 128 128 127 127 127 127 127 126 126 126 126 126 126 126 126 126 126 127 127 126 127 127 127 127 127 127 127 127 127 127 126 125 126 127 125 124 124 127 129 129 127 127 128 129 129 127 124 124 125 125 125 126 126 127 127 127 126 127 127 127 126 126 126 127 128 129 129 126 122 120 121 121 120 120 121 122 123 123 124 124 124 126 127 128 130 130 129 126 122 117 115 115 117 120 123 127 128 128
126 126 127 126 126 126 127 127 126 125 126 127 127 127 127 129 129 127 126 127 128 126 125 126 128 129 130 129 128 127 128 129 131 131 132 132 133 133 132 133 134 134 134 134 134 135 136 137 137 137 137 136 136 137 137 137 137 138 139 139 140 141 140 137 136 134 134 133 133 132 131 131 131 130 131 134 134 130 127 127 127 127 127 126 126 126 126 127 126 126 127 127 127 126 127 127 128 128 128 128 127 126 125 126 126 126 126 126 126 126 126 127 128 129 128 126 125 125 125 125 124 124 125 125 126 126 126 126 127 128 127 126 126 126 127 127 127 126 126 127 128 128 127 126 128 128 128 129 130 130 130 130 129 128 127 127 128 128 127 126 126 127 127 127 126 126 126 126 127 127 127 127 127 126 126 127 127 127 127 127 127 126 125 124 125 126 126 125 125 126 127 128 129 131 131 130 130 129 129 129 129 130 131 131 129 128 128 128 127 126 126 127 127 126 125 124 127 129 128 125 124 125 126 125 125 124 124 125 125 126 127 128 130 131 129 126 125 126 128 128 125 120 116 115 116 119 125 130 130 129
127 128 128 126 126 126 126 125 124 125 126 128 128 127 127 127 129 130 129 129 129 127 125 126 129 131 132 133 133 132 133 135 137 136 135 135 136 136 136 138 139 138 136 135 134 134 135 136 136 135 133 132 133 136 136 134 135 137 138 138 138 137 135 134 133 133 133 133 131 128 127 128 130 131 131 134 136 132 128 127 127 127 126 126 127 127 127 127 127 127 127 126 126 127 128 128 127 127 127 127 127 127 127 127 127 127 127 127 127 128 127 127 129 131 131 130 130 129 127 126 125 125 125 126 127 128 128 128 129 129 129 128 128 128 127 128 128 127 127 127 129 129 128 127 127 128 130 131 130 129 128 129 129 128 126 127 127 127 127 127 128 128 127 127 128 128 128 128 127 127 127 127 126 126 126 127 126 126 127 127 127 126 125 124 124 125 128 129 129 130 130 129 129 130 130 129 129 129 130 130 130 131 132 132 130 127 126 127 127 127 127 127 128 127 125 124 126 128 126 125 126 126 126 127 127 127 126 127 128 129 128 127 127 127 126 123 120 121 124 125 125 124 123 122 121 122 125 127 127 127
127 128 128 127 127 126 125 125 125 125 126 127 127 127 126 127 129 130 130 128 126 124 124 125 127 129 131 132 132 131 131 131 131 131 130 130 131 131 131 132 132 131 130 130 129 127 125 125 126 126 124 123 125 127 128 127 129 130 131 131 130 129 129 128 128 128 128 128 128 126 126 126 125 126 127 130 133 132 129 127 126 126 126 127 127 127 128 128 128 128 127 126 126 126 127 127 127 127 126 126 127 127 128 129 130 128 127 127 128 128 128 128 130 132 134 133 132 130 128 128 128 128 126 127 128 128 128 128 128 129 129 130 130 129 128 128 129 129 127 127 128 128 128 127 127 129 130 129 127 126 126 127 127 127 126 126 127 127 127 127 128 128 127 127 128 128 128 128 127 127 127 127 127 127 126 126 126 127 127 127 127 128 129 130 129 127 127 129 131 131 130 128 127 124 124 125 125 126 127 127 127 128 128 128 127 126 126 127 127 127 128 128 128 128 128 127 125 124 125 125 126 127 127 127 127 127 127 128 129 131 131 129 126 124 122 122 122 122 123 125 129 131 131 130 127 126 124 124 125 128
126 125 126 127 127 126 125 126 126 126 127 127 127 127 128 128 128 128 127 125 122 120 120 122 124 125 126 126 126 126 126 125 124 123 124 125 125 125 125 125 125 126 125 124 123 122 121 121 121 122 122 121 121 122 124 125 126 127 128 128 126 126 127 129 128 128 126 125 125 126 126 125 124 124 125 127 132 134 130 127 127 126 127 128 128 128 127 127 127 127 127 126 126 126 126 126 127 127 127 127 127 127 127 128 128 128 128 127 127 126 127 128 130 134 136 136 133 132 131 130 130 130 129 128 128 128 127 127 127 127 127 128 128 128 127 128 128 129 130 129 129 129 129 128 128 128 127 126 125 125 125 125 125 127 127 127 127 128 128 128 126 126 126 128 127 126 127 127 127 127 127 127 128 127 126 126 127 127 127 128 128 128 129 130 130 128 126 126 127 126 124 124 124 123 122 123 125 126 126 126 126 126 125 125 126 128 129 129 128 128 129 129 130 131 132 130 127 126 126 127 127 128 129 128 128 128 128 128 128 129 129 130 128 125 123 124 127 127 125 126 128 132 133 132 131 129 127 126 128 130
127 126 125 126 128 128 127 126 125 127 128 128 127 127 127 127 125 125 125 125 124 121 120 122 124 123 121 120 121 122 122 121 120 120 122 123 123 123 123 123 124 124 124 124 123 124 125 126 126 126 127 128 128 128 129 130 129 129 129 129 128 127 129 132 132 130 127 125 124 126 126 126 126 127 128 129 134 138 134 129 127 127 127 128 128 128 127 127 126 127 127 128 128 127 127 127 127 127 127 127 127 127 127 125 125 126 127 127 126 126 127 127 127 130 134 135 134 133 132 131 130 130 131 130 129 128 128 128 128 127 127 127 127 127 128 129 128 129 131 132 130 130 131 131 130 127 125 125 126 126 126 125 125 126 127 127 127 127 128 128 126 126 127 128 128 127 126 126 127 127 127 126 127 127 128 129 129 129 128 128 127 127 126 125 125 126 127 125 123 123 123 124 125 125 126 127 127 126 124 124 124 124 123 125 127 128 128 127 126 127 127 128 129 130 132 133 133 131 129 129 128 127 127 127 127 128 129 130 129 128 128 129 129 129 129 130 131 130 128 126 125 126 129 129 130 130 128 128 130 130
129 129 129 129 129 129 128 126 126 127 127 127 127 127 126 125 125 125 126 126 127 126 125 125 126 126 126 125 124 123 123 122 122 124 125 126 127 127 127 127 127 127 128 130 130 131 132 132 132 131 132 133 134 133 132 131 129 127 126 125 125 126 128 130 129 127 127 127 127 128 128 127 126 125 126 127 131 137 137 131 128 128 128 127 127 127 128 128 128 127 127 128 128 128 127 127 126 127 127 127 127 127 127 127 126 126 127 127 127 128 127 126 125 127 130 132 133 132 131 131 131 131 131 132 131 130 129 128 128 128 128 128 127 127 129 130 129 129 130 130 129 129 129 130 129 128 127 127 127 127 127 126 126 126 126 127 127 127 127 127 128 128 128 127 128 128 128 127 127 127 127 126 127 127 128 129 129 130 129 127 127 127 127 126 125 127 129 128 126 126 126 127 127 127 128 128 127 124 123 123 123 123 124 124 124 125 124 124 124 125 126 127 128 128 128 131 134 132 130 130 129 127 126 127 127 127 128 130 130 129 128 129 132 134 135 135 134 132 131 130 128 127 125 125 127 130 129 127 127 127
129 130 131 132 131 130 130 130 129 128 126 126 127 127 127 126 127 127 128 128 128 129 130 129 127 127 127 127 127 128 128 129 131 132 132 132 132 133 133 132 132 132 133 134 134 134 134 133 132 132 131 131 130 129 128 127 126 124 123 123 124 124 124 123 124 126 127 127 129 129 129 129 128 127 126 127 128 132 136 134 129 128 128 127 126 127 128 128 128 127 127 127 128 128 127 127 127 127 127 127 127 127 127 127 126 127 127 128 128 127 126 126 126 126 127 129 132 133 133 133 133 132 132 132 131 130 129 128 128 127 128 128 128 128 128 128 129 129 129 130 131 130 129 128 129 130 130 129 128 128 127 126 126 126 126 127 127 127 127 128 128 128 128 126 126 127 127 127 126 126 126 127 127 126 126 127 128 128 127 127 126 127 128 127 127 128 130 130 129 130 130 131 133 133 134 134 133 134 134 134 133 132 130 128 126 127 129 129 128 129 130 132 133 131 129 129 131 133 133 133 132 130 130 131 131 130 130 131 132 132 132 133 135 136 137 135 133 132 131 130 129 128 125 125 127 130 130 127 124 124
128 130 131 132 133 133 134 135 134 133 130 128 128 128 127 127 126 127 128 129 130 133 136 134 130 126 124 125 127 129 131 133 134 134 134 134 133 132 131 131 131 130 129 130 130 130 130 129 129 129 129 128 128 128 128 127 126 125 125 125 126 126 124 124 126 128 129 129 129 128 127 128 128 127 128 129 129 131 135 135 130 127 127 127 127 127 128 128 128 128 128 128 128 128 128 128 128 127 127 127 127 127 127 127 127 127 127 128 127 126 125 125 124 123 125 128 131 133 134 134 133 132 132 131 131 131 131 130 129 128 128 128 128 128 127 128 129 129 129 129 131 132 132 131 131 132 133 131 130 128 127 126 126 128 128 128 128 128 128 128 128 127 127 126 126 126 126 127 126 126 126 127 127 126 126 126 126 126 126 126 126 126 127 129 129 128 128 129 131 132 133 135 137 139 140 142 145 147 147 146 144 142 140 140 140 140 140 140 139 137 136 137 137 135 133 131 131 134 136 137 137 137 137 136 136 137 136 136 137 138 137 136 134 133 133 131 128 126 126 127 127 126 125 126 128 127 127 128 128 127
130 132 133 133 134 135 137 138 138 136 133 131 130 129 129 129 129 130 131 132 134 136 137 134 130 127 126 127 129 130 131 131 131 131 131 130 129 128 127 128 128 128 127 127 128 128 127 127 127 128 128 128 129 129 130 129 129 128 127 127 128 128 128 128 129 129 129 129 127 127 126 125 125 126 127 127 127 127 130 132 130 127 127 127 128 127 127 126 126 126 127 128 127 127 128 128 128 127 127 127 127 127 127 127 127 128 128 128 127 127 126 126 124 123 124 128 130 132 132 133 134 134 132 131 131 132 133 133 132 130 129 129 129 129 128 129 129 129 129 130 131 131 132 131 131 131 132 131 130 129 128 127 127 128 128 128 128 128 127 128 128 128 128 128 127 126 126 127 126 126 126 126 127 128 128 127 126 126 127 127 127 126 126 129 132 131 129 131 134 135 135 135 136 137 138 139 141 143 143 142 139 138 138 140 143 142 141 141 140 138 136 135 135 136 135 134 133 132 133 135 138 140 141 140 139 139 138 137 137 138 138 139 139 138 137 135 132 130 129 129 129 127 128 130 130 129 131 134 136 134
133 135 136 135 134 134 133 133 133 134 135 135 133 132 131 132 133 134 136 137 139 138 135 131 129 130 131 132 132 131 130 129 129 129 129 128 127 127 127 128 129 129 129 128 128 127 128 128 128 128 128 128 127 127 127 127 128 128 128 129 129 129 130 130 129 128 127 125 125 126 127 126 126 126 127 126 125 124 125 128 129 127 127 127 127 127 126 125 126 126 127 127 127 127 127 127 127 127 127 127 128 128 128 128 129 129 128 128 127 127 127 127 126 123 124 128 131 131 131 132 133 132 132 131 130 130 131 131 130 129 128 128 128 128 128 127 127 128 130 130 130 130 130 130 129 129 130 130 129 129 128 127 127 128 128 128 127 127 127 127 128 128 129 129 128 127 126 126 126 126 126 126 127 127 128 128 127 127 128 128 128 125 124 125 127 128 129 131 133 133 132 132 132 132 132 131 128 127 127 127 127 128 129 130 132 133 133 133 133 133 133 133 135 138 141 142 138 133 131 130 132 134 136 136 135 135 134 133 132 134 137 142 147 148 146 145 144 144 141 137 134 133 135 135 133 132 131 131 133 133
135 136 135 134 132 131 129 128 129 132 135 136 134 133 133 134 135 136 137 137 136 133 131 130 130 131 131 131 130 129 127 127 126 126 126 126 126 127 128 128 128 127 126 127 126 126 126 127 127 126 126 127 127 126 125 125 126 128 129 129 129 130 130 130 128 126 124 123 124 126 128 128 128 127 126 126 125 126 126 126 126 127 128 127 127 127 127 127 128 128 127 127 127 127 127 126 127 128 128 128 128 128 129 129 129 129 128 128 128 128 128 127 126 123 122 126 129 130 130 130 130 131 131 131 131 131 130 128 128 128 128 128 128 128 127 126 127 129 130 130 129 129 130 131 131 131 130 130 130 130 129 129 129 128 127 127 127 127 127 127 127 127 127 128 128 128 127 127 127 128 127 127 127 127 127 127 128 128 128 128 127 126 123 121 123 125 126 126 126 124 124 125 125 124 123 121 118 117 118 121 123 126 128 128 128 127 127 128 129 130 131 133 135 138 142 142 136 132 129 127 126 126 127 128 129 131 132 134 135 136 138 139 136 131 130 131 133 134 133 131 129 131 132 130 127 125 122 120 120 123
132 132 130 129 128 129 130 130 131 132 133 133 133 135 137 138 137 135 134 132 129 126 126 127 127 127 127 127 126 125 125 125 124 123 124 126 126 127 128 128 126 125 125 124 124 124 124 125 125 126 127 127 127 127 126 126 127 128 128 128 127 127 126 126 126 126 126 127 127 127 128 129 130 127 124 123 126 129 129 127 126 127 127 127 127 128 128 128 128 127 127 126 126 126 126 126 127 127 127 127 127 127 127 128 127 126 127 128 128 129 129 128 126 124 123 124 127 129 130 130 130 130 130 131 132 132 131 130 130 130 130 130 129 129 129 130 130 129 128 129 131 131 131 131 131 130 130 130 131 132 132 131 129 127 127 127 127 127 127 127 127 127 127 127 127 128 128 129 129 129 129 129 129 128 127 127 127 127 126 126 127 127 125 122 121 122 121 118 115 114 114 113 111 110 109 110 111 112 114 117 120 122 124 125 125 124 124 125 127 129 131 131 130 128 125 124 124 124 124 124 126 127 126 126 127 128 129 131 131 130 127 121 112 106 105 105 108 109 110 114 121 123 122 120 120 122 123 120 115 116
129 129 128 128 129 130 131 131 130 130 131 132 134 136 136 135 134 133 131 129 128 126 126 125 126 127 128 128 128 127 127 126 123 119 118 122 125 127 128 127 127 126 124 120 117 119 122 123 124 126 127 128 129 129 128 127 126 126 127 126 125 124 123 123 124 126 128 129 129 127 127 129 129 126 120 118 123 128 128 127 127 128 127 127 127 127 127 127 127 127 126 126 127 127 127 127 127 127 127 128 128 127 128 127 126 126 126 127 127 128 128 128 127 125 123 123 124 126 127 128 129 129 130 131 132 132 131 131 130 130 130 129 128 129 132 133 131 129 129 130 131 131 131 131 130 130 130 131 131 131 133 132 129 127 127 127 127 128 128 128 128 127 127 127 127 128 128 129 129 129 129 129 129 129 128 127 127 126 126 125 126 127 127 124 121 120 118 115 113 113 114 112 110 109 108 107 109 111 111 110 111 113 115 118 120 121 123 126 129 131 131 127 124 119 114 113 117 120 122 126 129 129 127 126 125 124 122 119 116 113 109 105 105 109 111 111 111 109 111 117 125 127 124 122 122 123 122 121 117 117
127 127 127 128 129 129 128 128 128 128 128 130 132 132 131 130 129 130 129 128 128 128 128 127 128 129 129 130 130 130 129 125 121 117 116 119 122 122 121 123 125 126 124 119 115 114 115 118 119 119 122 126 129 130 129 127 126 125 125 125 125 125 125 124 123 124 126 127 128 129 129 130 129 124 118 118 122 125 126 126 127 128 128 128 127 127 127 127 127 127 128 128 128 127 127 128 128 127 127 128 128 128 128 127 127 127 127 127 126 126 126 127 127 126 124 122 123 125 127 129 129 130 130 131 131 131 131 131 130 130 130 130 129 130 131 131 131 131 133 133 131 130 130 130 131 130 130 131 131 131 131 131 130 129 127 127 127 127 128 128 128 128 127 127 127 127 128 128 127 127 127 128 128 129 128 127 126 126 126 127 127 127 126 126 124 121 121 122 122 121 121 121 121 121 119 117 116 116 115 114 113 113 113 115 118 121 126 130 131 128 123 119 117 116 116 117 120 125 131 135 134 132 132 131 128 125 122 119 117 116 116 118 123 128 130 128 125 123 124 128 131 131 130 129 125 121 119 120 122 124
126 126 127 128 128 126 126 128 129 128 128 129 129 129 129 129 129 129 129 129 129 130 131 132 133 133 132 132 132 130 127 123 122 124 123 121 118 115 114 117 123 125 125 125 124 121 116 114 114 111 111 117 124 127 129 128 126 125 125 123 122 122 122 122 124 125 127 128 127 127 127 127 125 123 123 123 121 122 123 124 126 127 127 127 128 127 127 127 127 128 129 129 127 127 128 128 128 128 127 128 128 128 127 127 128 129 128 128 127 127 127 127 128 129 126 123 122 123 126 128 130 130 131 130 130 130 131 132 132 132 133 134 133 132 131 131 132 133 133 132 131 130 129 130 130 130 130 131 131 131 129 130 131 130 129 127 127 126 126 127 127 127 126 126 126 127 127 127 127 127 127 127 128 128 128 127 127 128 128 127 127 126 126 126 126 125 126 126 127 127 125 125 126 126 125 125 124 123 123 123 122 121 120 119 120 123 127 128 125 117 111 108 107 107 110 115 122 130 134 136 137 139 140 139 137 134 131 129 129 130 131 132 133 133 131 127 126 129 131 131 130 128 129 129 127 125 124 125 126 127
126 127 128 128 128 128 128 129 129 129 130 130 130 130 130 130 130 129 130 131 132 133 134 136 137 138 137 136 132 126 121 123 127 128 126 124 121 119 119 120 123 124 123 125 128 128 124 121 120 118 114 114 118 123 126 124 121 121 122 120 118 117 117 119 123 128 129 128 123 118 116 116 117 120 125 125 120 117 118 122 125 126 126 127 128 127 127 127 127 128 128 127 127 127 127 127 127 128 128 128 128 128 127 128 128 129 128 128 127 128 128 129 131 131 129 126 124 122 123 125 128 130 130 130 130 130 130 131 132 132 132 133 134 134 132 132 132 132 131 130 130 129 129 129 129 130 130 131 131 130 130 130 131 131 130 128 127 126 126 126 126 127 126 126 127 127 127 127 127 127 127 127 127 127 127 127 128 128 128 127 127 126 126 126 127 127 127 126 126 127 127 126 126 127 127 127 128 128 129 128 127 126 124 123 122 122 121 119 117 113 111 109 108 108 108 111 117 122 124 124 127 132 134 135 135 135 132 129 130 131 132 132 128 122 118 120 127 132 132 130 126 124 123 124 127 129 129 127 127 127
128 128 128 128 128 129 130 128 128 129 129 129 130 130 129 129 129 129 129 130 130 131 131 132 132 132 131 128 124 120 122 126 129 129 129 127 126 126 126 121 117 115 117 120 124 128 130 129 127 127 123 117 113 113 113 112 113 116 118 120 123 124 121 117 115 117 120 118 115 112 109 107 111 119 125 126 122 118 117 122 127 128 127 127 127 128 127 127 127 127 126 126 127 127 126 126 127 127 128 128 127 127 127 127 127 127 127 128 128 129 130 132 133 133 131 128 125 123 123 125 127 129 129 129 129 129 129 129 130 132 131 131 131 132 131 130 130 130 130 130 129 129 130 130 130 130 130 130 130 130 129 129 128 129 130 129 127 126 126 126 127 127 128 128 128 128 128 128 128 127 127 127 127 127 127 127 127 127 127 128 128 128 127 126 126 126 126 126 126 127 127 127 127 128 128 129 129 129 129 129 129 128 127 125 124 121 114 108 109 114 118 120 121 120 119 117 115 112 111 112 115 118 121 123 124 124 126 127 127 128 129 130 126 119 119 124 130 130 128 128 126 124 123 124 127 129 128 127 127 127
129 129 128 127 128 128 127 126 126 127 128 127 127 126 126 127 127 127 127 127 126 125 124 122 122 122 120 116 114 119 126 129 128 128 130 130 129 129 125 119 114 114 118 122 123 126 130 130 128 127 126 122 114 108 106 110 116 118 120 124 128 128 124 118 111 107 107 111 116 119 116 111 113 120 125 126 126 123 122 124 127 128 128 127 127 127 127 127 127 126 126 126 127 127 126 126 126 127 127 126 126 126 127 127 127 127 128 129 131 133 134 134 135 136 134 129 126 126 127 127 127 127 127 128 128 129 128 127 128 130 130 130 130 131 132 132 131 131 130 130 130 129 129 130 130 130 130 130 130 130 130 129 128 127 128 128 128 128 128 127 127 128 129 129 129 128 128 128 128 127 127 128 127 127 127 127 127 127 127 128 128 128 127 127 126 125 125 126 127 127 128 128 128 128 129 129 129 128 127 127 127 127 126 126 125 122 118 114 114 118 122 125 127 127 126 124 120 114 112 111 113 118 121 120 119 119 123 127 129 129 129 127 124 125 128 131 129 127 127 129 128 127 127 128 129 128 127 127 127 127
129 129 128 128 129 128 127 127 127 127 126 126 125 125 125 126 126 126 126 125 124 123 123 122 123 122 119 115 119 126 131 130 128 128 128 129 129 128 126 125 125 125 127 128 126 126 129 130 129 129 129 126 122 118 118 121 122 121 123 126 125 121 121 122 121 117 115 119 124 126 125 123 121 121 123 125 127 127 126 126 127 127 127 127 127 127 127 127 127 127 127 127 127 127 127 127 127 127 127 126 126 127 127 128 128 128 129 132 134 136 136 136 136 137 136 133 130 130 132 130 128 127 127 127 128 129 130 130 130 130 130 131 131 130 132 133 133 132 131 131 130 130 130 130 130 131 131 131 131 131 132 135 134 129 126 127 128 128 128 127 127 127 128 128 127 127 128 128 128 128 128 127 127 126 127 127 126 127 127 127 127 127 127 127 126 126 126 127 127 127 127 128 128 128 128 128 127 126 126 126 127 128 128 127 124 123 124 124 124 124 125 126 128 129 128 126 124 123 122 120 118 122 128 130 129 127 126 127 128 128 125 120 120 127 132 132 128 125 127 130 131 131 131 130 128 127 128 129 129 128
128 129 129 129 129 128 128 128 128 128 127 127 127 127 127 126 126 126 127 127 127 127 127 127 125 122 119 122 128 132 130 128 127 128 129 127 126 124 126 130 132 131 130 129 130 131 132 131 130 130 129 127 126 126 128 127 125 122 121 121 119 119 122 126 128 127 126 125 125 126 126 127 126 124 123 125 126 127 127 128 128 128 127 127 127 127 127 128 128 128 127 127 127 127 128 128 127 127 127 127 127 127 127 127 128 130 132 134 136 137 139 141 140 139 137 136 134 132 132 133 131 129 129 129 129 129 130 132 133 132 132 131 130 130 131 132 132 132 132 132 132 132 132 132 132 132 133 132 132 131 132 136 136 131 128 128 128 127 127 127 127 126 126 127 127 127 129 128 128 127 127 127 127 126 127 127 126 127 127 127 127 127 127 127 127 127 126 126 127 127 127 127 127 127 126 125 124 125 125 125 126 128 129 127 124 123 124 125 126 126 126 127 127 128 128 128 128 128 128 127 125 123 125 129 130 129 127 125 124 123 120 118 121 127 130 129 126 125 128 129 130 132 131 129 128 128 128 128 127 127
127 127 128 129 128 127 128 129 128 128 128 129 129 129 129 128 128 129 129 129 129 129 126 123 121 118 120 127 131 129 126 124 126 128 127 125 123 124 128 131 132 130 128 128 130 131 131 131 131 129 128 127 126 127 128 129 128 125 122 121 123 126 128 128 128 128 127 126 125 126 128 129 129 128 126 126 127 127 126 127 128 127 127 127 127 127 126 127 127 127 126 126 126 127 127 128 127 127 127 128 128 128 128 129 133 137 137 136 136 138 140 142 145 143 139 137 135 133 133 136 136 133 132 131 130 128 128 130 132 132 131 131 131 132 132 132 133 134 135 135 135 135 134 134 133 133 134 134 135 135 134 133 131 130 129 128 128 127 127 127 126 126 126 126 127 127 128 129 128 127 127 127 127 127 127 127 127 127 127 127 127 127 127 127 128 127 127 127 127 127 127 127 126 126 125 125 125 126 126 126 127 128 127 127 127 127 128 129 131 131 131 131 130 129 129 130 131 132 131 133 133 129 124 123 125 128 130 129 125 120 117 121 127 129 127 124 123 126 128 127 128 129 131 132 130 128 126 125 124 125
126 126 126 127 126 126 127 128 128 127 127 128 127 127 127 127 127 128 129 129 130 129 125 120 118 120 126 130 129 128 126 126 128 127 125 123 123 125 127 128 129 129 128 128 128 128 127 129 130 128 127 127 127 127 127 128 129 128 126 126 127 129 129 128 128 128 127 126 125 126 128 129 128 128 127 127 128 128 127 127 126 127 128 129 128 128 127 127 127 127 127 127 128 127 127 127 128 128 128 128 129 130 132 136 139 140 139 137 136 135 134 137 143 147 146 142 137 134 132 133 133 132 130 130 130 128 128 129 131 131 130 131 133 134 135 135 135 136 137 137 136 136 136 135 135 135 136 136 137 137 135 130 128 129 130 129 128 128 127 126 126 127 126 126 126 126 126 126 127 127 127 127 127 127 128 128 128 127 127 127 127 127 127 127 127 128 127 127 127 128 129 129 128 128 127 127 127 127 128 129 129 129 128 129 131 133 135 136 136 137 138 137 136 135 134 135 135 135 136 138 137 133 130 130 133 136 139 138 131 121 118 123 129 130 126 122 124 129 131 129 126 126 129 130 129 127 125 124 124 125
125 124 125 125 126 126 126 127 126 126 126 126 125 124 123 121 121 123 125 126 126 123 121 121 122 127 132 132 129 127 126 127 128 126 124 124 126 128 128 127 129 130 129 128 127 127 125 124 126 128 128 128 127 126 127 129 130 130 128 126 124 124 125 127 128 128 126 125 126 127 129 128 126 126 126 126 125 126 126 126 125 126 127 128 128 129 129 128 128 128 128 129 128 128 127 127 128 128 129 130 131 133 137 140 138 134 133 134 134 134 134 136 139 144 147 145 142 138 134 130 132 136 135 131 129 128 128 128 130 132 132 132 133 135 137 137 137 137 137 136 135 135 135 135 135 135 137 137 137 135 130 128 127 128 129 130 129 129 128 127 128 128 128 127 126 126 126 127 127 127 127 127 127 127 127 128 128 128 127 127 126 127 127 127 127 127 126 126 126 127 130 132 133 133 133 132 132 132 131 131 131 131 134 137 139 140 140 140 141 140 140 141 141 142 144 144 142 141 140 139 136 135 136 137 136 133 131 129 126 122 123 125 127 127 125 124 128 132 132 128 124 123 124 124 124 126 127 127 126 125
123 122 124 125 127 128 128 127 127 127 127 126 124 122 123 123 123 121 120 120 118 117 119 124 129 131 131 130 128 126 125 126 126 125 125 127 129 130 130 127 127 129 130 128 127 127 124 123 125 127 128 128 128 127 127 127 128 128 128 127 126 124 123 125 127 128 128 127 128 128 128 126 125 126 126 125 123 122 124 125 125 125 125 125 126 127 127 127 128 128 128 128 128 127 128 128 128 128 130 132 135 138 139 136 132 129 129 131 132 133 136 136 134 133 137 141 142 139 138 138 140 142 142 137 133 132 131 130 132 137 140 139 137 137 137 137 136 136 135 135 134 133 133 133 133 133 133 134 134 132 129 129 131 132 130 128 129 129 129 128 128 128 128 127 127 128 129 129 128 127 127 128 128 127 126 126 127 128 128 127 127 127 127 127 127 126 126 127 127 126 129 134 137 139 139 139 140 141 141 139 138 139 141 142 143 144 143 142 142 141 141 142 144 146 149 149 148 148 148 145 143 144 144 139 128 117 110 109 115 123 127 127 126 125 124 126 128 127 123 121 121 121 121 121 123 125 128 129 128 127
121 120 122 125 127 128 128 128 128 128 128 126 124 123 124 127 126 123 121 118 115 117 123 127 129 128 126 125 125 124 125 126 126 127 128 128 128 128 128 128 127 128 128 128 128 127 125 125 126 127 128 128 129 129 127 126 126 127 127 128 128 127 126 126 127 128 128 129 129 128 126 126 126 127 127 125 123 122 124 125 126 126 126 126 125 125 126 127 127 127 127 127 127 128 128 128 129 130 133 137 141 143 139 133 131 132 134 135 136 137 137 135 130 128 131 136 140 140 141 142 140 135 135 137 139 138 137 135 135 137 142 143 142 140 139 138 137 136 135 134 133 133 132 131 130 129 129 129 129 128 128 129 132 132 129 126 127 127 127 127 127 127 127 127 127 127 128 128 127 126 127 128 128 127 126 126 127 127 127 128 128 127 126 126 127 127 127 127 127 125 124 124 126 130 133 133 134 136 139 140 139 139 140 139 140 141 142 143 144 146 146 147 149 151 151 149 147 145 142 136 130 127 125 119 113 109 108 109 116 126 131 131 129 127 128 129 128 124 121 121 123 122 121 122 125 126 127 128 130 129
123 121 120 121 123 124 125 126 127 127 126 125 124 124 124 124 124 123 122 120 119 122 127 128 127 125 124 123 122 122 124 126 126 126 127 126 125 125 126 128 130 129 127 128 128 127 127 126 125 126 127 127 128 129 128 128 129 129 128 128 127 126 127 127 127 127 127 129 130 129 129 129 128 127 127 126 126 125 124 125 127 127 127 127 127 127 127 127 127 127 127 126 127 128 128 129 130 132 137 141 142 140 136 135 135 137 140 143 144 142 138 134 132 131 132 134 138 141 139 137 134 130 131 136 139 139 139 137 133 131 135 140 141 141 140 138 137 136 134 133 133 132 131 130 129 127 126 125 124 124 126 127 125 122 122 124 125 126 127 127 126 126 126 126 127 128 128 127 126 127 128 128 127 128 128 127 127 126 126 127 127 126 126 127 127 128 127 126 126 125 122 118 115 116 117 118 119 120 124 129 130 129 130 135 140 141 140 142 143 145 149 150 149 147 143 137 131 125 118 113 108 103 100 102 108 115 120 123 126 130 133 135 132 129 129 130 130 129 127 126 126 123 123 125 127 128 129 130 131 130
126 124 121 119 120 122 124 125 126 126 125 124 124 125 125 124 125 126 125 124 125 127 128 128 127 125 124 123 123 123 123 123 124 124 125 125 125 125 126 129 130 128 127 128 128 127 127 126 125 125 125 126 128 128 128 128 130 130 128 126 125 126 127 127 126 126 127 129 129 128 128 128 128 127 127 127 128 128 126 126 127 128 127 127 127 127 128 127 127 126 126 127 126 126 127 129 132 136 139 138 134 132 134 137 139 141 143 145 145 143 140 138 136 135 133 133 135 136 133 130 130 132 133 134 134 135 137 136 134 132 131 134 137 139 139 138 136 135 134 133 132 131 130 129 128 127 125 123 122 123 125 124 120 118 123 126 126 127 129 129 127 126 126 127 128 129 129 128 127 128 128 127 127 128 128 128 127 127 127 127 126 126 127 128 128 129 129 128 127 127 125 123 120 117 116 117 118 117 115 115 116 115 117 123 128 128 130 139 144 144 145 142 136 131 127 123 117 111 109 110 111 108 106 111 120 125 129 132 133 133 134 134 133 131 129 128 129 129 128 127 126 125 126 126 127 129 131 131 131 131
129 128 125 121 120 120 122 124 126 126 125 125 125 125 125 126 127 128 128 128 127 127 128 127 127 126 125 124 125 126 125 124 124 125 127 128 128 128 129 130 129 128 128 130 131 131 130 128 126 125 126 127 127 126 125 126 128 131 131 129 127 127 127 126 125 126 127 127 125 124 125 126 127 127 127 127 127 127 127 127 127 128 128 127 127 127 128 127 126 126 126 127 127 127 127 129 134 138 137 132 131 133 139 143 146 149 149 145 142 141 141 140 138 135 134 133 134 134 133 132 132 132 132 131 132 133 135 137 138 137 134 133 133 135 135 135 135 134 133 132 131 130 129 129 128 126 124 122 122 122 123 123 122 126 131 130 128 127 127 128 128 127 127 128 128 128 128 128 128 128 128 127 126 126 127 127 127 128 128 128 127 127 128 128 128 128 129 128 128 128 127 127 126 125 124 125 125 122 118 114 112 111 109 108 106 108 118 135 147 147 138 129 123 119 118 118 117 116 116 119 121 121 122 124 127 128 129 131 132 132 131 129 128 128 129 128 126 124 125 126 126 127 128 128 127 129 130 130 129 128
130 130 130 128 124 122 120 120 120 121 122 124 126 125 124 124 125 126 127 127 128 128 128 127 126 126 125 125 127 129 129 128 128 129 131 132 132 132 133 132 130 129 131 133 133 133 132 129 127 126 127 127 126 125 126 127 129 130 131 130 128 128 127 126 126 127 127 126 125 126 127 127 127 127 127 126 127 126 127 127 128 128 128 127 127 128 128 127 126 126 126 127 128 128 129 132 136 136 133 131 134 138 142 143 144 146 146 142 139 138 138 137 136 134 132 132 133 135 136 135 133 132 132 131 132 133 135 137 139 139 136 134 132 131 131 132 132 132 132 132 131 130 129 129 128 126 124 123 123 123 123 123 125 129 131 128 127 126 125 126 127 128 129 129 128 128 128 128 128 128 127 126 126 126 126 127 127 128 128 128 128 129 129 128 127 127 127 128 128 127 127 127 127 126 126 126 126 125 124 123 122 120 117 110 105 107 115 127 136 136 128 118 114 113 114 116 118 119 121 123 125 128 129 127 125 125 126 126 126 126 124 121 121 124 128 128 125 123 124 126 126 127 129 129 129 128 127 127 126 125
129 131 132 132 130 128 125 120 117 116 118 121 124 125 125 125 125 125 125 127 130 130 129 126 125 124 124 126 127 129 131 131 131 130 131 133 135 133 132 130 130 130 131 131 129 129 129 129 128 127 127 127 128 128 129 129 129 128 127 128 128 128 127 126 127 128 127 126 127 128 128 128 127 126 125 126 126 126 127 127 127 127 127 127 127 126 126 126 126 126 126 127 128 129 132 137 139 137 136 139 143 144 140 136 135 137 136 133 133 134 134 133 133 132 131 131 132 134 134 134 133 132 132 132 133 133 134 135 135 135 133 132 131 130 130 130 130 131 131 132 132 131 130 129 128 126 125 123 123 124 126 129 130 129 127 127 128 128 127 127 128 129 129 128 127 127 127 127 126 126 125 125 126 126 127 127 127 127 127 127 128 128 128 127 126 125 126 127 127 128 127 126 125 125 125 125 125 125 126 127 127 127 125 120 116 115 116 115 115 116 116 116 116 118 119 119 121 124 127 128 129 129 129 127 126 127 126 126 126 125 123 122 123 126 129 129 128 127 127 128 129 130 131 131 131 131 130 128 126 125
128 128 128 129 130 129 127 125 122 121 120 120 121 124 126 126 126 126 126 129 130 130 128 127 126 125 125 127 129 129 129 130 130 130 131 133 133 130 128 129 129 129 129 128 126 125 126 129 129 128 127 128 128 128 128 127 126 127 126 127 127 127 127 128 128 127 126 125 125 126 127 127 127 127 126 126 126 126 127 127 127 127 128 129 128 126 126 126 127 128 129 130 130 130 133 138 140 143 147 148 148 145 139 135 134 133 131 130 131 132 131 131 131 130 131 131 132 132 133 133 133 133 134 133 132 132 132 132 131 130 130 130 130 129 129 129 129 130 130 130 131 131 130 129 129 128 127 126 126 127 130 133 134 130 126 127 129 130 130 128 127 128 127 126 126 126 126 125 124 125 126 126 126 127 127 127 126 126 127 127 128 128 127 126 126 125 125 125 126 127 127 126 125 125 125 125 125 126 127 127 128 128 127 125 124 123 119 110 104 105 109 117 123 126 129 129 129 132 135 136 135 132 130 130 131 131 129 128 127 126 125 127 128 129 129 129 130 131 133 133 134 136 136 134 131 131 131 131 131 130
127 126 125 126 127 127 126 127 127 126 126 125 123 123 125 127 127 128 129 129 128 128 127 127 127 127 129 129 129 129 128 127 126 128 131 130 128 128 129 130 129 128 126 125 124 125 126 128 128 127 126 127 127 127 127 127 127 126 126 126 127 128 129 128 127 127 127 126 125 126 126 127 127 128 128 127 127 128 127 127 127 127 128 128 128 127 127 126 127 129 131 131 130 130 131 133 135 141 146 145 141 138 137 135 133 131 130 132 132 131 131 131 131 131 131 131 131 131 132 133 133 134 134 134 133 131 130 129 129 129 130 130 130 130 129 129 129 129 129 129 130 130 130 130 130 129 129 129 128 129 130 131 132 130 125 125 128 129 129 128 127 126 125 126 126 126 125 124 125 126 126 127 126 126 126 126 126 126 127 127 127 127 127 127 127 127 127 127 126 126 126 126 126 126 125 125 126 126 126 127 127 127 127 127 127 126 121 112 106 111 121 128 131 137 145 149 148 145 142 139 136 134 132 132 133 135 134 131 127 126 128 129 128 127 126 127 129 132 134 136 137 138 137 135 134 133 133 134 135 132
127 127 128 128 127 127 127 128 129 130 130 130 127 125 126 128 129 130 130 130 128 127 127 126 126 129 131 130 128 127 125 123 123 127 127 125 124 127 130 130 128 125 123 123 124 126 127 127 127 127 127 126 127 128 129 130 129 128 128 129 130 130 129 129 128 128 128 128 128 127 127 128 128 128 127 128 128 128 128 127 127 127 126 125 126 126 127 127 129 130 130 128 127 130 132 133 135 137 138 137 133 130 131 133 132 131 131 132 132 132 132 131 131 131 131 130 130 130 130 131 132 133 134 133 132 131 129 128 128 129 130 131 131 131 130 130 129 129 129 129 129 130 129 129 129 129 129 129 129 129 129 128 130 131 129 127 128 128 128 129 127 126 127 127 127 126 125 125 126 126 126 126 126 126 127 128 128 127 127 126 126 127 127 127 127 128 129 128 127 127 127 127 127 127 126 126 126 126 126 126 128 129 128 128 128 125 120 117 117 123 133 137 137 139 142 147 152 152 148 142 138 138 139 139 139 141 142 141 139 137 137 136 135 133 133 134 136 137 136 136 136 136 135 135 137 135 134 134 132 128
126 127 128 128 127 126 127 128 129 130 130 130 129 127 127 128 129 129 129 130 130 129 127 126 126 127 128 128 127 124 122 122 123 125 125 124 124 127 129 128 126 126 125 126 126 126 125 124 125 127 128 127 127 128 128 126 126 127 128 129 129 127 126 127 127 127 127 128 129 129 129 129 129 127 127 127 127 127 127 127 127 127 126 126 126 126 127 128 129 129 127 126 127 132 135 135 138 138 136 135 132 129 129 131 133 132 131 132 132 132 131 131 131 131 130 130 130 130 130 130 130 131 131 131 131 131 131 130 129 129 130 130 131 130 130 129 129 128 128 128 128 129 129 129 129 129 129 128 128 127 127 127 127 131 134 132 128 127 127 128 128 128 127 127 126 126 126 126 126 127 127 126 126 127 127 128 128 127 127 126 126 126 126 127 127 128 127 127 128 129 128 128 128 128 128 127 127 127 127 127 128 129 128 129 128 126 123 121 120 118 115 116 120 122 119 120 130 140 145 147 150 152 153 151 147 145 148 152 152 148 145 145 144 142 139 138 137 136 135 133 130 129 130 130 127 123 121 122 122 123
126 126 127 127 127 127 127 128 128 128 128 128 129 129 128 127 126 126 128 130 130 129 127 126 125 125 124 124 125 125 124 125 126 127 127 127 127 126 125 124 124 126 127 126 125 125 125 124 125 127 128 128 127 126 125 123 123 124 125 126 127 126 125 125 126 126 128 129 129 128 127 127 126 126 126 127 127 126 127 127 127 127 128 127 127 127 127 128 129 128 128 128 130 133 133 132 134 134 131 130 131 130 129 131 132 131 131 131 131 131 130 130 130 130 130 129 129 129 129 129 128 128 128 129 129 130 131 131 130 129 129 129 129 129 128 128 128 127 127 127 128 128 128 128 128 128 127 127 126 125 124 124 124 128 133 132 126 124 125 127 128 128 127 126 126 127 127 127 126 126 126 127 127 128 128 127 127 127 127 126 126 125 125 126 127 126 126 126 127 128 128 129 129 129 128 127 126 127 128 129 128 127 127 128 129 129 128 124 119 112 106 107 111 114 113 110 109 112 118 124 128 130 129 128 127 126 127 128 129 131 134 134 132 130 127 126 126 127 128 126 124 124 123 120 115 114 115 116 118 122
128 127 127 128 128 128 128 128 128 128 128 129 130 131 129 126 124 124 127 128 129 128 127 126 127 128 128 128 128 128 128 128 129 129 129 129 127 125 123 123 125 126 127 125 124 125 127 127 128 128 128 128 128 127 126 126 126 124 124 127 128 128 128 127 127 128 129 129 128 128 127 126 125 126 126 126 126 126 126 127 127 127 128 127 127 127 128 129 129 127 128 130 133 133 130 131 134 134 131 128 129 131 131 130 130 131 131 131 130 130 130 129 129 129 129 128 128 127 127 127 127 127 128 128 129 129 129 130 130 130 129 129 128 128 128 127 127 127 126 126 126 127 127 128 128 128 126 125 125 125 123 122 122 123 124 126 125 124 126 128 127 127 127 127 127 127 127 127 128 127 126 127 127 128 127 127 127 127 127 127 126 126 126 127 127 126 126 126 126 127 127 128 128 128 128 127 126 126 126 127 127 127 127 127 129 131 130 125 119 114 112 111 110 107 106 103 97 93 94 97 99 97 95 97 101 103 102 100 101 107 111 112 114 117 120 124 129 129 125 124 127 128 127 123 120 122 124 122 121 125
127 128 128 128 127 128 128 128 127 127 128 130 131 131 129 126 124 124 126 127 127 127 127 128 130 132 134 133 130 129 131 132 132 130 129 130 130 129 126 125 126 127 127 127 127 127 128 130 130 129 128 128 128 128 128 129 128 127 127 128 128 128 128 129 130 130 128 126 126 127 128 128 127 126 127 127 126 126 127 127 127 128 127 127 128 128 128 128 127 126 128 132 136 134 133 136 136 133 132 132 133 135 135 132 131 131 131 131 130 129 128 128 128 127 127 126 125 125 125 126 127 128 128 128 128 129 129 129 129 129 129 128 128 127 127 127 126 126 126 126 126 126 126 127 128 128 128 128 127 127 125 123 122 121 121 123 126 126 127 128 127 127 128 128 128 127 127 127 128 127 126 127 127 127 127 127 127 127 128 128 127 127 127 128 128 128 128 127 127 127 128 127 127 127 127 127 126 125 126 127 127 127 126 126 126 125 122 119 115 112 111 110 108 106 106 108 111 114 114 112 110 111 116 123 128 126 118 111 110 111 113 116 121 124 128 133 133 128 123 123 127 130 131 129 128 129 128 127 128 129
127 127 128 127 127 128 128 127 127 127 129 129 130 130 128 127 126 125 124 125 127 128 128 129 130 133 132 131 130 131 133 133 131 130 130 131 133 132 129 127 127 126 126 127 128 128 129 129 128 128 127 126 127 127 128 129 129 128 128 126 125 127 129 130 131 130 128 125 125 126 127 127 125 125 126 127 128 128 128 127 127 127 127 128 130 130 130 128 127 128 130 132 133 135 138 140 137 134 134 134 134 134 135 134 133 132 132 131 130 129 128 127 127 127 126 126 125 125 126 127 128 129 129 129 128 128 128 128 128 128 128 127 127 127 126 126 126 125 125 125 125 125 126 127 128 129 130 131 130 129 127 126 125 124 122 123 125 126 126 126 127 127 127 127 128 127 127 126 126 126 126 127 127 128 127 127 126 126 126 127 128 129 129 128 128 129 129 129 127 127 127 127 127 127 127 127 127 126 125 124 123 124 125 124 124 123 123 121 119 118 120 127 132 131 126 126 134 143 144 137 128 128 142 159 167 160 142 126 123 125 126 128 130 131 132 131 124 117 117 120 123 125 127 129 130 129 128 129 131 131
127 128 129 129 129 128 127 127 127 128 128 128 128 128 127 127 126 125 123 123 126 129 131 131 132 133 132 131 131 132 132 130 129 129 128 129 130 129 128 127 128 127 127 127 127 127 127 127 127 126 126 126 126 127 127 127 127 127 128 127 128 129 128 128 128 128 128 128 126 125 124 123 123 125 126 127 127 128 127 127 127 126 127 129 130 131 130 129 128 130 130 129 130 134 138 137 135 133 132 132 131 131 132 133 133 132 130 129 128 128 127 127 127 127 126 126 127 127 128 128 129 129 129 129 129 127 127 127 127 127 127 126 126 126 126 125 124 125 125 125 125 125 126 127 127 128 129 129 129 128 127 127 127 125 123 124 126 126 125 125 126 127 127 127 127 127 127 127 126 127 127 127 127 127 127 127 126 125 125 126 128 129 128 128 129 129 130 129 128 128 127 127 128 128 128 128 128 127 124 122 121 123 124 124 126 130 132 131 127 126 131 139 144 140 133 131 136 141 142 141 136 131 133 136 134 131 130 129 128 128 130 131 131 131 129 122 115 116 122 125 120 117 121 127 130 129 129 133 134 130
126 126 127 128 127 126 126 126 127 127 126 126 126 126 127 127 127 126 125 124 127 132 136 137 136 134 131 131 131 131 130 129 128 128 127 126 126 127 127 128 128 128 129 129 127 126 125 126 125 125 126 128 129 129 127 125 126 127 127 128 130 130 129 128 128 127 127 128 128 125 122 121 123 126 127 126 126 127 127 126 126 126 127 128 129 129 129 128 128 130 131 130 130 133 134 132 130 127 127 128 128 129 130 131 130 129 128 128 128 128 128 127 127 127 127 127 128 128 129 128 128 127 128 128 128 128 127 127 127 128 127 126 125 125 124 124 124 125 125 125 125 125 124 125 125 126 126 126 126 126 127 127 125 123 124 126 127 127 126 125 126 127 127 127 127 126 127 127 127 128 128 127 126 126 127 127 127 127 126 127 127 127 127 128 130 131 131 130 130 129 127 127 127 127 128 128 128 127 126 124 123 123 123 123 123 123 124 125 126 127 129 131 130 128 127 127 127 126 126 130 133 130 120 108 100 103 121 136 138 135 134 134 132 129 124 121 123 131 138 136 127 120 122 128 133 136 137 137 136 133
126 126 126 127 126 126 126 125 125 126 126 125 125 125 126 127 128 129 128 127 128 133 137 139 137 132 129 130 131 131 131 131 130 130 128 126 126 126 127 128 128 128 130 131 130 127 124 124 126 129 131 132 132 130 128 126 126 129 130 129 129 129 129 130 130 129 127 127 126 124 123 124 126 127 127 126 126 127 127 127 127 127 127 127 128 130 129 127 127 128 128 129 131 130 129 130 130 129 129 130 129 128 128 128 128 128 128 127 128 128 128 128 128 128 128 128 128 128 127 127 127 126 126 127 128 129 129 129 129 129 129 128 126 125 124 124 125 125 125 125 124 124 124 123 123 124 125 125 124 125 127 126 122 121 125 129 129 128 128 128 129 128 127 127 126 126 126 128 128 128 127 126 126 127 127 128 128 128 128 128 128 128 129 130 131 130 129 128 127 127 126 126 126 127 127 127 127 127 126 125 125 124 124 124 121 117 116 118 122 124 123 121 121 126 134 138 133 128 127 131 136 137 132 128 128 133 141 150 152 148 143 139 135 132 131 134 140 145 146 147 148 146 141 139 141 144 143 139 136 133
127 127 127 127 127 127 126 126 126 126 126 125 126 126 127 127 127 127 127 126 124 127 131 132 132 130 130 132 133 134 133 134 134 131 129 127 126 125 126 127 128 129 129 129 127 125 124 125 129 133 132 129 127 127 130 130 129 129 130 129 128 127 127 128 128 127 125 122 121 121 124 127 128 127 126 126 126 126 126 127 127 128 129 129 128 128 128 130 131 128 125 128 131 129 130 134 131 129 129 129 129 128 127 128 128 128 128 128 128 128 128 128 128 128 128 128 127 126 126 126 126 125 126 127 128 129 130 130 130 130 129 128 127 126 125 125 125 126 125 125 125 124 124 124 123 124 125 126 126 126 126 125 124 125 129 131 131 130 130 130 130 129 128 128 127 127 127 128 128 128 127 127 127 128 128 128 128 129 130 131 131 130 129 128 127 125 124 125 125 126 126 126 126 126 126 126 126 126 126 126 126 126 126 125 124 122 121 121 123 125 122 115 113 121 133 138 137 134 133 138 149 158 160 159 159 160 160 158 157 158 158 156 153 153 154 157 158 154 149 151 159 162 158 151 149 150 147 140 134 130
128 128 125 124 124 126 127 127 128 128 127 127 128 129 129 128 126 126 126 124 121 121 122 122 122 124 128 132 134 135 136 136 134 131 129 128 128 127 128 128 128 128 127 125 124 124 125 127 129 129 127 125 125 127 129 130 131 129 127 127 126 126 127 127 125 123 121 120 120 122 125 128 128 127 126 127 127 126 126 127 128 129 130 130 129 127 128 132 134 130 127 130 131 132 137 139 133 128 127 127 128 128 128 128 128 128 128 128 127 128 128 128 128 127 127 126 126 125 125 125 126 126 127 128 129 129 130 129 129 129 128 128 128 128 127 127 127 127 126 126 125 125 125 125 125 125 125 126 127 127 127 128 128 130 130 128 128 130 129 128 127 127 127 127 128 128 127 127 127 127 127 127 128 128 128 129 129 130 130 130 128 127 125 124 123 123 124 125 126 127 128 128 128 127 126 126 127 127 127 127 127 127 126 126 126 125 125 124 125 124 122 116 112 110 109 109 110 113 116 121 130 142 146 143 143 147 147 145 143 146 150 153 155 158 159 160 159 154 146 141 141 144 145 144 145 146 144 138 132 129
128 126 124 123 123 124 126 127 128 128 128 128 127 127 127 127 126 126 126 126 123 118 116 115 113 113 118 124 129 131 132 134 133 130 129 129 130 130 129 127 127 128 129 130 131 130 129 129 128 125 125 126 128 128 127 127 128 127 127 126 125 125 126 125 122 120 120 123 126 127 127 127 128 127 127 128 128 127 127 127 128 128 129 129 129 129 130 133 134 131 128 126 131 140 143 136 131 129 127 126 127 128 128 128 127 127 127 127 127 127 127 127 128 127 126 126 126 126 126 127 127 128 129 129 129 129 129 129 128 128 127 127 127 128 128 128 127 127 127 127 126 126 126 126 126 126 125 124 125 126 127 128 128 128 126 125 126 128 127 124 124 126 127 127 127 127 126 126 126 127 128 128 129 129 129 129 129 128 127 125 125 125 125 126 127 128 130 132 134 135 134 133 132 130 129 129 129 129 129 128 128 128 128 127 127 126 125 124 123 122 122 121 119 115 108 103 100 97 96 96 93 92 91 92 100 111 117 122 126 124 122 125 127 122 121 128 137 140 136 130 127 128 132 134 134 134 132 129 127 127
126 125 125 126 126 126 126 127 127 128 127 125 123 122 123 125 126 126 126 126 123 117 115 116 116 113 115 120 124 124 125 129 132 133 132 132 132 132 132 131 132 133 134 136 136 134 132 130 125 122 124 127 128 128 126 125 124 125 127 126 126 126 125 122 120 121 123 126 128 128 128 128 128 128 127 127 127 127 127 127 127 127 128 129 130 133 135 134 130 128 128 130 139 150 145 132 127 128 128 127 127 127 127 127 127 126 126 126 126 126 126 126 126 126 126 126 127 127 128 128 128 129 129 129 128 128 128 128 127 126 126 126 126 127 128 128 128 128 128 129 128 128 128 128 128 128 127 126 126 126 126 127 126 125 125 126 127 126 125 124 125 126 127 127 127 126 125 125 126 128 129 129 129 128 127 126 126 126 125 126 128 132 133 134 135 137 137 138 137 135 133 131 130 129 129 129 129 129 128 128 128 129 129 128 127 127 127 126 124 123 123 124 124 124 122 120 117 112 107 102 94 85 80 81 84 90 96 102 108 106 100 98 95 89 86 91 103 116 122 119 115 121 130 132 128 125 124 122 123 126
126 125 126 127 127 126 125 125 126 126 124 123 123 124 125 126 126 126 126 125 124 122 120 121 123 123 121 120 121 123 126 128 131 134 136 136 135 134 134 135 134 132 130 129 130 132 131 128 125 124 125 125 125 125 125 125 126 127 127 126 126 125 123 121 120 122 125 126 127 127 127 127 127 127 127 127 127 127 127 127 127 127 128 130 133 135 136 132 129 133 140 148 154 151 140 132 130 131 130 129 127 126 126 126 126 126 126 126 126 126 125 125 125 125 125 126 127 128 128 128 128 128 128 128 127 127 127 127 126 125 125 125 125 126 127 128 128 129 129 130 129 129 129 130 130 130 129 129 128 128 128 126 126 126 126 127 127 125 125 126 126 127 127 127 126 126 125 126 127 128 128 128 128 127 127 129 132 135 136 136 136 137 137 135 134 132 130 128 125 122 122 123 124 125 126 126 126 126 127 127 127 127 127 128 128 128 128 128 128 126 125 124 124 125 125 125 125 124 122 121 118 114 112 110 105 100 102 102 100 100 97 91 90 93 93 88 86 93 102 106 104 103 107 116 118 113 112 116 119 123
126 126 126 125 126 126 125 124 124 124 124 125 127 128 128 127 127 126 126 126 127 126 124 123 125 125 121 117 116 118 121 124 126 129 132 132 131 131 130 128 125 124 123 122 125 128 128 128 129 129 128 126 125 125 127 129 129 129 127 126 125 124 121 121 123 125 126 127 127 128 128 126 126 126 127 127 127 127 127 127 127 128 129 132 133 131 129 131 138 146 155 158 150 138 132 132 132 131 130 129 128 127 126 126 126 126 126 126 126 126 126 126 125 125 126 127 127 128 128 128 128 127 127 127 127 127 127 127 126 126 125 125 126 127 128 128 128 129 129 130 129 129 129 130 131 132 132 131 131 130 127 125 127 129 129 127 125 125 126 127 127 127 127 127 127 127 128 128 127 128 131 134 137 138 138 139 140 140 137 133 130 128 126 124 122 121 121 120 120 121 122 124 125 126 127 127 127 127 127 127 126 126 126 127 128 128 128 128 129 129 127 125 124 124 125 124 123 123 124 125 125 125 125 125 122 117 114 114 113 115 114 112 113 117 117 110 102 99 102 108 111 103 97 102 106 103 105 111 113 117
128 129 128 126 127 127 126 125 125 126 126 126 126 126 126 126 126 127 127 127 127 126 124 124 126 126 121 114 110 108 110 114 118 122 125 127 128 127 125 124 123 123 123 124 125 126 127 129 131 131 129 129 130 130 131 131 129 127 126 125 123 121 122 125 127 128 127 127 127 127 127 127 126 127 127 127 127 127 127 128 129 131 133 135 134 132 129 132 141 152 156 150 136 127 127 129 129 128 128 128 128 128 127 127 126 126 126 126 126 127 127 127 126 126 127 127 127 127 128 128 128 128 127 127 127 127 127 128 128 127 126 126 127 127 128 128 128 129 129 129 129 129 129 129 130 130 129 129 130 129 126 126 129 131 128 125 126 127 127 126 126 127 127 127 127 128 129 129 130 134 139 142 143 141 138 134 129 126 123 123 122 122 124 126 126 128 129 130 132 134 135 133 133 134 132 131 130 130 130 129 128 127 127 127 128 128 127 127 128 129 128 127 126 125 124 125 126 126 125 125 124 123 123 122 120 117 113 113 115 118 121 124 127 129 129 127 121 117 116 117 117 114 111 109 108 107 109 113 116 120
129 129 128 127 128 128 128 128 127 127 126 126 126 125 126 128 128 128 128 127 127 126 126 126 126 126 124 119 114 111 109 107 108 113 118 122 124 125 125 127 129 130 129 128 127 128 129 129 128 128 131 132 132 131 131 128 125 123 123 122 121 122 125 128 129 128 128 127 126 125 126 126 126 127 127 127 127 127 128 129 131 134 135 135 135 141 144 138 136 142 145 140 132 126 125 127 128 128 127 127 127 128 127 127 126 125 125 126 127 127 127 127 127 127 127 128 128 129 129 129 128 128 127 127 127 128 128 128 128 128 127 127 127 128 128 128 128 128 128 128 128 128 127 127 126 124 123 123 124 125 126 124 123 123 125 126 126 127 127 127 126 126 126 127 127 129 132 135 138 138 134 130 125 123 123 122 120 120 124 132 137 137 136 136 138 140 141 141 142 142 140 137 134 133 131 130 128 128 128 129 128 128 127 127 127 127 127 127 127 127 127 127 127 126 126 126 127 128 128 128 127 127 127 126 123 120 116 114 112 114 120 126 129 130 131 131 128 121 116 114 113 115 117 116 115 116 117 118 122 125
128 128 127 127 127 128 129 129 129 128 128 128 128 128 128 130 131 130 128 127 128 128 128 127 125 125 126 125 124 123 119 113 109 106 108 114 120 123 126 130 132 132 131 130 129 129 130 128 125 126 129 131 130 129 128 127 125 122 120 121 122 125 127 127 127 127 128 128 126 125 125 126 127 127 127 127 127 128 129 130 131 133 133 132 136 148 162 159 142 132 133 135 134 131 128 128 128 128 128 128 127 127 126 126 126 126 126 126 127 127 126 127 127 128 128 129 129 130 129 129 128 128 128 128 128 128 128 127 128 128 128 128 128 128 128 128 128 127 127 128 127 127 126 125 122 119 119 121 125 125 123 120 119 122 127 129 127 126 126 127 127 127 127 128 129 132 134 136 134 128 120 114 114 115 118 122 126 133 139 145 147 143 138 137 140 140 137 133 129 126 125 123 122 122 122 124 124 124 125 125 126 127 127 127 127 127 127 127 126 126 128 129 128 127 127 126 126 127 128 128 128 128 129 129 128 125 122 119 118 118 120 122 122 122 123 125 123 117 113 112 115 120 120 118 119 122 122 123 125 127
128 129 130 130 129 127 127 127 128 129 130 130 128 127 127 129 130 129 128 127 128 128 126 125 125 126 127 128 128 128 127 125 121 114 111 114 120 125 128 129 128 128 130 131 131 130 129 129 128 128 129 129 128 128 128 129 128 125 122 123 125 126 126 125 125 125 126 127 127 127 128 129 128 127 127 127 127 128 129 130 131 132 134 136 140 143 148 150 142 134 134 134 134 134 132 130 129 129 130 129 128 126 125 125 126 126 127 127 126 126 125 125 126 127 128 129 130 129 128 128 128 128 129 129 129 128 128 127 128 128 129 129 129 129 129 129 129 129 128 128 128 128 126 125 122 120 120 123 125 122 120 122 126 128 129 128 127 126 127 128 128 129 129 130 131 131 128 124 121 119 118 119 123 127 132 139 144 147 147 143 135 129 126 124 123 121 116 113 111 111 113 116 119 120 121 123 124 124 124 124 125 126 126 126 126 127 127 127 126 126 128 129 129 128 127 126 125 125 126 127 127 128 129 130 130 129 127 126 125 123 120 118 117 117 118 120 120 119 118 119 124 127 126 124 125 127 130 136 139 136
128 128 129 129 128 127 125 124 125 127 129 129 129 128 127 127 127 128 128 128 127 126 125 125 126 127 127 128 129 129 129 127 126 124 119 117 121 126 129 128 125 124 126 130 131 131 131 133 135 134 132 130 128 129 128 127 126 125 123 124 126 126 126 125 125 125 125 125 127 129 129 128 127 126 127 127 127 127 127 127 129 132 136 142 145 136 120 117 128 138 139 136 133 133 132 131 130 130 130 129 127 125 124 124 124 125 126 126 124 123 123 123 124 126 127 127 128 128 128 127 127 128 128 129 129 129 128 128 128 128 129 129 129 129 129 129 129 130 129 129 129 129 128 126 125 125 125 123 120 119 123 130 133 131 127 125 126 127 129 129 130 131 130 129 127 123 121 118 118 120 125 131 138 144 148 148 146 140 132 123 115 113 114 112 108 107 109 112 116 118 119 122 123 124 124 125 125 125 125 126 126 126 126 126 126 126 127 127 126 127 127 126 127 127 127 127 126 125 126 127 127 127 127 127 128 129 128 128 127 126 122 119 120 121 121 122 125 128 131 133 135 137 139 139 139 140 144 147 146 139
126 125 124 124 124 125 125 125 124 125 126 128 130 131 130 128 127 127 128 129 127 126 126 126 127 128 128 128 129 129 128 128 128 127 124 119 120 123 123 119 116 116 120 125 128 130 132 136 139 138 134 132 131 130 126 122 120 121 123 125 126 126 126 126 126 126 126 125 126 127 126 125 125 126 127 128 128 127 126 127 129 130 132 137 141 135 125 125 136 142 139 134 132 131 131 129 129 129 129 127 126 125 125 125 123 122 123 123 122 121 121 122 123 124 125 126 126 126 127 127 128 128 128 129 129 129 129 129 129 128 128 128 128 128 128 128 129 129 129 129 130 130 130 128 128 128 128 125 122 122 128 133 133 129 125 125 128 130 130 130 129 128 127 125 123 122 121 123 128 134 141 146 149 147 140 131 122 114 107 103 105 110 114 116 116 117 120 123 125 125 125 125 125 125 125 125 126 126 127 127 127 127 127 127 127 127 127 127 127 127 126 125 125 126 127 127 126 126 125 125 126 126 125 126 127 128 129 129 128 128 126 124 124 124 123 123 125 132 141 147 149 151 153 152 149 147 144 140 136 131
122 122 123 124 124 125 126 128 127 125 125 127 129 129 129 128 125 125 125 126 127 127 126 126 126 128 129 129 129 127 127 128 128 127 124 121 119 117 113 110 111 113 113 114 119 123 127 131 135 137 137 135 133 129 125 120 119 121 125 126 127 127 126 126 126 126 126 126 126 126 125 124 124 125 126 127 128 128 127 127 128 127 125 125 128 133 140 150 153 145 135 131 130 129 129 128 127 127 127 126 126 126 127 126 123 120 119 119 120 120 120 121 122 123 126 127 127 127 127 128 128 128 129 129 129 129 130 130 129 129 128 128 128 128 128 128 128 128 129 129 130 130 129 128 129 128 126 125 126 127 128 127 125 123 125 128 131 131 130 128 126 125 124 125 127 130 135 142 148 150 148 143 135 125 115 106 102 101 103 108 115 119 122 124 126 126 126 126 126 126 126 126 126 126 126 126 126 127 127 127 127 128 128 127 127 127 128 128 128 128 127 127 126 127 127 127 127 126 125 124 124 125 125 125 125 127 129 129 128 128 128 128 127 126 125 124 122 123 129 137 141 145 148 146 140 137 135 131 127 126
124 123 124 125 125 126 127 129 128 126 126 126 125 126 126 125 123 123 124 125 126 127 126 126 126 128 129 127 125 125 125 126 126 126 126 126 122 117 115 118 121 119 114 110 111 113 117 122 126 130 133 133 131 128 123 121 122 124 126 126 127 127 126 126 126 126 127 127 127 126 125 124 124 124 125 126 126 128 128 126 125 124 123 120 122 132 142 148 145 137 130 129 128 128 128 128 127 126 124 123 124 125 125 123 121 120 119 119 120 121 124 126 127 128 130 130 129 129 128 128 128 128 128 128 129 129 129 129 129 129 129 129 129 129 129 128 128 128 128 128 128 128 127 127 127 126 124 125 128 129 125 120 118 122 128 131 129 127 124 124 124 126 128 134 141 146 148 147 144 137 127 117 108 104 103 104 108 112 117 122 125 126 126 126 126 126 126 125 126 126 126 127 127 126 126 126 126 127 127 127 127 127 127 128 128 127 128 128 128 129 129 128 127 127 127 127 127 126 126 125 124 125 126 125 124 124 125 126 127 127 128 129 129 128 127 126 124 118 109 103 103 107 112 119 124 128 132 133 133 131
127 126 124 124 125 126 127 128 127 127 126 124 123 123 123 124 125 125 126 127 126 126 127 127 128 128 127 124 123 122 122 122 123 126 130 130 126 121 121 124 124 123 122 120 117 114 113 116 119 123 125 127 127 124 121 121 124 126 127 127 127 127 128 128 128 128 128 127 127 126 126 126 126 127 127 127 126 127 128 126 122 121 124 125 126 131 135 134 131 128 127 126 126 127 128 128 128 125 123 122 122 122 120 119 120 121 122 121 121 124 127 129 131 133 132 131 130 129 128 128 128 128 128 128 129 129 129 129 129 129 129 129 130 129 129 128 128 128 128 127 126 125 125 126 127 127 128 128 129 128 123 121 125 131 131 128 125 123 122 124 127 131 135 139 143 141 134 123 115 111 108 105 105 108 113 119 123 124 124 125 127 127 126 125 125 125 125 126 126 126 127 127 127 127 126 126 126 127 127 127 127 127 127 127 127 127 126 126 126 128 128 128 127 127 127 128 127 127 127 126 126 126 126 126 126 124 123 124 125 126 126 127 129 130 129 128 127 124 115 105 98 91 87 94 108 118 126 136 142 138
129 128 127 126 127 127 127 126 126 126 125 125 125 124 124 125 127 128 128 128 127 127 128 128 129 128 126 125 125 124 124 125 126 129 131 129 124 123 123 124 124 127 130 130 127 123 120 120 122 123 123 123 121 118 118 123 126 126 126 127 127 128 128 129 129 128 128 128 127 128 128 128 128 128 128 128 128 127 126 125 122 118 119 122 124 125 127 127 126 125 125 124 124 125 127 127 127 126 125 123 122 121 120 119 118 120 121 122 124 125 127 128 130 131 131 130 129 129 128 128 128 128 128 128 128 129 129 129 129 129 129 128 128 128 128 128 128 128 127 126 125 124 125 129 132 135 139 137 131 125 125 130 135 133 128 124 123 125 127 130 134 137 137 133 124 118 114 110 107 107 110 115 118 120 123 124 125 126 126 126 126 125 125 126 126 125 126 126 126 127 127 127 127 127 127 127 127 127 127 127 127 127 127 127 126 126 126 125 125 125 125 126 127 127 127 128 128 128 127 127 126 126 125 126 127 127 126 125 125 125 125 125 126 128 129 129 128 128 128 127 123 114 103 96 101 114 129 139 139 134
128 129 129 129 128 127 127 126 125 125 125 126 126 126 126 126 127 127 127 127 127 127 128 128 128 128 127 127 128 128 129 129 129 129 127 124 122 124 126 127 129 130 131 131 128 128 131 131 129 127 124 121 116 115 120 125 126 126 126 127 127 127 127 127 127 127 127 127 127 127 127 128 128 129 128 129 130 130 127 126 124 119 115 115 113 112 114 118 121 123 124 125 124 124 125 126 126 127 126 125 123 123 122 119 118 119 121 124 128 130 130 130 130 130 129 128 128 128 128 128 128 128 128 128 128 128 128 128 129 129 128 128 128 127 127 127 127 127 126 125 125 126 130 134 136 136 134 129 124 123 129 132 129 124 122 123 126 130 132 134 134 132 128 120 112 109 112 115 117 118 120 122 123 124 125 126 126 127 127 126 125 125 126 127 126 126 126 126 127 127 127 127 127 127 127 127 128 128 128 127 127 127 126 126 126 126 126 126 126 125 125 126 127 127 127 127 127 127 127 127 127 126 125 126 127 128 128 128 127 125 125 125 124 125 126 128 129 129 130 130 131 130 124 115 108 107 110 113 117 123
127 128 129 129 128 127 127 126 126 125 124 124 124 126 127 127 127 127 127 127 127 127 127 128 127 127 127 127 128 129 128 128 128 126 124 124 125 127 128 129 129 128 127 127 129 135 138 135 131 128 125 121 117 120 124 126 126 126 127 127 127 127 127 127 127 127 127 126 126 126 126 127 128 129 129 130 130 129 127 126 126 122 116 112 109 107 106 110 117 122 125 126 126 126 126 126 127 127 127 127 126 125 121 118 119 122 124 128 131 132 132 132 130 129 128 128 128 128 128 128 128 128 128 128 128 128 128 128 128 129 128 128 128 127 126 126 126 126 126 126 127 131 134 134 130 122 113 111 117 125 128 125 120 120 122 126 130 132 132 130 126 121 117 115 115 117 119 121 123 124 124 125 125 126 126 127 127 127 127 127 127 126 127 127 127 127 127 127 127 127 127 127 127 127 127 127 127 128 128 127 127 127 126 126 126 126 127 126 126 126 126 126 127 127 127 127 127 127 127 127 127 127 127 127 127 127 128 128 128 127 127 126 126 125 125 126 127 128 128 129 129 130 130 127 119 105 91 87 97 112
126 127 128 128 128 128 128 127 127 127 127 126 127 128 129 129 128 128 128 128 128 129 128 128 128 127 127 127 128 129 128 128 128 128 129 129 130 131 131 131 131 132 135 138 142 143 138 131 126 123 120 116 117 122 125 126 126 127 127 127 127 127 127 127 127 127 127 127 126 126 126 128 128 128 128 128 127 127 126 126 127 126 121 113 108 105 104 108 113 118 122 125 127 128 127 126 126 126 127 128 127 124 119 117 120 125 130 132 132 132 132 131 130 128 127 127 128 127 127 128 128 128 128 128 128 128 128 128 128 128 128 127 127 126 125 125 126 126 126 127 130 131 131 127 118 108 106 113 120 122 119 118 119 123 128 130 130 126 123 121 119 117 117 120 123 124 124 124 125 126 126 127 127 127 127 127 127 127 127 127 127 127 127 127 127 127 127 127 127 127 127 127 127 127 127 127 127 127 127 127 127 126 126 126 127 127 127 127 126 126 126 126 127 127 127 127 127 127 127 127 127 127 128 127 127 127 128 128 128 129 129 128 127 127 126 125 125 124 125 125 125 127 129 130 129 123 112 100 94 103
126 126 126 126 126 127 126 126 125 126 128 129 130 129 129 129 128 127 126 126 126 127 128 128 130 131 132 132 132 134 134 133 133 133 134 135 137 138 141 143 145 147 149 149 146 140 131 123 117 114 111 113 119 124 125 126 127 127 127 127 127 127 127 127 127 127 127 127 126 126 127 128 128 128 127 126 126 126 128 128 128 128 125 117 106 99 98 101 104 108 113 119 124 126 126 125 124 125 127 127 125 122 119 119 122 128 132 132 132 132 132 131 129 128 126 126 126 127 128 128 128 128 128 128 128 127 127 127 128 127 127 126 126 125 125 125 126 126 126 127 130 130 127 118 109 108 114 118 118 115 116 120 124 128 130 128 125 122 121 120 120 121 122 124 125 125 125 126 126 126 127 127 127 127 127 127 127 127 127 127 127 126 126 126 127 127 127 127 127 127 127 127 127 127 127 127 127 127 127 127 127 127 127 127 127 127 127 127 127 127 126 126 126 126 126 127 127 127 127 127 127 127 127 128 128 127 127 128 128 129 129 129 128 127 127 126 125 125 125 125 124 125 127 129 130 130 129 121 111 111
127 126 126 126 126 127 126 126 125 126 127 128 128 128 127 127 127 126 126 126 126 128 130 133 135 137 138 138 137 138 138 139 140 140 141 142 143 144 146 147 146 143 139 136 131 125 119 114 111 110 112 118 124 127 127 127 128 128 127 126 126 126 127 127 127 127 127 127 126 126 127 128 128 128 128 127 126 127 129 130 128 127 127 124 116 106 99 94 91 91 96 105 116 121 122 122 122 123 125 125 120 113 111 116 123 126 128 131 133 134 132 130 129 127 126 126 126 126 127 128 127 127 127 127 127 127 127 127 127 127 127 126 125 125 125 126 126 126 126 128 130 126 113 101 104 114 117 115 115 117 122 125 126 127 126 124 122 123 124 124 124 125 125 126 126 126 126 126 127 127 127 127 127 127 127 127 127 126 126 126 126 126 127 127 127 127 127 127 126 126 126 127 127 127 127 127 127 127 127 127 127 128 128 127 127 127 127 127 127 127 127 127 126 126 126 127 127 127 127 127 127 127 127 127 127 126 126 127 128 128 129 129 129 128 127 127 127 127 127 127 126 124 124 125 126 127 129 130 129 127
126 125 126 126 128 128 129 128 128 128 128 127 127 126 126 126 126 127 129 132 135 136 136 136 135 134 133 132 131 131 132 134 136 136 136 134 134 133 130 128 126 122 116 112 110 109 109 109 112 115 120 124 127 128 128 127 126 127 127 126 127 127 128 128 128 127 127 126 126 126 127 127 127 128 129 128 127 129 131 131 129 128 129 129 127 122 114 104 93 87 85 86 90 98 109 114 115 117 120 119 110 102 105 116 124 126 126 129 132 133 133 131 130 128 127 127 126 126 127 127 127 127 127 127 127 127 127 127 127 127 127 125 124 124 126 127 126 125 127 130 127 112 96 96 106 112 114 115 120 124 125 126 125 123 123 123 125 125 125 125 125 125 126 126 127 127 127 127 127 127 127 127 126 126 126 126 126 126 126 126 127 127 127 127 127 127 127 127 126 126 127 127 127 127 127 127 127 127 127 127 128 128 128 128 127 127 127 127 127 127 127 127 127 126 126 127 127 127 127 127 127 127 126 125 125 126 126 126 128 128 128 127 128 128 128 129 129 128 128 128 127 126 124 124 125 125 126 128 129 129
126 127 128 128 128 129 129 129 129 128 128 128 127 127 126 126 127 129 133 136 136 134 131 127 123 120 119 120 121 121 120 120 120 121 120 118 117 115 113 110 109 109 108 107 108 110 113 116 120 123 125 126 127 127 127 126 126 127 128 128 128 128 128 128 127 127 125 125 126 127 128 128 127 126 127 128 128 128 130 132 131 129 128 129 130 130 128 122 113 105 97 87 79 79 86 92 97 103 107 105 102 107 117 125 127 127 127 129 132 131 130 130 129 129 129 128 128 127 126 126 126 126 127 127 127 127 128 128 127 127 126 124 123 123 124 125 125 126 129 128 117 102 100 108 111 111 116 122 125 125 124 124 125 124 124 126 127 126 126 126 126 126 126 127 127 127 127 128 127 127 126 126 125 125 126 126 126 127 127 127 127 127 127 127 127 127 127 127 127 127 127 127 127 127 127 127 127 127 127 127 127 127 127 127 127 127 127 127 127 127 128 127 127 127 127 127 127 128 128 127 127 127 126 125 126 127 127 127 128 128 127 126 126 127 128 128 129 128 128 128 128 129 129 128 127 126 125 126 128 129
128 129 129 129 129 128 127 127 126 127 127 128 128 127 126 126 128 130 131 129 124 121 120 119 117 115 117 119 120 120 120 118 117 117 117 117 115 114 113 113 113 114 117 120 121 121 123 125 126 126 127 127 126 126 126 127 126 126 127 127 127 127 127 127 126 126 125 125 127 128 128 128 128 127 127 127 128 128 128 130 131 130 128 127 128 130 129 129 128 123 116 107 98 87 81 81 86 88 88 91 102 116 125 128 128 126 126 127 128 129 128 128 128 128 128 128 128 127 126 125 125 126 127 127 127 127 128 128 127 126 126 126 125 125 124 124 125 125 120 108 97 99 107 110 112 117 122 125 125 124 124 124 125 125 126 126 127 127 126 126 126 127 127 127 127 127 127 127 127 127 126 126 126 126 126 126 126 126 127 127 128 128 127 127 127 128 128 127 127 127 127 127 128 128 128 127 127 127 127 127 127 127 127 127 127 127 127 127 127 127 127 127 128 127 127 127 127 127 127 128 128 128 127 127 127 128 127 126 126 128 128 127 127 129 130 129 129 130 130 130 129 129 129 130 129 128 127 126 126 127
128 128 128 128 127 126 125 125 126 128 128 128 128 128 127 128 130 129 125 121 120 119 120 121 121 121 123 124 125 126 126 124 122 121 121 120 120 121 121 121 122 123 124 126 126 124 124 126 126 127 127 127 127 127 128 128 127 126 126 126 126 126 126 126 126 126 126 127 127 128 129 128 128 129 129 128 128 128 128 128 131 132 129 127 126 125 125 126 127 127 125 122 116 108 99 93 90 87 84 90 103 115 120 121 121 122 123 122 122 124 126 127 127 127 127 127 127 126 126 125 126 126 126 126 127 127 128 128 128 127 127 127 127 127 127 128 128 121 104 89 89 101 110 114 118 123 124 123 124 125 126 126 126 126 126 125 125 126 127 127 127 127 127 127 127 127 127 127 127 126 126 126 126 126 126 126 126 126 127 127 128 128 128 128 128 128 128 128 128 128 128 127 127 127 128 127 127 127 127 127 127 127 127 127 127 127 127 127 127 127 127 127 127 127 127 127 127 127 127 127 128 128 128 128 128 127 127 126 126 128 129 130 130 130 130 130 130 130 131 130 128 127 127 127 128 128 129 128 127 126
127 126 126 125 124 123 124 126 128 128 127 126 126 127 129 132 133 128 122 121 123 124 123 123 123 124 125 127 129 128 126 124 123 122 121 122 123 124 124 124 124 125 125 124 123 124 126 126 126 126 125 126 127 128 128 128 128 127 126 126 126 126 126 126 126 126 128 128 128 128 128 128 128 129 129 129 129 128 128 128 129 129 129 130 128 125 123 125 126 127 128 128 128 126 121 114 108 104 102 104 108 111 110 107 106 105 106 107 107 111 116 118 121 124 125 125 125 124 123 124 126 126 126 126 126 126 127 127 127 126 125 125 125 125 126 124 115 101 93 94 101 109 116 122 124 124 125 125 126 128 128 128 127 126 126 126 125 126 127 127 127 127 127 127 127 127 127 126 126 126 127 127 127 127 127 127 127 127 127 128 127 127 127 127 128 128 128 128 128 128 127 127 127 127 127 127 127 127 127 127 127 127 127 127 127 127 127 127 127 127 127 127 127 127 127 127 127 127 127 127 127 128 129 128 127 127 127 127 126 126 128 131 131 128 127 127 128 128 127 127 127 127 127 127 127 127 128 129 128 127
125 124 125 124 122 122 123 126 128 127 126 125 125 126 130 133 131 127 124 123 124 125 125 124 124 124 126 127 129 127 125 123 122 122 124 125 125 124 124 124 125 126 125 123 122 125 127 127 126 126 125 126 127 127 126 127 128 128 127 126 127 127 127 126 126 127 128 129 129 129 128 127 128 129 129 129 130 130 130 128 126 127 130 131 131 131 128 125 125 126 128 129 129 129 129 128 126 123 121 120 119 115 108 101 95 90 85 82 78 78 81 87 93 99 102 106 109 112 115 119 122 124 125 125 124 124 123 123 123 123 122 121 120 120 116 105 92 86 93 103 109 115 121 123 124 126 127 128 128 128 128 127 127 126 126 127 127 128 129 129 128 127 127 126 126 126 126 126 126 126 127 127 127 127 127 128 128 128 128 128 127 127 127 127 127 127 127 128 128 128 127 127 127 127 127 127 127 127 127 127 127 127 127 127 127 127 127 127 127 127 127 128 128 128 127 127 127 127 127 127 127 127 127 127 126 126 126 127 126 125 127 129 128 126 126 126 127 127 126 127 128 129 128 128 128 127 127 126 126 127
125 125 126 125 125 125 126 127 127 127 127 127 127 128 130 130 127 126 126 126 125 124 125 125 125 126 127 127 126 126 125 124 124 125 127 128 127 125 125 125 126 127 126 125 124 125 125 126 126 127 127 127 128 127 126 126 127 128 127 126 126 126 126 125 126 126 126 127 128 128 128 128 129 130 129 129 130 131 130 127 126 128 129 129 130 132 132 130 127 126 126 127 128 127 126 127 129 130 130 128 127 125 120 114 107 99 92 83 75 72 71 72 72 72 73 76 80 85 94 100 104 110 115 116 117 117 116 117 118 119 118 116 116 111 99 89 89 96 105 111 117 122 124 124 126 128 128 127 127 126 126 126 126 127 127 127 127 128 128 128 127 126 126 126 127 126 126 126 127 127 127 128 128 128 128 128 128 129 128 128 127 127 127 127 127 127 127 128 128 128 127 127 127 127 127 127 127 127 127 127 127 127 127 127 127 127 127 127 127 127 127 128 128 128 128 127 127 127 127 127 127 126 125 126 126 126 126 126 127 127 127 127 127 127 127 126 126 127 126 127 127 127 127 127 127 126 126 126 127 128
127 128 128 129 129 128 127 126 126 127 127 127 127 128 128 127 127 128 129 128 127 126 126 127 127 127 126 126 126 125 126 128 129 128 128 129 128 127 127 126 125 125 124 124 125 125 125 126 127 128 128 128 128 128 128 128 127 126 127 127 127 126 126 125 126 126 125 126 127 128 128 129 130 130 130 129 128 127 126 125 125 127 127 128 128 128 131 134 135 134 131 128 126 125 124 125 126 128 129 129 129 130 129 129 126 122 116 111 106 101 95 89 83 78 76 75 73 73 75 76 75 74 75 79 88 94 94 96 101 103 102 101 99 94 89 91 99 108 115 120 122 123 125 127 128 128 127 126 125 124 124 125 127 127 127 127 127 126 125 125 126 126 126 126 127 127 127 127 127 127 127 128 128 129 129 128 128 128 128 128 127 128 129 128 127 127 127 127 127 127 127 127 127 127 127 127 127 127 127 127 127 127 127 127 128 128 127 127 127 127 127 127 127 128 128 128 127 127 127 127 127 127 126 126 127 127 127 127 127 126 124 123 124 126 127 127 127 127 127 126 126 126 126 126 126 127 128 129 130 130
128 128 128 129 129 128 127 125 125 127 128 127 127 127 127 127 128 130 131 130 129 128 127 127 127 127 126 126 126 126 128 131 132 131 130 128 128 129 128 128 127 124 123 124 125 126 126 127 128 129 128 128 128 128 128 127 126 126 127 128 129 128 127 127 127 127 127 127 128 128 129 130 130 129 128 128 126 124 123 124 125 125 126 128 127 126 126 129 133 135 134 131 128 127 126 125 124 125 126 127 127 127 128 130 131 131 130 128 126 122 117 113 110 106 104 101 98 93 86 79 74 67 61 61 66 70 71 70 72 75 78 82 83 85 92 100 107 115 120 123 124 125 127 128 127 127 126 126 126 126 127 128 129 128 127 127 126 126 126 126 126 126 127 127 127 127 127 127 127 127 128 128 129 129 129 128 128 128 128 127 127 128 128 128 127 127 127 127 127 127 127 127 127 127 127 127 127 127 127 127 127 127 127 127 127 128 128 128 128 127 127 127 127 128 128 128 127 127 127 127 127 127 127 127 128 128 128 127 126 125 123 122 123 124 125 126 126 126 127 128 128 127 126 126 126 128 129 129 130 129
127 127 126 126 128 128 128 127 126 127 128 128 128 126 124 122 124 128 133 134 133 132 130 129 128 128 127 126 126 127 130 132 133 133 132 129 129 130 131 131 130 128 126 126 126 127 127 128 128 128 128 127 127 127 126 126 127 127 128 128 128 128 127 127 128 129 130 129 128 129 130 130 129 127 128 128 127 125 124 125 126 125 126 127 126 124 124 124 124 126 128 130 131 130 129 128 127 127 127 127 126 126 127 128 129 129 129 130 130 130 130 130 130 129 127 125 122 119 115 110 108 105 101 96 87 82 83 81 76 77 81 87 92 99 106 113 119 123 124 126 127 127 127 126 126 126 126 127 128 129 129 129 127 127 126 126 126 126 126 126 126 127 127 127 127 127 127 128 128 128 128 128 129 129 129 129 128 128 127 127 127 127 126 127 127 128 128 127 127 127 127 127 127 127 127 127 127 127 127 127 127 127 127 127 127 127 127 127 127 127 127 127 127 127 127 127 127 127 127 127 127 127 127 127 128 128 128 126 126 126 126 126 125 124 123 124 124 124 125 127 127 126 126 126 127 127 127 127 126 126
123 123 125 126 127 129 129 129 127 126 126 127 127 125 122 118 118 121 126 131 134 136 135 134 133 133 132 130 129 131 132 134 135 134 131 128 128 128 129 129 128 126 126 127 128 129 129 128 127 126 126 126 126 126 127 128 129 128 128 127 126 126 127 127 128 129 130 129 128 129 130 129 127 126 127 127 127 127 126 126 127 127 126 124 124 124 125 125 124 122 123 126 128 128 129 130 132 133 132 130 130 129 127 126 126 127 128 129 129 129 128 129 131 131 130 130 130 131 130 129 128 128 128 124 119 115 115 115 112 110 110 111 113 117 121 125 127 126 127 128 128 127 126 125 125 126 128 129 129 129 128 126 125 125 125 125 126 126 126 127 127 127 127 127 127 127 128 128 128 128 128 128 129 130 130 130 129 128 127 127 127 127 126 127 128 129 129 128 127 127 127 127 127 127 127 127 127 127 127 127 127 127 127 127 127 127 127 127 127 127 127 127 127 127 127 127 127 127 127 127 127 127 128 127 127 127 126 126 126 126 126 126 126 125 125 124 123 123 123 124 124 126 126 127 128 128 128 128 126 126
122 121 122 125 127 129 130 130 129 127 125 125 126 127 126 124 121 120 120 122 125 128 131 133 135 137 138 138 138 138 137 136 136 135 133 132 131 130 129 127 126 125 126 127 127 128 129 128 127 126 126 127 127 127 127 127 128 128 127 126 125 126 127 127 127 127 127 128 128 129 128 127 127 126 125 125 126 126 127 129 130 128 127 124 124 125 128 129 127 125 124 125 126 127 128 129 130 130 131 132 134 133 130 129 128 127 127 126 126 126 126 125 125 126 126 126 127 128 129 129 129 129 129 130 129 128 128 128 129 128 128 127 126 126 126 127 127 128 129 128 127 126 125 125 127 128 128 128 127 125 124 124 124 125 125 125 126 126 127 127 128 128 128 127 127 127 128 128 128 128 128 128 129 129 129 129 129 127 127 127 127 127 127 128 129 129 128 127 127 127 127 127 127 127 127 127 127 128 127 127 127 127 127 127 127 127 127 127 127 127 127 127 127 127 127 127 127 127 127 127 127 127 127 127 126 126 126 126 126 126 126 127 128 127 126 126 125 125 124 123 124 125 126 126 127 128 129 128 126 125
126 123 122 123 126 128 129 130 130 129 128 127 128 130 132 132 132 129 125 123 122 122 124 127 129 131 132 134 135 135 135 134 134 136 140 144 146 147 146 142 136 130 128 127 127 126 127 127 127 127 127 127 127 126 125 125 126 126 126 126 126 126 127 127 127 126 127 128 129 129 128 127 128 127 126 126 127 127 128 129 129 128 127 126 126 127 128 129 129 128 127 126 126 128 129 128 127 126 126 129 131 132 132 132 132 130 128 126 126 126 126 125 124 124 125 125 125 125 125 126 126 127 127 127 126 125 125 125 125 127 127 127 126 126 126 127 128 128 127 126 126 125 126 127 128 128 127 126 125 124 124 124 125 126 126 127 127 127 127 127 128 127 127 127 127 127 127 128 128 128 127 127 127 127 127 127 127 126 126 127 127 127 127 127 127 126 126 126 127 127 127 127 127 127 127 127 127 127 127 127 126 127 127 127 127 127 127 127 127 127 127 127 128 127 127 127 127 127 127 127 127 127 127 127 127 127 128 128 128 127 128 128 128 128 128 128 128 128 127 126 126 126 126 124 124 124 125 126 127 127
128 127 125 123 124 126 128 128 129 129 129 129 131 133 133 133 134 133 132 131 130 128 127 126 125 124 125 125 125 124 125 126 127 129 133 137 141 143 144 142 136 130 128 128 127 127 126 126 127 127 127 127 127 126 126 126 125 126 126 126 126 126 127 127 127 127 127 127 128 129 128 129 129 127 126 127 127 127 127 127 126 126 126 127 128 129 128 128 127 127 126 125 125 126 127 128 128 127 126 126 126 127 129 130 131 130 130 129 128 128 129 130 128 127 127 128 126 124 124 125 126 126 125 125 125 126 126 125 124 124 125 126 126 126 127 128 128 126 125 125 126 126 127 128 128 126 125 125 124 125 125 126 127 128 128 128 128 128 127 127 127 127 127 127 128 128 127 127 127 127 127 127 126 127 128 127 126 126 127 127 128 127 127 127 127 127 127 127 127 127 127 127 126 126 127 127 127 127 127 127 126 127 127 127 126 126 127 127 127 127 127 128 128 128 128 127 127 127 127 127 127 127 127 128 128 128 128 128 128 128 127 127 128 129 129 130 130 129 129 128 128 128 127 126 125 123 122 122 125 127
129 129 127 125 124 125 125 124 124 125 125 125 126 126 127 126 127 129 132 134 133 132 132 131 131 129 126 124 123 123 123 123 122 121 121 120 119 119 120 120 121 124 126 127 127 127 126 126 126 128 128 126 125 125 126 127 127 126 126 127 127 127 127 128 128 128 127 127 128 127 126 128 128 126 125 125 124 126 127 126 126 127 127 127 127 127 125 123 123 124 125 125 125 126 126 127 127 127 127 127 127 127 127 127 127 128 128 128 128 128 129 130 130 130 131 131 129 128 128 128 127 127 128 129 130 129 127 127 126 125 124 126 128 129 129 127 126 126 126 126 126 127 128 128 126 125 125 125 125 126 126 127 128 128 129 129 128 128 128 127 127 127 127 128 128 128 128 127 127 127 127 127 128 128 128 127 126 126 127 127 127 127 128 127 127 127 127 127 127 127 127 127 127 127 128 128 128 128 127 127 128 128 128 127 127 127 127 127 127 127 128 128 128 128 128 128 127 127 127 127 127 126 126 127 127 127 127 126 127 127 127 127 128 128 128 128 128 128 128 128 128 128 128 127 127 126 124 123 123 124
129 129 129 128 126 124 123 123 123 124 124 123 121 120 120 120 122 123 123 124 125 127 128 130 131 129 127 126 126 125 125 124 123 122 121 120 119 119 118 116 118 124 126 127 128 127 126 126 127 128 128 126 125 125 126 127 127 127 127 127 127 128 128 128 128 128 128 128 127 126 126 126 126 125 125 125 125 126 127 127 127 126 126 126 126 125 123 121 121 122 123 125 125 126 127 128 129 128 127 128 129 129 129 129 128 128 128 127 128 128 129 128 128 129 128 128 128 129 129 129 128 129 130 130 130 127 125 126 126 126 126 127 128 128 127 126 126 127 127 128 128 128 127 126 125 125 125 126 126 126 127 127 128 128 128 128 128 128 128 127 127 127 128 128 128 128 128 128 127 127 128 128 128 128 127 126 126 127 127 127 127 127 127 128 128 127 127 127 127 127 128 128 128 129 129 130 129 128 128 129 130 130 129 128 128 127 127 127 127 128 128 128 128 128 128 128 127 127 127 127 127 126 126 125 126 126 127 127 127 127 127 127 128 129 129 128 127 128 128 128 127 127 128 128 128 128 127 127 125 124
128 128 129 128 126 124 123 125 126 126 126 125 124 122 121 121 121 120 118 118 119 121 121 121 121 122 123 124 123 122 121 121 120 120 119 119 119 118 117 118 121 125 127 128 128 127 127 127 127 126 126 126 127 127 127 127 127 127 128 128 128 128 128 129 128 128 127 126 126 126 127 125 123 124 125 126 127 128 127 126 125 124 124 125 126 126 126 124 123 123 124 125 126 126 128 130 131 130 128 128 127 126 128 129 129 128 128 128 129 129 129 129 128 127 126 125 126 127 127 127 127 125 124 125 125 124 125 125 126 126 127 127 127 126 126 126 127 127 128 128 128 127 126 126 126 126 125 126 126 126 126 127 127 127 127 127 127 127 128 128 128 128 128 128 128 128 128 128 128 128 129 129 128 127 126 126 127 127 127 127 127 127 127 127 127 126 127 128 128 129 130 131 131 131 130 130 129 128 128 129 129 129 129 128 128 128 127 127 128 129 130 130 129 128 127 127 127 127 127 127 127 126 126 126 125 126 127 128 127 127 126 126 127 129 130 130 128 128 128 128 128 128 128 129 129 128 128 128 127 126
127 127 127 126 126 126 126 126 126 125 126 126 126 125 125 124 123 121 120 122 123 123 122 121 120 120 122 121 120 119 118 118 118 117 116 116 115 114 114 118 123 125 127 127 127 127 127 127 127 126 126 126 127 127 128 128 127 127 128 128 128 128 129 128 128 127 127 126 126 125 126 125 124 125 126 127 128 128 127 126 125 124 125 127 127 127 127 127 126 125 125 125 125 126 127 126 126 128 128 127 125 124 124 124 125 126 126 127 127 126 126 127 127 127 127 126 126 126 127 127 126 125 124 123 123 125 126 126 126 127 128 127 126 126 126 127 128 128 127 127 127 127 126 126 126 126 127 126 126 126 126 126 127 127 127 127 127 127 127 127 127 127 127 127 127 127 127 127 128 128 129 129 128 127 126 126 128 128 127 127 127 127 127 127 126 127 128 129 130 130 131 131 130 130 128 127 128 128 128 128 128 127 127 128 128 128 128 128 128 129 130 129 128 127 127 127 127 127 127 126 126 126 126 126 126 125 125 125 126 126 126 125 125 126 128 128 128 128 129 129 128 128 128 129 128 128 128 127 127 127
127 128 127 127 127 127 126 125 124 125 126 127 127 126 125 125 126 126 126 125 125 124 124 123 123 123 122 121 120 120 121 121 122 122 122 122 122 123 124 125 126 126 126 125 125 126 127 127 127 127 127 127 127 127 127 128 128 128 127 127 127 127 127 127 127 126 126 127 127 126 125 126 127 128 128 127 128 127 126 126 126 126 127 128 128 127 127 127 127 127 126 126 125 125 125 123 123 123 123 123 124 126 126 123 122 123 125 126 125 124 123 125 127 127 127 127 127 126 127 128 127 127 126 124 124 125 127 127 127 127 127 127 127 128 128 128 127 127 126 125 125 125 126 126 126 126 127 127 127 127 127 127 127 127 127 127 127 127 127 127 127 127 127 127 128 127 127 127 127 127 127 127 127 127 127 127 128 128 128 127 127 127 127 127 127 128 130 131 133 132 129 128 127 127 126 126 127 128 128 128 127 126 126 127 128 128 129 129 129 128 127 126 126 126 127 127 127 127 127 126 126 126 126 126 126 125 124 125 126 126 126 125 125 125 127 128 129 129 129 129 128 128 128 128 128 129 128 128 127 127
127 127 127 127 127 126 125 125 125 126 127 127 127 126 126 126 127 128 128 127 125 124 123 122 122 122 122 124 125 124 124 124 125 126 126 127 127 128 128 128 127 127 126 126 126 126 127 127 126 126 127 127 127 127 127 128 128 128 127 127 126 126 126 126 126 126 126 127 127 126 125 125 126 128 128 128 127 126 125 124 124 126 127 127 126 126 126 127 127 127 127 126 125 125 125 125 124 123 123 123 125 127 127 125 124 124 126 126 125 125 125 125 126 125 125 127 127 126 126 126 125 125 124 125 125 126 128 128 128 127 127 128 128 129 128 127 126 126 126 125 125 125 126 126 126 127 127 128 128 128 128 128 127 127 127 127 127 127 127 127 127 127 127 128 128 127 127 127 127 128 127 126 126 127 127 127 126 127 128 127 127 127 128 128 128 129 131 131 130 128 127 127 127 127 127 127 128 128 128 128 127 127 127 127 128 130 130 130 129 128 126 125 125 126 127 127 127 127 127 126 126 126 126 126 126 126 126 126 126 126 126 126 126 126 128 129 130 130 130 129 129 129 128 128 129 129 128 127 128 128
127 126 126 126 126 126 126 128 128 128 127 126 126 127 127 128 127 127 127 127 126 125 125 126 125 125 125 126 127 127 126 126 126 126 127 127 127 127 127 127 127 127 127 127 127 127 127 127 127 127 127 127 127 127 127 127 127 128 128 127 127 126 126 126 126 126 127 127 127 127 127 127 126 127 128 128 127 125 125 125 126 127 127 127 127 127 126 126 126 126 127 127 126 126 126 127 126 125 126 127 127 127 127 127 128 127 126 125 125 126 126 125 124 124 125 126 127 127 126 124 123 124 125 126 127 128 128 128 128 127 127 129 129 127 126 125 125 125 126 126 127 127 127 127 127 127 128 128 128 128 128 128 128 127 127 128 128 127 127 127 128 128 128 128 127 127 127 127 127 128 128 127 127 127 127 127 127 127 128 128 128 128 129 130 131 131 129 126 124 124 126 127 127 127 128 129 129 129 129 129 129 129 128 127 127 128 128 128 128 127 126 126 126 126 127 127 127 127 127 126 126 126 126 126 126 126 126 126 126 126 127 127 126 126 127 128 129 129 131 131 130 130 130 130 130 129 126 125 126 127
127 126 125 125 125 126 127 128 128 127 126 125 125 126 127 127 126 125 124 124 126 127 128 128 128 128 127 126 126 126 126 126 126 126 126 125 125 126 125 126 127 127 127 127 127 127 127 127 127 127 128 127 127 127 127 126 126 126 127 127 127 127 127 127 126 126 127 127 127 128 128 128 128 127 126 126 125 124 125 126 128 127 127 128 128 127 126 125 125 125 126 126 126 126 127 128 128 128 129 129 127 127 127 128 128 127 127 126 126 127 127 126 125 124 126 126 125 125 125 125 125 125 126 127 129 129 127 126 126 127 128 127 126 124 124 125 125 126 126 127 127 127 127 127 127 127 127 127 127 128 128 127 127 127 127 128 128 128 128 128 128 128 128 128 127 127 127 127 126 126 126 126 126 126 127 128 129 129 129 129 129 129 130 131 130 128 126 124 124 126 127 128 127 128 128 128 128 128 128 128 128 129 128 128 127 126 125 126 126 126 126 126 126 126 126 126 127 127 127 127 127 126 126 126 126 126 126 126 126 126 127 127 127 125 125 127 128 129 129 130 130 131 131 132 132 129 125 124 125 126
127 127 126 126 127 127 128 128 127 125 125 125 126 126 126 126 125 124 124 124 125 127 128 127 128 128 128 128 127 127 127 126 126 126 125 125 125 125 125 125 126 127 127 127 127 128 128 128 128 128 128 128 128 127 127 126 126 126 127 128 128 128 128 128 127 127 127 127 127 127 127 126 126 125 125 125 125 125 126 126 126 126 126 127 127 125 125 126 127 126 126 126 126 126 127 128 129 129 129 128 127 126 127 128 127 127 127 127 126 126 127 126 124 125 127 125 124 125 125 125 125 126 126 127 128 128 126 126 126 128 128 126 125 125 126 126 126 126 127 127 127 127 127 127 127 127 127 127 127 127 127 127 127 127 128 128 128 128 127 127 127 128 127 127 127 127 127 127 127 126 125 125 125 125 127 128 128 128 128 128 129 130 130 129 126 125 125 126 127 127 128 128 128 127 127 127 126 126 126 126 127 127 128 128 127 127 126 126 125 125 126 126 126 126 126 126 126 127 127 127 127 127 127 127 126 126 126 126 126 126 127 127 126 125 125 127 128 128 128 130 131 131 131 131 130 127 125 125 126 127
128 129 129 128 127 127 127 126 126 126 126 126 127 127 127 126 126 127 127 126 125 125 126 126 127 127 128 128 128 128 128 128 128 128 127 128 128 127 128 127 127 127 128 128 128 128 129 129 129 128 128 128 127 127 127 127 127 127 127 128 128 129 128 127 128 128 128 127 127 127 126 126 126 126 126 125 126 127 127 127 126 125 125 125 125 125 126 127 127 127 126 126 127 127 127 126 126 126 126 125 126 127 127 127 127 126 126 127 126 125 125 124 125 127 127 125 125 126 125 125 126 127 127 127 127 126 126 127 127 126 126 125 125 126 128 128 127 127 126 126 127 127 127 127 127 127 127 126 126 126 127 127 127 127 127 127 128 128 127 127 127 127 127 127 127 127 127 127 127 127 126 125 125 126 126 127 126 126 126 127 128 129 128 126 124 125 127 128 128 128 127 126 126 126 126 126 126 126 126 126 126 127 128 129 128 128 127 127 127 126 125 125 126 126 126 126 127 127 127 128 127 127 127 127 127 127 127 127 127 127 127 127 126 125 125 126 126 126 126 127 128 129 129 128 127 125 126 126 127 127
127 128 129 129 128 128 127 126 126 128 129 128 127 127 127 127 127 128 127 127 126 126 126 127 127 127 127 127 128 128 127 128 128 128 129 129 128 128 127 127 127 128 129 129 129 128 128 128 127 127 127 127 127 127 127 127 127 127 128 128 128 128 127 127 128 128 128 127 126 126 126 125 125 125 126 126 126 127 127 126 126 126 126 125 126 126 127 126 126 126 126 126 126 126 125 124 124 124 124 124 124 125 125 125 125 125 125 126 127 127 126 126 127 128 127 126 127 126 125 126 127 128 128 127 126 126 127 128 127 125 124 125 126 127 128 128 127 126 126 126 126 127 127 127 127 127 127 127 127 127 127 127 127 127 127 127 127 127 127 127 127 127 127 127 127 127 127 127 127 127 127 126 126 126 126 126 126 127 127 128 128 127 125 124 125 127 128 129 128 127 126 126 126 126 126 127 128 128 127 127 127 127 128 128 128 128 129 128 127 126 126 125 126 126 126 126 127 128 128 128 128 128 128 128 128 128 128 127 127 127 127 126 126 125 124 123 124 124 123 123 124 125 126 125 124 125 127 128 128 128
126 126 126 128 128 128 127 127 128 129 129 128 127 126 126 127 127 127 128 128 128 128 128 128 127 127 127 128 129 129 128 128 127 127 127 126 125 124 124 125 126 128 128 128 127 128 127 126 126 126 126 127 127 127 127 127 127 128 128 128 128 126 126 127 127 128 128 127 126 126 125 125 125 125 127 128 128 127 126 125 125 126 127 127 127 127 127 126 126 126 125 125 125 126 126 125 124 124 124 125 124 123 123 123 123 124 125 125 127 127 127 126 126 125 125 126 126 126 126 126 126 126 127 127 127 127 127 127 126 126 126 126 127 126 126 125 126 126 126 126 127 127 127 127 127 127 127 127 127 127 127 127 127 127 127 126 126 126 127 127 127 127 127 127 126 126 126 126 127 127 127 127 127 127 127 127 127 128 128 128 128 127 126 127 127 128 128 127 126 126 126 127 127 127 127 128 128 128 129 129 128 128 128 127 127 128 128 127 126 126 126 126 126 127 127 126 127 127 128 128 128 128 128 128 128 128 128 127 127 127 127 127 126 126 125 123 123 124 123 122 122 124 124 123 124 127 128 129 129 128
126 126 126 127 127 127 127 129 130 130 129 129 128 127 127 127 127 128 128 127 127 127 127 127 127 127 128 129 129 129 129 128 127 127 126 125 123 123 124 126 127 128 127 126 126 126 125 125 125 126 126 127 127 127 127 127 127 127 128 128 127 126 126 127 127 127 127 127 127 127 127 127 127 127 128 128 128 127 127 126 126 127 127 127 126 126 127 127 126 126 125 125 126 127 127 127 126 125 125 125 125 124 124 123 124 125 125 124 125 126 126 125 125 125 124 125 126 126 126 127 128 127 127 127 127 127 126 125 126 127 129 129 128 126 125 125 126 126 126 126 126 127 127 127 127 126 126 127 127 126 126 126 126 126 126 126 126 126 126 126 127 127 127 126 126 126 126 127 127 127 127 127 127 127 127 128 128 129 128 127 127 127 128 129 129 128 126 125 125 126 127 128 128 127 127 127 128 129 129 129 128 128 128 128 128 127 125 125 125 125 126 126 127 127 127 127 127 127 127 128 128 128 128 128 128 128 127 127 127 126 126 127 127 127 126 125 124 124 124 123 122 122 122 122 124 127 128 129 128 128
126 127 128 127 127 127 128 130 132 132 131 131 132 132 131 131 131 130 130 128 128 127 127 127 127 128 129 128 127 127 127 127 127 127 126 125 125 125 126 127 128 127 127 126 126 125 125 126 127 127 127 127 127 127 127 126 126 126 126 126 127 128 128 127 126 126 127 127 127 126 127 128 128 127 127 126 127 127 126 126 127 128 128 126 125 125 126 126 126 125 126 126 127 127 127 128 127 126 125 125 124 124 124 125 126 126 126 126 126 126 126 126 127 126 125 125 125 126 127 127 128 128 127 127 126 126 126 126 128 129 130 129 129 127 126 126 126 126 127 127 127 127 126 126 126 127 127 127 127 127 127 126 126 126 126 126 126 126 127 127 127 127 127 126 126 127 127 127 127 126 126 127 127 128 128 129 129 129 128 127 127 127 128 129 128 126 125 126 127 127 127 128 128 128 128 128 129 129 128 127 127 127 127 127 126 126 125 125 125 125 126 127 127 127 127 127 126 126 127 127 128 128 128 128 127 127 127 126 126 126 127 127 127 127 127 126 125 125 125 125 125 124 124 124 125 126 127 128 127 127
127 127 127 127 126 127 130 133 134 134 133 134 136 137 135 135 135 134 133 132 132 131 131 131 131 131 129 128 128 128 129 129 128 127 126 126 126 126 126 126 126 127 127 127 126 126 126 127 129 129 129 128 127 127 127 127 127 126 126 127 128 128 127 126 126 126 126 126 126 126 126 126 127 127 126 126 126 126 126 127 127 128 128 127 127 127 127 126 126 126 127 127 128 127 126 126 126 127 126 126 126 126 125 126 126 126 126 126 127 126 126 126 126 126 126 125 126 126 126 126 126 126 126 127 127 127 127 129 129 128 128 127 127 127 127 126 126 127 127 127 127 127 127 127 127 127 127 127 127 127 127 127 127 126 126 127 127 127 127 127 127 127 127 126 126 127 127 127 126 126 126 127 128 129 129 128 128 127 127 127 128 128 128 127 127 127 127 128 128 128 128 128 128 128 128 128 127 126 126 126 126 126 127 126 125 125 125 125 125 126 126 127 127 127 127 127 126 126 126 127 127 128 128 128 127 126 126 126 126 127 127 127 127 127 126 126 126 126 127 128 128 128 127 127 128 128 128 127 127 127
127 126 126 126 126 128 132 134 133 131 131 131 133 134 133 132 132 132 132 133 133 133 134 135 137 136 134 134 134 133 134 134 133 131 128 127 127 127 126 125 125 125 126 126 126 127 127 128 129 130 129 128 128 128 128 128 128 128 127 127 127 126 126 127 127 126 126 126 126 126 125 126 127 128 127 126 125 126 126 127 127 126 126 127 127 126 126 126 126 127 128 128 128 128 127 126 125 126 127 127 127 126 126 126 126 126 126 126 126 126 126 126 126 126 126 126 127 127 126 126 125 125 126 127 128 128 129 129 128 127 125 125 125 126 127 127 127 127 127 127 127 127 127 127 128 128 128 128 128 128 128 128 128 127 127 127 127 127 127 127 127 127 126 126 126 127 126 126 126 126 127 127 128 128 127 126 126 126 127 127 128 127 127 127 127 127 128 128 128 128 128 128 127 126 126 126 126 126 126 126 126 126 126 126 125 125 126 127 127 127 127 127 127 127 127 126 126 125 126 126 127 127 128 128 127 127 126 126 127 128 128 127 127 127 126 126 126 127 128 128 129 129 129 129 130 129 128 128 128 127
127 127 126 127 129 133 135 133 131 130 131 130 129 127 127 127 127 127 127 128 128 130 131 133 134 134 135 136 136 136 134 134 134 133 130 129 128 128 127 126 126 125 125 126 127 127 128 129 129 127 127 128 129 129 129 129 129 128 128 127 127 127 127 127 128 127 126 126 127 127 126 126 126 127 127 127 126 126 126 126 126 126 126 126 126 126 126 127 128 128 129 129 129 127 127 127 126 126 127 127 127 127 127 127 127 127 126 126 126 126 127 127 126 126 126 127 127 127 127 126 126 126 126 127 128 129 129 128 126 125 124 125 126 127 127 127 127 127 127 127 127 127 127 128 127 127 127 128 128 128 128 128 128 128 128 128 128 128 128 127 127 127 127 126 126 126 126 126 126 127 127 127 127 126 126 125 125 126 127 127 127 127 126 127 127 126 127 128 129 129 128 127 126 125 125 125 125 126 127 127 126 125 124 124 125 126 127 128 128 128 127 127 127 127 127 127 126 126 126 126 127 127 127 127 127 127 128 128 128 128 127 127 127 126 126 126 126 127 128 128 128 129 130 130 129 128 127 127 127 127
127 128 129 129 131 135 134 131 130 131 132 131 128 128 129 130 129 128 128 127 127 128 129 128 127 128 129 129 129 129 129 129 129 129 129 128 128 128 129 128 127 127 127 127 127 128 128 127 127 127 126 127 128 129 129 128 128 128 128 128 127 127 127 127 128 128 127 126 127 127 127 126 125 125 126 126 126 126 126 126 126 127 127 127 127 127 128 128 129 129 129 129 128 127 126 126 127 128 127 127 127 127 127 127 127 127 127 127 127 126 126 126 126 126 126 127 127 128 128 127 127 127 127 128 128 128 127 126 126 125 126 126 127 127 127 128 127 127 127 127 127 127 127 127 127 127 127 127 128 128 128 127 127 127 127 127 127 128 127 127 127 127 127 127 126 126 126 127 127 127 127 127 128 127 127 126 125 126 127 127 127 126 126 126 126 127 127 127 128 127 126 125 125 126 126 126 125 125 125 124 124 124 123 124 125 126 127 128 128 128 127 127 127 127 128 128 127 127 126 127 127 127 127 127 127 128 128 129 128 127 127 127 127 126 126 126 126 127 128 128 127 128 129 128 127 127 127 126 126 127
127 128 128 129 131 132 130 128 128 128 129 130 131 132 134 133 132 132 132 132 132 131 129 128 126 127 129 129 127 126 126 126 127 127 127 127 127 128 128 127 127 127 127 127 127 127 127 126 126 127 127 127 127 127 127 127 126 127 127 127 126 127 127 127 127 127 127 127 127 126 127 128 127 126 126 126 126 126 126 127 128 128 128 127 127 127 128 128 128 127 127 127 127 126 126 126 127 128 127 126 126 126 126 126 126 126 127 127 126 126 126 125 125 126 127 127 127 128 128 128 128 128 129 129 128 127 126 125 125 126 127 127 127 127 127 128 128 128 127 127 127 127 127 127 127 127 127 127 127 128 128 128 127 127 127 127 127 127 127 127 127 127 127 127 127 127 126 127 127 127 128 128 129 128 127 126 126 127 127 127 126 126 126 126 127 127 126 126 125 125 126 126 126 127 128 128 126 124 124 124 124 125 125 125 126 127 127 127 127 127 127 127 127 127 128 128 128 127 127 127 127 128 128 128 128 128 128 128 128 127 127 127 127 127 127 126 126 126 127 128 128 128 127 126 126 128 129 128 127 127
128 127 127 130 132 131 129 127 127 128 129 131 133 133 132 131 132 133 133 134 134 133 131 129 129 130 131 131 130 129 129 128 127 126 126 127 127 126 125 126 127 128 128 127 127 127 127 127 126 126 126 127 127 127 127 127 126 126 126 127 127 127 127 127 126 126 126 126 126 127 129 129 129 128 127 127 127 127 127 127 127 128 127 127 126 127 127 126 126 126 127 128 127 127 126 127 127 127 127 127 127 127 126 126 126 126 126 126 126 126 126 126 126 127 128 128 127 127 128 129 129 129 129 128 127 126 125 125 126 127 127 127 127 127 127 127 128 128 128 127 128 128 128 127 127 127 127 127 127 127 127 127 127 127 127 127 127 127 127 127 127 127 127 127 127 127 127 127 127 128 128 128 127 126 127 128 128 128 127 127 127 127 127 127 127 127 126 126 126 126 127 127 127 127 127 126 125 125 124 124 124 125 125 126 127 127 127 127 127 127 127 126 126 127 127 128 127 127 127 127 127 127 128 128 128 128 128 127 127 126 126 127 127 127 127 127 126 126 128 130 130 128 127 126 127 130 132 132 130 128
128 128 129 133 134 132 130 129 128 129 129 129 129 128 127 128 129 130 130 131 132 132 132 131 130 130 130 129 130 132 132 130 128 126 127 127 126 125 125 126 127 127 127 127 127 127 127 127 127 126 126 127 127 128 128 127 126 126 126 127 127 127 127 127 126 126 126 126 126 127 127 127 127 128 127 127 127 128 127 127 127 126 126 126 126 126 127 127 126 127 128 128 127 127 127 127 127 126 125 126 127 126 126 126 126 126 126 127 127 127 127 127 127 128 128 128 127 126 127 128 128 128 127 126 126 125 126 127 127 128 129 128 127 127 127 127 127 127 128 128 128 128 128 128 127 127 127 127 127 127 127 127 127 127 127 127 127 127 126 126 126 126 127 127 127 128 128 128 127 127 127 127 125 125 127 129 129 128 127 127 127 128 128 128 127 127 127 127 127 127 127 127 127 126 124 124 124 125 124 124 124 125 126 126 127 127 127 127 127 127 127 126 126 126 126 126 126 127 126 126 126 126 127 127 127 127 127 127 126 126 126 127 127 127 127 127 127 126 127 128 129 128 127 128 129 131 134 135 132 128
126 127 131 134 134 132 131 130 129 129 128 126 124 124 125 127 127 127 128 129 129 129 129 130 130 129 127 126 127 129 128 128 128 129 129 127 126 126 126 127 127 127 127 127 128 127 127 126 127 127 127 126 126 126 126 127 127 126 126 127 127 127 127 127 127 127 127 127 127 126 125 125 125 126 127 127 127 127 127 127 127 126 126 126 127 127 127 127 127 128 128 127 127 127 127 127 126 126 125 125 125 125 126 126 126 127 128 127 127 127 127 128 128 128 128 127 127 127 127 128 128 127 126 125 125 126 127 128 128 128 128 128 127 127 127 128 127 127 127 128 128 128 128 128 127 127 128 128 128 127 127 127 127 127 127 127 127 127 127 126 126 126 127 127 127 128 128 127 127 127 127 127 127 127 128 128 128 127 127 126 127 128 129 129 127 126 126 127 127 127 127 127 126 125 125 124 124 125 125 126 126 126 127 127 127 127 126 126 127 127 127 127 126 126 126 126 126 126 126 126 126 126 126 126 126 126 127 127 126 126 127 127 127 127 127 127 127 126 125 125 127 128 128 129 130 130 131 132 131 129
128 130 132 132 130 129 128 128 128 127 126 125 125 126 127 128 127 126 127 128 128 127 126 127 129 129 126 126 125 124 125 126 129 129 127 126 127 127 127 127 127 126 127 127 128 128 127 127 128 128 127 126 126 126 127 127 127 127 126 126 126 126 127 128 128 128 127 127 126 126 126 126 126 126 127 127 127 127 127 127 127 127 127 128 128 127 126 126 126 127 127 127 127 128 127 127 127 127 127 126 126 126 126 126 127 128 128 127 126 126 127 128 129 128 127 127 127 127 128 128 127 125 125 125 125 126 127 129 129 128 127 127 127 127 127 127 127 127 127 128 128 128 127 127 127 127 128 128 128 128 128 127 128 128 128 127 127 127 127 127 127 127 127 127 127 128 127 127 127 128 127 127 127 127 127 127 127 127 128 128 128 127 127 127 127 126 126 126 127 127 127 126 125 125 124 125 125 126 127 128 128 127 127 127 127 126 126 126 127 127 127 127 127 127 127 127 127 127 127 126 126 126 126 127 127 127 127 127 127 127 127 127 127 127 127 127 127 127 126 125 126 127 128 129 128 127 127 128 129 129
130 133 132 129 126 126 127 127 128 127 127 128 129 129 129 128 127 126 126 127 127 127 126 127 129 131 130 129 126 125 127 129 129 126 123 125 127 127 127 127 127 127 127 127 127 127 127 126 126 127 128 127 127 126 126 126 127 127 126 125 125 126 127 127 127 127 127 127 127 127 127 127 127 127 127 127 127 127 127 127 127 127 127 128 127 127 126 126 126 126 127 127 127 128 128 128 128 128 128 128 127 127 127 127 127 127 126 126 126 126 127 128 128 127 127 128 128 128 127 126 125 125 126 126 127 127 128 128 127 126 126 126 127 127 127 127 127 127 127 128 127 127 127 127 127 127 127 128 128 128 128 128 128 128 128 128 127 127 127 127 127 127 127 128 128 128 127 128 128 128 128 127 127 127 127 127 127 127 127 128 128 126 125 125 126 127 126 126 126 125 125 124 125 125 125 126 127 127 128 128 128 128 127 127 127 126 126 127 127 127 128 128 128 128 128 128 128 128 128 127 126 126 127 127 127 127 127 127 127 127 127 127 126 126 127 127 127 127 126 125 126 127 128 128 126 125 126 128 130 131
130 132 130 127 125 125 125 126 126 127 128 129 129 128 127 127 127 127 126 125 125 127 128 129 130 130 130 128 126 125 126 128 126 124 124 125 126 127 127 127 127 127 127 127 127 127 127 127 126 126 127 127 127 126 125 126 127 127 127 127 127 127 128 128 127 127 127 127 127 126 126 126 127 127 127 127 127 127 127 127 127 127 127 126 126 126 126 127 127 127 127 127 127 127 127 127 127 128 128 129 128 127 127 127 127 127 126 126 126 126 126 126 126 127 127 128 128 127 126 125 126 126 127 127 127 128 128 127 126 125 125 126 127 127 127 127 127 127 127 127 127 127 127 127 127 127 127 127 127 127 128 127 127 127 128 127 127 127 127 127 127 127 127 127 127 127 127 128 128 129 128 127 127 127 127 127 128 128 127 127 127 126 126 125 126 127 127 126 125 124 124 125 126 126 127 127 127 127 127 127 127 127 127 127 127 127 127 127 127 127 128 128 128 128 128 128 128 128 128 127 126 126 127 128 128 127 127 127 127 127 127 127 126 127 127 127 127 127 126 126 127 128 128 128 127 126 128 129 130 129
131 132 130 128 126 125 125 125 125 125 125 125 125 124 125 126 127 127 126 125 125 126 128 128 126 124 124 124 125 126 127 126 123 122 124 126 127 127 128 127 127 127 127 127 127 128 128 129 128 127 126 126 127 127 126 126 127 127 127 128 128 128 128 128 128 128 128 128 127 127 127 127 127 127 126 126 126 127 127 127 127 126 126 125 125 125 126 127 128 127 127 126 126 126 126 127 126 126 126 127 127 127 127 127 128 128 127 127 127 128 128 127 127 127 127 128 127 127 128 128 127 127 127 128 128 128 128 127 126 126 126 127 127 127 127 127 127 127 127 127 127 127 127 127 127 127 127 127 127 127 127 127 127 127 127 127 127 127 127 127 127 127 127 127 126 127 127 127 128 128 128 128 127 127 126 126 126 127 127 126 126 127 127 127 127 128 129 127 125 125 126 126 127 128 128 128 128 127 127 127 127 127 127 127 127 128 128 127 127 127 127 128 128 128 128 128 127 127 127 127 127 127 127 128 128 128 127 127 127 128 127 126 126 127 127 127 127 127 126 127 128 129 128 128 128 128 128 129 128 127
131 131 128 127 127 126 126 126 125 123 122 123 123 124 126 127 127 126 126 127 127 127 127 126 124 122 121 122 125 126 126 122 119 121 125 126 127 127 127 128 127 127 127 128 129 129 129 129 129 128 127 127 127 127 127 127 127 127 128 129 129 128 127 128 127 127 127 128 128 128 128 127 127 127 126 126 126 126 127 127 127 126 126 126 125 126 127 127 127 128 127 127 126 126 126 126 126 125 125 126 127 127 127 128 128 128 127 127 128 129 129 128 127 127 127 127 127 127 128 127 127 127 127 128 128 128 127 126 126 127 127 127 127 127 127 127 128 128 127 127 127 127 127 127 127 127 127 127 127 126 126 127 127 127 127 127 127 127 127 127 127 127 127 126 126 127 127 127 127 126 127 128 128 128 127 125 125 126 126 126 126 127 128 128 128 128 127 126 126 126 127 127 128 128 128 128 128 127 127 127 127 127 127 127 128 128 128 127 127 126 127 128 128 128 128 127 127 127 127 127 127 127 127 128 128 128 127 127 127 127 127 127 127 127 127 127 127 126 125 125 125 126 126 127 129 129 128 126 126 127
128 127 127 126 125 125 125 125 125 125 124 125 126 126 126 125 124 124 124 126 127 127 126 125 125 122 120 121 121 121 119 117 118 123 127 128 128 128 127 127 127 127 128 129 129 129 129 128 128 127 127 127 127 127 127 127 127 127 128 128 128 127 127 127 127 127 127 128 129 129 129 128 128 127 127 127 127 127 127 127 126 126 126 126 127 127 128 128 128 128 127 127 127 127 127 126 126 126 127 128 128 128 128 128 128 127 127 127 128 128 128 127 127 126 126 126 127 127 127 126 126 126 127 128 128 127 126 126 126 127 127 127 127 127 127 127 127 128 128 127 127 127 127 127 127 127 127 126 126 126 126 127 127 127 127 127 127 127 126 126 126 126 127 127 127 127 127 127 126 126 128 130 130 129 128 127 126 126 126 126 126 125 125 126 126 125 124 124 125 127 127 127 127 127 128 128 127 127 127 127 127 127 127 127 127 127 127 126 126 126 127 127 128 128 128 128 128 128 128 128 127 127 126 127 127 127 127 127 127 127 127 127 127 126 126 126 126 126 125 124 123 124 124 124 125 125 124 123 124 126
125 124 123 122 121 121 121 120 122 123 123 123 123 122 120 119 120 121 120 119 120 120 121 121 121 120 119 119 120 119 117 118 122 125 127 128 129 128 127 127 127 127 128 129 128 128 128 128 128 128 127 127 127 127 127 127 127 127 127 126 126 126 127 127 127 128 128 128 128 129 129 128 127 127 127 127 126 126 126 126 127 126 126 126 127 127 128 128 128 127 126 126 127 128 128 127 127 127 128 128 128 128 128 128 127 127 127 127 126 126 126 127 127 126 127 127 128 127 126 126 126 127 127 127 126 126 126 127 127 127 127 127 127 127 127 127 127 127 127 127 127 127 127 127 127 127 126 126 125 126 126 127 127 127 127 127 127 127 127 126 126 126 127 128 128 128 127 126 127 128 129 129 129 128 128 127 126 126 126 126 125 124 124 124 124 124 124 125 126 127 127 127 126 126 127 127 127 127 127 126 126 126 126 126 126 127 126 126 126 126 126 126 127 127 127 127 128 128 129 129 128 126 126 126 126 127 127 127 126 126 126 126 127 127 126 126 127 126 126 125 124 123 122 121 120 120 119 118 119 122
123 120 118 117 118 119 118 117 117 118 118 118 117 117 117 117 118 119 119 118 116 115 115 115 116 118 120 120 120 119 120 122 124 126 126 127 128 128 127 127 127 127 128 127 127 127 127 127 127 127 127 128 127 127 127 127 127 127 126 126 126 127 127 127 127 127 127 127 126 127 127 127 126 126 126 126 125 125 126 127 128 127 127 127 127 127 127 127 127 126 126 126 126 127 128 128 128 128 128 128 128 128 128 127 127 126 126 126 126 125 125 125 127 127 128 128 127 126 126 126 127 128 128 127 126 126 127 127 127 127 127 126 126 126 126 126 127 127 127 127 127 127 127 127 127 127 126 126 125 126 126 127 127 127 127 127 127 127 127 127 127 127 127 128 128 127 127 127 128 129 128 127 126 126 126 127 126 126 125 124 125 125 125 125 125 125 126 126 126 127 126 126 126 126 127 127 127 126 126 126 126 126 126 126 126 126 126 126 126 126 126 126 125 125 126 126 127 128 128 128 127 126 125 126 126 126 126 126 125 126 127 127 127 127 127 127 127 127 126 125 123 122 122 121 121 121 121 120 120 122
122 120 120 120 120 120 120 120 119 119 119 120 120 120 120 120 121 121 122 122 120 118 118 118 118 120 122 122 121 122 124 125 126 127 127 127 126 126 127 128 128 127 127 126 125 125 126 125 125 126 127 127 127 127 128 128 127 127 127 127 127 128 127 127 127 126 126 126 126 126 126 126 126 126 126 126 126 126 126 126 126 126 127 127 127 128 127 127 127 127 127 127 126 126 127 127 127 128 128 128 127 127 126 125 125 125 125 126 126 126 126 126 127 127 128 127 126 126 127 128 128 128 128 127 126 126 126 126 127 127 126 126 126 126 127 127 127 127 127 127 127 127 127 127 127 127 127 127 127 127 127 127 127 127 127 127 127 127 127 128 127 127 127 127 128 128 128 128 128 128 126 125 124 125 125 126 126 126 126 126 125 125 125 125 125 126 126 126 126 126 126 126 126 127 127 127 127 127 127 126 126 126 126 126 126 125 126 126 126 126 126 125 125 124 125 126 126 126 126 126 126 126 126 126 126 126 125 125 126 127 127 128 127 127 127 127 127 127 126 125 125 125 125 124 124 124 125 125 126 126
125 124 124 124 124 124 125 126 125 125 124 125 125 126 125 125 125 126 126 126 125 125 125 124 124 124 124 124 123 124 125 125 126 127 127 126 126 126 127 128 128 127 126 125 124 125 125 125 125 126 127 127 128 128 128 128 128 128 128 127 127 127 127 127 127 127 128 128 127 126 126 127 127 127 127 126 127 127 127 126 125 126 127 128 128 128 128 127 127 127 127 127 127 126 126 126 127 128 128 127 126 125 125 125 125 125 126 126 126 126 126 127 127 127 126 125 126 127 128 129 129 128 126 126 126 126 127 127 127 127 127 127 127 127 127 128 127 127 127 127 127 127 127 127 127 127 127 127 128 128 128 128 127 127 127 127 127 127 128 128 127 127 127 127 127 127 128 128 127 125 124 124 125 126 126 126 126 126 126 126 126 126 126 126 126 126 126 126 127 127 127 127 127 127 127 127 127 127 128 127 127 127 127 127 126 126 126 126 127 127 127 126 125 125 126 126 126 126 125 126 126 127 127 127 127 126 126 126 127 127 127 127 127 127 127 126 126 126 127 126 126 126 126 126 126 125 126 127 127 127
126 126 126 126 126 126 127 128 127 127 127 127 127 128 128 128 127 128 127 127 127 128 127 127 126 126 125 125 125 125 126 127 127 127 127 127 127 127 128 128 127 127 126 126 126 125 126 127 127 127 127 127 128 129 129 129 128 128 128 128 127 126 126 127 128 128 128 128 128 128 127 128 129 129 127 127 127 127 127 127 127 127 127 128 128 129 128 127 127 127 127 127 127 126 126 126 127 126 126 125 125 125 126 126 126 127 127 127 126 126 126 126 126 126 125 125 126 128 129 129 128 127 126 126 127 127 127 127 127 127 127 127 128 128 127 127 127 127 127 127 127 127 127 127 127 127 127 127 128 128 128 127 127 127 127 127 127 127 127 127 127 127 127 127 127 127 128 128 127 126 125 126 126 126 126 126 126 126 126 126 127 127 126 126 125 126 126 127 128 128 127 127 126 127 127 127 127 127 128 128 128 128 127 127 127 127 126 127 127 127 127 127 127 127 127 126 126 126 126 126 127 127 126 126 127 127 127 127 127 127 127 126 126 126 126 126 127 127 127 127 127 126 127 127 126 127 127 128 128 127
126 125 126 127 127 127 127 127 126 127 127 127 127 127 128 128 127 127 127 127 127 126 126 126 126 126 125 125 126 127 128 129 128 127 127 127 128 127 127 127 127 127 127 127 127 127 127 127 128 127 127 127 128 129 129 128 128 127 128 128 127 126 126 127 128 127 127 128 128 128 127 128 128 128 128 128 127 127 127 127 128 128 128 128 128 128 128 127 126 126 126 127 127 127 127 127 126 125 125 125 125 126 127 127 127 127 127 127 127 127 127 126 126 126 126 127 128 128 128 127 127 127 127 128 127 127 127 127 127 127 127 127 128 127 127 127 127 127 127 127 127 127 126 126 126 126 127 127 127 127 127 127 127 127 127 127 127 127 127 127 127 127 127 127 127 128 128 129 129 128 127 127 127 127 127 126 126 126 126 127 127 127 127 126 126 126 126 127 128 128 127 127 126 126 126 126 126 126 127 127 127 127 127 127 127 127 127 127 127 127 127 127 127 127 127 126 126 126 126 127 127 127 126 126 126 127 127 127 127 126 126 126 126 126 126 127 127 128 128 128 127 127 126 126 127 128 128 127 127 128
126 126 126 127 127 127 127 127 127 128 128 127 126 127 128 128 127 127 128 128 127 126 126 126 126 126 125 125 126 127 128 128 128 128 127 127 127 126 126 126 126 127 127 127 127 128 127 126 126 126 127 127 128 127 127 128 127 127 127 128 127 126 126 125 125 125 126 126 127 127 127 127 126 127 129 129 129 128 128 127 128 128 129 128 127 126 126 126 126 126 126 127 127 127 127 126 126 126 126 126 126 127 127 127 127 127 127 127 127 127 127 127 126 126 127 128 129 128 127 126 127 128 128 128 128 128 127 127 127 127 127 127 127 127 127 127 127 127 127 127 127 127 126 126 125 126 126 127 127 127 127 127 127 127 127 127 127 127 127 127 127 128 128 127 127 127 127 128 128 128 128 128 127 127 127 127 126 126 126 127 127 127 126 126 126 126 126 126 127 127 127 127 127 126 126 126 126 126 126 126 126 127 127 127 127 127 127 127 127 126 126 127 127 127 127 126 126 127 127 127 127 127 126 126 126 126 126 127 127 127 127 127 127 127 128 128 128 128 128 128 127 127 127 127 128 129 128 127 127 127
128 128 127 127 128 128 127 127 127 127 127 127 126 126 126 127 127 127 126 127 127 127 127 127 127 126 126 126 126 127 126 127 128 128 128 127 127 127 126 126 126 127 127 128 128 128 129 128 126 126 127 127 127 126 126 127 127 126 126 126 126 127 126 125 125 125 126 127 127 127 127 127 127 127 128 128 128 129 128 127 127 128 128 127 126 126 125 126 126 127 127 126 126 126 126 126 126 127 127 126 126 127 127 127 127 127 127 127 127 127 127 127 127 127 128 128 128 127 126 126 126 127 127 127 127 127 127 127 127 127 127 127 127 127 127 127 127 127 127 127 127 127 127 127 127 127 127 127 127 127 127 127 126 126 127 127 127 127 127 127 128 128 127 127 127 127 126 126 126 127 128 127 127 127 127 127 126 126 126 125 125 126 126 126 126 126 127 126 126 126 126 127 127 126 126 126 126 126 126 127 127 127 127 127 127 127 127 127 127 127 127 127 127 127 126 126 127 127 127 127 127 127 127 126 126 126 126 127 127 127 128 128 129 129 129 129 128 128 128 127 127 128 128 128 128 128 127 127 127 127
128 129 129 129 129 128 127 126 126 126 126 127 126 126 126 127 127 126 126 126 127 128 127 127 126 126 126 126 127 127 128 127 127 128 128 128 128 128 128 127 127 127 127 128 129 129 128 127 127 127 127 127 126 125 126 126 126 126 126 126 126 127 127 127 127 127 126 126 127 127 127 127 127 126 126 125 126 127 127 126 126 127 127 127 126 126 126 127 127 127 127 127 126 126 126 127 127 127 127 127 127 127 127 127 127 127 127 127 127 127 127 127 127 127 127 127 126 125 125 126 126 126 127 127 126 126 126 127 127 127 128 128 127 127 127 127 127 127 127 127 127 127 128 128 128 128 128 127 127 127 127 126 126 126 127 127 127 127 127 127 127 127 127 127 127 127 127 126 126 127 127 127 127 126 126 126 126 126 126 125 125 125 126 126 126 127 127 127 127 126 126 127 127 127 126 126 126 127 127 127 127 127 126 126 126 127 127 128 128 127 127 127 127 127 128 128 128 127 127 127 127 127 127 127 127 127 128 128 128 128 128 128 129 129 129 128 128 127 127 127 128 128 128 128 127 127 127 127 127 127
127 128 129 129 128 127 126 127 128 127 127 127 127 127 126 126 126 126 127 127 126 126 127 126 126 126 126 127 127 127 128 127 127 127 128 128 128 128 128 128 128 127 128 129 129 128 127 126 127 128 128 127 126 126 126 126 127 127 127 127 127 128 128 128 128 127 127 126 127 127 127 127 126 126 125 125 125 125 126 126 126 126 126 127 127 127 127 127 127 127 127 127 126 126 127 127 127 127 127 127 127 127 127 127 127 127 127 127 127 127 127 127 127 127 126 125 125 126 126 126 127 128 128 127 126 126 126 127 127 127 128 128 128 127 127 127 127 127 127 127 127 127 128 128 128 128 128 127 127 127 126 126 126 126 126 126 126 126 126 127 127 127 127 127 127 127 127 128 127 127 126 126 126 126 126 126 126 126 126 125 125 126 126 127 127 127 127 127 127 126 127 127 127 127 127 127 127 127 127 127 127 127 126 126 127 127 127 128 128 128 127 127 127 128 129 129 128 128 127 127 127 127 127 128 128 129 129 129 128 127 127 127 127 127 127 127 127 127 127 128 129 129 128 127 127 127 127 127 127 127
126 127 127 127 126 125 126 128 128 128 127 128 128 127 126 125 126 127 128 128 127 126 126 126 127 127 127 127 127 127 127 127 127 127 127 127 127 127 128 129 129 129 128 128 128 128 127 128 128 129 128 127 127 126 126 126 127 127 127 128 128 128 128 128 128 127 128 128 127 127 126 126 126 126 127 127 127 127 127 127 127 126 126 127 127 127 127 127 127 127 127 126 126 126 127 127 127 127 127 127 127 127 127 127 127 127 127 127 127 127 127 127 127 127 126 126 126 126 127 127 126 126 126 126 126 126 126 127 127 127 127 127 127 127 127 127 127 127 127 127 127 127 127 128 128 128 127 127 127 126 126 126 126 126 126 125 125 126 126 126 126 126 127 127 127 127 128 128 128 127 126 126 126 125 125 125 126 126 126 126 125 126 127 128 128 128 127 127 127 127 127 127 127 127 127 127 128 128 128 128 129 128 127 127 128 128 127 127 127 127 127 127 127 128 128 128 128 128 127 127 127 127 127 128 128 129 128 127 127 126 126 126 126 126 126 126 127 127 127 127 127 127 127 127 127 127 127 127 127 127
126 125 125 125 126 126 127 127 127 127 127 127 127 127 126 126 126 127 128 127 126 125 125 126 127 128 128 128 128 127 126 126 127 127 127 127 127 127 127 127 128 129 128 127 127 127 127 127 127 127 127 127 127 127 126 126 127 127 128 129 129 128 128 128 128 128 128 128 127 126 126 126 127 127 127 128 127 127 127 127 127 127 126 126 127 127 127 126 126 126 127 127 127 127 127 127 127 127 127 127 127 127 127 127 127 127 127 127 128 128 128 127 127 127 127 127 127 127 128 127 126 125 125 126 126 126 126 127 127 127 127 127 127 127 127 127 127 127 127 127 127 127 127 127 127 127 127 127 126 126 126 126 126 126 126 126 126 126 126 126 126 126 127 127 127 128 127 127 127 127 126 126 125 125 125 125 125 126 126 127 127 127 128 129 129 128 127 126 126 127 127 127 127 128 128 128 128 128 128 129 129 129 129 129 129 129 128 127 126 127 127 127 128 128 128 128 127 127 127 127 127 127 127 127 127 127 127 127 126 126 126 126 125 125 125 126 126 127 127 127 126 126 127 127 127 127 127 128 128 128
126 125 124 125 127 127 127 126 127 127 127 126 126 127 127 127 127 127 126 124 124 124 125 126 126 127 128 128 128 128 127 126 126 126 127 128 128 127 127 126 127 128 128 127 127 126 126 126 126 127 127 127 127 127 127 127 127 127 128 128 127 127 127 127 128 128 128 127 127 127 127 127 127 127 127 128 127 127 127 127 127 127 126 126 127 127 127 127 126 126 126 127 127 127 127 126 126 126 127 127 127 127 127 127 127 127 127 127 128 128 128 128 128 127 127 127 128 129 129 128 127 126 125 126 127 127 127 127 127 127 126 126 126 127 127 127 127 127 127 127 127 127 127 127 127 127 127 127 127 127 127 127 127 127 127 127 127 127 127 126 126 126 126 127 127 127 127 126 126 126 126 126 126 126 126 126 126 126 127 128 128 128 128 128 128 127 127 126 126 126 127 127 127 127 127 128 128 129 129 129 129 129 129 129 129 128 128 127 127 127 128 129 129 128 127 127 127 127 127 127 127 127 127 126 126 126 126 126 126 126 126 126 126 126 126 126 126 126 127 127 126 126 127 127 127 128 128 129 129 128
127 127 127 127 126 126 126 125 125 126 127 127 127 128 129 128 126 124 123 123 124 125 126 127 127 127 128 128 128 128 128 127 126 126 127 127 128 128 127 127 127 127 127 127 127 127 127 127 127 128 128 128 128 128 127 127 127 127 126 126 126 127 127 127 127 127 127 127 127 128 128 129 128 128 127 127 127 127 127 127 126 126 126 127 128 129 128 127 127 127 127 127 127 127 127 126 126 126 127 127 127 127 127 127 127 127 128 128 129 129 129 128 128 128 128 128 128 128 128 127 126 126 126 127 127 127 127 127 127 127 127 127 127 127 127 127 127 127 127 127 127 128 128 127 127 127 128 128 128 128 127 127 127 127 127 127 127 128 128 128 127 127 127 127 127 127 127 126 125 126 126 126 127 127 127 127 127 127 128 128 128 128 127 127 127 127 127 127 127 127 127 127 127 127 127 127 128 128 128 128 128 129 129 130 129 128 128 128 128 128 128 129 129 129 128 127 127 127 128 128 128 127 127 126 125 125 126 126 127 127 127 127 127 127 127 127 127 127 126 126 126 125 125 126 127 128 128 128 129 128
128 129 129 127 126 125 126 127 126 126 127 128 128 128 128 127 125 123 123 124 125 126 127 128 128 127 127 128 129 128 127 127 127 127 126 127 127 128 128 127 127 126 126 126 126 126 127 127 127 127 128 128 128 128 127 127 127 126 126 126 127 127 127 127 127 127 127 127 127 127 128 128 128 127 127 127 127 127 127 127 127 127 127 127 127 127 127 127 127 127 127 127 127 127 127 127 127 127 127 127 127 127 127 127 127 127 128 128 128 129 129 128 128 128 129 129 127 126 125 126 126 126 126 127 127 127 127 127 127 127 127 127 127 127 128 128 128 127 127 127 127 128 128 128 128 128 128 128 128 128 128 127 127 126 127 127 128 128 128 128 128 127 127 127 127 127 127 126 126 127 127 127 127 128 127 127 127 127 127 128 128 127 127 127 127 127 128 128 128 128 127 127 127 127 127 127 128 127 127 127 128 128 129 129 129 128 128 129 128 128 128 128 128 128 128 128 127 127 128 128 127 127 127 126 126 126 126 127 127 127 127 127 127 128 128 128 128 127 126 126 126 125 125 125 126 126 127 127 127 127
129 129 129 128 128 129 129 130 129 128 128 129 128 126 124 124 124 124 125 125 126 127 127 128 127 126 126 127 128 127 126 126 127 127 128 127 126 126 127 128 128 127 126 126 126 126 127 128 128 127 127 128 128 127 127 127 127 126 126 127 128 127 127 127 127 127 127 127 127 127 127 127 127 127 127 127 127 127 127 127 127 127 127 127 126 126 127 128 128 128 128 128 127 127 127 127 127 127 127 127 127 127 127 127 127 127 127 128 128 127 127 128 128 128 128 128 127 125 125 126 126 126 126 127 127 127 127 127 127 127 127 127 128 127 127 127 127 127 127 127 127 127 127 127 127 127 127 127 128 128 128 127 127 127 127 127 127 128 127 127 127 127 127 127 127 127 127 127 127 126 126 127 127 127 128 128 128 128 127 127 127 127 127 128 128 128 129 128 128 127 127 127 127 127 127 127 127 127 127 128 128 128 128 128 128 128 128 128 128 128 127 127 127 127 127 127 127 127 127 128 128 128 128 127 127 126 127 127 127 127 128 128 128 128 128 128 128 127 127 126 126 126 125 125 126 126 126 126 126 126
128 127 126 127 130 131 131 131 131 131 128 127 126 125 124 124 124 125 126 126 127 127 127 126 126 126 126 126 126 125 126 127 127 127 126 125 125 125 126 127 128 128 128 129 129 128 128 128 128 127 127 127 127 127 127 127 127 127 127 128 128 128 127 126 126 127 128 128 128 127 126 126 127 128 128 128 129 129 128 128 128 128 128 127 127 127 128 128 129 130 130 128 128 127 127 127 127 127 127 127 127 127 127 127 127 128 128 128 127 126 127 127 127 127 126 126 126 126 126 127 127 127 127 127 127 127 127 127 127 127 128 128 127 127 127 127 127 127 127 127 127 127 127 127 127 127 127 127 128 128 128 127 127 127 127 127 127 127 126 126 126 127 128 128 127 127 126 126 126 126 126 126 126 126 127 127 127 127 127 126 126 127 127 128 128 128 128 128 128 127 127 127 128 128 127 126 126 126 127 127 128 127 127 127 127 127 128 127 127 127 126 125 124 125 125 126 126 126 127 127 128 128 128 127 127 127 127 127 127 127 127 127 127 127 127 127 127 127 127 127 127 126 126 126 127 127 126 126 126 127
127 126 126 127 128 129 129 129 129 129 127 125 124 125 125 125 126 126 127 127 127 127 127 126 126 127 128 127 126 126 127 127 127 126 125 125 125 125 125 126 126 127 128 128 128 127 127 127 127 128 128 128 128 128 128 128 128 128 128 127 127 127 127 127 127 127 127 127 127 127 127 127 128 128 128 129 129 129 129 129 129 129 128 128 128 129 129 129 129 129 129 129 128 128 128 128 128 128 128 128 127 127 127 128 128 128 127 127 126 126 126 127 127 127 126 125 125 126 127 127 127 127 127 127 127 127 128 128 127 127 127 127 127 127 127 127 127 127 127 127 127 127 126 126 126 126 127 127 127 128 127 127 127 127 127 127 126 126 126 126 127 127 128 128 127 127 126 126 125 125 125 125 126 126 126 126 126 127 126 126 126 126 126 127 128 128 128 127 127 127 128 128 127 127 127 126 126 126 126 127 127 127 127 127 127 127 127 127 127 127 126 125 124 124 124 124 125 126 126 126 127 127 127 127 128 128 128 127 127 127 127 127 127 126 126 126 127 127 127 127 127 127 127 127 127 126 126 126 126 127
127 128 129 128 127 127 127 127 126 127 127 125 124 124 125 126 127 127 127 128 128 128 127 127 128 128 128 128 129 129 128 127 127 126 126 127 127 126 126 126 126 127 127 127 127 127 127 127 128 128 129 129 129 129 130 129 128 128 127 127 127 127 127 127 127 127 126 126 126 127 127 127 127 127 127 128 128 128 128 127 127 127 127 127 127 128 128 128 128 127 127 129 129 128 128 128 128 128 128 128 128 128 128 128 128 127 127 127 127 126 126 126 126 126 126 126 126 126 127 127 127 127 127 127 127 127 127 128 127 127 127 127 127 127 127 127 127 127 127 127 126 126 126 126 126 126 127 127 127 127 127 127 127 127 127 127 127 126 126 127 128 129 128 128 127 127 126 126 125 125 126 126 127 127 126 126 126 126 126 126 126 126 126 126 127 127 127 127 127 127 127 127 127 126 126 126 126 126 126 126 126 126 126 126 127 127 127 127 127 127 127 127 126 126 125 125 126 126 126 126 127 127 127 128 128 128 127 127 127 126 126 127 127 127 126 126 126 127 127 127 127 127 127 126 126 126 127 127 126 126
127 129 129 129 127 127 126 126 125 125 125 125 125 125 126 127 127 128 128 128 128 128 128 128 129 128 127 127 128 129 128 127 127 127 127 128 128 127 127 126 125 125 126 127 128 128 127 128 128 128 128 127 127 128 128 128 128 128 127 127 127 127 128 127 127 127 127 128 128 127 127 126 126 126 126 126 127 127 127 127 126 127 127 126 126 126 126 126 126 126 127 127 127 127 127 128 128 128 127 127 127 127 128 128 127 127 127 127 127 127 127 127 126 126 126 127 127 127 127 127 127 127 127 127 127 127 127 127 127 127 127 127 127 127 127 127 127 127 127 127 126 126 125 125 126 127 127 127 127 127 127 127 127 127 128 128 128 128 127 128 129 129 128 128 127 127 127 126 126 126 127 127 127 128 127 127 126 126 126 126 126 126 126 126 126 126 127 127 127 127 127 127 127 126 126 126 126 126 125 125 124 124 125 125 126 127 127 127 128 128 128 128 128 128 127 127 127 127 127 127 127 127 127 127 127 127 127 127 127 127 127 127 127 127 127 126 126 127 127 127 128 127 127 127 127 127 127 127 127 126
126 126 126 127 127 127 126 126 125 123 122 124 125 126 127 127 127 128 128 127 127 127 128 129 129 128 128 127 127 126 126 126 127 128 128 128 128 127 127 127 126 125 125 125 125 126 126 127 126 126 125 125 125 125 125 126 127 127 127 127 127 128 128 127 127 127 126 126 126 127 127 127 128 128 127 127 126 126 126 127 127 127 127 127 126 126 125 125 125 126 126 126 126 127 127 127 127 127 127 128 128 127 127 127 127 127 127 127 127 127 126 126 126 126 127 127 127 128 128 127 127 127 127 127 127 127 127 127 127 127 127 127 126 126 126 126 127 127 126 126 126 126 126 126 127 127 128 127 127 127 127 127 127 127 128 128 128 128 128 128 128 128 128 127 127 127 127 127 127 128 128 128 128 128 128 128 127 127 127 127 127 127 126 126 126 126 126 126 126 127 127 127 127 127 127 127 127 127 126 125 124 124 124 124 125 125 126 127 127 128 128 128 128 128 128 128 128 128 127 127 127 127 127 127 127 127 127 127 127 127 127 127 127 127 127 126 126 127 127 127 127 127 127 127 127 127 127 127 128 128
127 127 127 126 126 126 125 125 124 123 123 124 126 126 127 127 127 127 127 127 127 126 127 128 127 127 127 127 126 126 125 126 127 128 129 128 128 127 127 127 127 127 126 125 124 125 126 126 126 125 125 125 125 125 125 126 127 127 127 128 128 128 127 127 127 127 126 125 125 126 127 127 128 128 128 128 127 127 127 127 127 127 127 127 127 127 126 126 126 125 125 126 127 127 127 127 127 127 128 128 128 128 128 127 127 127 127 127 127 126 126 126 126 127 127 127 127 128 128 128 128 127 127 127 127 127 127 127 127 127 127 127 127 127 126 126 126 126 126 126 126 126 127 127 128 128 128 127 127 127 127 127 127 127 127 128 128 128 128 128 128 127 127 127 126 126 126 127 128 128 128 128 128 128 128 128 127 127 127 128 128 128 128 127 127 126 126 127 127 127 127 127 127 127 128 128 128 128 127 126 125 125 125 125 125 125 125 126 126 127 128 128 128 128 128 127 127 127 127 127 127 127 127 127 127 126 126 127 127 127 127 127 127 127 127 127 127 127 127 127 127 127 127 127 126 127 128 129 129 128
128 128 127 126 126 127 127 126 124 124 125 126 126 127 127 127 127 127 127 127 127 126 126 126 126 125 125 125 126 127 127 128 129 129 129 129 128 127 127 127 127 127 127 126 126 126 126 126 127 126 126 126 126 126 126 127 128 128 128 128 127 127 127 127 127 127 127 127 127 126 126 127 127 127 128 128 128 127 127 127 127 128 128 128 128 128 127 127 126 126 126 128 129 128 127 127 127 127 128 129 129 128 128 128 128 128 127 127 126 126 127 127 127 127 127 127 127 127 127 128 128 128 127 127 127 127 127 127 127 127 127 127 127 128 127 127 126 126 127 127 128 128 128 128 128 128 128 127 127 127 127 127 127 127 127 127 127 127 127 127 127 127 127 126 126 126 125 126 127 127 127 127 128 128 128 128 128 127 127 128 128 128 128 128 127 127 127 128 128 127 127 127 127 127 128 128 128 128 128 127 127 127 126 126 126 126 126 125 126 127 127 128 127 127 127 127 127 127 127 126 126 126 127 126 126 126 126 127 127 127 127 127 127 127 127 127 127 127 127 127 127 127 127 127 126 126 127 128 129 128
127 126 125 126 127 128 128 126 125 126 126 126 126 127 127 127 127 127 127 127 127 127 127 126 126 126 126 126 127 128 128 128 129 129 128 128 127 127 127 127 127 127 127 127 127 127 126 126 126 126 127 127 127 127 127 127 126 127 128 128 127 127 127 128 128 129 129 128 127 127 126 126 127 127 127 127 127 126 126 127 127 128 128 128 128 128 127 127 127 127 128 128 129 128 128 127 127 127 128 128 128 128 129 128 128 128 127 127 126 126 127 127 128 127 127 127 127 127 127 127 127 127 128 127 127 127 127 127 126 126 127 127 127 128 127 127 127 127 128 128 128 128 129 129 128 128 127 127 127 127 127 127 127 127 126 126 126 126 127 127 127 127 126 126 126 125 125 125 126 126 126 127 127 127 127 127 128 127 127 128 128 128 128 127 127 127 127 127 128 128 128 128 128 128 128 127 127 127 127 128 127 127 127 127 127 126 126 126 126 127 127 127 127 127 127 127 127 126 126 126 126 126 126 126 126 126 126 126 127 127 127 127 127 127 128 128 128 127 127 127 127 127 127 127 127 127 127 128 128 127
127 127 127 128 128 128 127 126 126 127 127 127 127 127 127 128 129 129 128 128 128 127 127 127 127 127 128 128 127 127 127 127 127 126 126 126 127 127 127 127 127 128 128 128 128 128 127 126 126 126 127 127 127 127 127 127 126 126 126 126 126 126 127 128 128 129 129 128 128 127 127 126 127 127 126 126 126 126 127 127 127 127 127 128 128 128 127 127 127 128 128 127 127 127 127 127 127 127 127 127 127 128 129 128 127 127 127 127 127 127 127 127 127 127 127 127 127 127 127 127 127 127 127 128 127 127 127 127 127 127 127 127 127 127 127 127 127 127 127 128 128 129 129 129 128 127 127 127 127 127 127 127 127 127 126 126 127 127 128 128 127 127 126 126 125 125 126 126 126 126 126 126 126 126 126 127 127 127 127 128 127 127 127 127 127 127 127 127 127 127 128 128 128 128 127 127 127 127 127 128 128 128 127 127 127 127 127 127 127 127 127 127 127 126 126 126 126 126 126 126 126 126 126 126 126 126 126 126 126 127 127 128 128 128 128 128 128 128 128 127 127 127 127 127 127 127 127 127 127 127
127 128 130 130 129 127 125 125 126 126 127 127 127 127 127 128 129 129 129 129 129 129 128 127 127 128 128 128 127 126 127 127 126 126 126 126 127 128 128 128 127 128 129 130 130 129 128 128 128 128 128 128 128 128 128 128 128 128 126 125 126 125 126 127 127 127 127 128 128 127 127 126 126 126 126 126 126 127 127 127 127 127 127 127 127 127 127 127 127 128 127 127 126 126 127 127 127 128 128 128 128 128 126 126 126 126 126 126 126 127 127 127 127 127 127 128 128 127 127 127 127 128 128 128 128 128 127 127 127 127 127 127 127 127 127 127 127 126 127 127 128 128 128 127 127 127 127 127 127 127 127 127 128 128 128 128 128 128 128 128 127 127 126 126 126 126 127 127 127 127 127 127 126 126 126 127 127 127 127 127 127 127 126 126 126 126 126 126 126 127 127 127 127 127 127 127 127 127 127 128 128 128 128 127 127 127 127 127 127 127 127 126 126 126 127 127 127 127 127 127 127 127 127 126 126 126 126 126 126 127 127 128 128 128 129 129 129 128 128 127 127 127 127 127 127 127 127 126 126 127
127 127 128 129 128 126 125 125 126 126 127 127 128 128 128 128 127 127 128 128 128 128 128 127 127 127 127 127 127 127 128 128 127 127 127 127 127 129 129 128 127 128 128 128 128 128 129 129 130 129 128 128 128 128 128 128 128 128 127 126 126 126 126 126 127 127 127 127 127 127 127 127 126 125 126 126 127 128 128 128 128 127 127 127 127 127 127 127 127 127 127 127 126 127 127 127 128 128 128 128 128 126 125 125 125 126 126 126 126 127 127 127 127 127 127 127 127 127 127 127 127 128 128 128 128 128 128 127 127 127 127 127 127 127 127 127 126 126 126 127 127 127 127 127 127 127 127 127 127 127 127 127 128 128 128 128 128 128 128 128 128 127 127 126 127 127 127 127 128 128 128 127 127 126 126 127 127 127 127 127 127 126 126 126 126 126 126 126 126 127 127 127 127 127 127 127 127 127 127 128 128 128 128 127 127 126 127 127 127 127 127 127 127 127 127 127 127 127 127 127 127 127 127 127 127 127 127 127 127 128 128 128 128 128 128 128 128 128 128 127 127 127 127 128 128 127 127 126 125 126
127 127 127 128 128 126 126 127 127 128 129 128 128 128 128 128 127 127 127 127 127 127 127 127 127 127 127 127 127 127 127 127 127 126 126 127 127 127 127 128 127 127 126 126 126 127 128 128 128 128 128 128 128 128 128 127 127 126 126 127 127 127 127 127 127 126 126 127 128 128 128 127 127 127 127 127 128 128 127 127 127 127 126 126 126 126 126 127 127 126 126 126 126 126 127 127 127 127 127 126 125 125 126 126 126 126 126 127 127 127 127 127 127 127 127 127 127 127 127 128 129 129 129 128 128 128 128 127 127 127 127 127 127 127 127 127 127 127 127 127 127 127 127 127 127 127 127 127 127 127 127 127 128 128 128 128 128 128 128 127 127 127 126 126 127 127 128 128 128 128 128 128 128 128 128 127 127 127 127 127 127 127 127 127 127 127 127 126 126 127 127 128 128 128 128 128 127 127 127 127 127 127 127 127 127 127 127 127 127 127 127 127 127 127 127 127 127 127 127 127 127 127 127 127 127 127 127 128 128 128 128 129 129 129 128 128 127 127 127 127 127 127 127 127 127 127 126 126 127 127
129 129 128 128 126 125 126 127 127 128 128 128 127 127 126 126 126 126 127 127 127 126 126 127 127 126 126 126 126 126 126 126 126 125 126 127 127 126 127 128 129 129 128 128 128 128 128 128 127 127 128 128 127 127 127 127 126 127 127 128 128 128 128 128 128 127 126 127 128 129 129 129 129 128 128 128 127 126 126 126 126 126 126 126 125 125 125 126 126 126 126 126 126 127 127 127 127 127 126 125 125 126 127 127 127 127 127 127 127 127 127 127 127 127 127 127 127 127 127 128 129 129 129 128 128 128 127 127 127 127 127 127 127 127 127 128 128 128 128 128 127 127 127 127 127 126 126 127 127 127 127 127 128 128 129 129 129 128 128 127 127 126 126 126 127 127 127 128 128 128 128 129 129 129 129 128 127 127 127 128 128 128 128 127 127 127 127 127 127 127 127 127 128 128 128 127 127 126 126 126 126 127 127 127 127 127 127 127 127 127 127 127 127 127 127 127 127 127 127 127 127 127 127 127 127 127 127 128 128 129 129 129 129 129 128 128 127 127 127 127 127 128 128 127 127 126 126 128 129 128
128 128 127 126 125 125 126 127 126 125 125 126 126 126 125 125 125 125 126 126 126 126 126 126 126 126 127 128 129 128 127 126 126 127 128 129 129 129 129 129 130 130 130 129 129 129 128 128 127 127 127 127 126 126 127 127 127 127 127 127 128 128 128 128 128 128 127 127 126 126 127 128 128 127 127 126 126 125 125 125 126 126 126 126 126 126 127 127 127 127 127 127 127 128 128 129 129 128 126 126 126 127 127 127 127 127 128 127 127 127 126 127 127 127 127 127 127 127 127 127 126 126 127 126 126 126 127 127 127 127 127 127 127 127 127 127 128 128 128 128 128 127 127 127 127 127 127 127 127 127 127 126 126 127 127 128 128 128 128 128 127 127 126 127 127 127 126 126 126 127 127 128 128 128 128 128 128 128 128 128 128 128 128 128 128 128 128 127 127 126 126 125 126 126 126 126 126 126 126 126 126 126 127 127 128 128 128 128 128 128 128 128 127 127 128 128 129 129 128 128 127 127 127 127 127 127 127 127 128 128 129 129 128 128 128 128 128 127 127 127 127 127 127 127 126 126 127 127 128 128
126 126 125 125 125 126 127 128 127 126 126 127 127 127 126 126 127 128 128 127 127 127 127 127 127 128 129 129 128 128 128 130 131 131 130 129 129 129 128 127 126 126 126 126 126 126 126 126 126 127 128 127 127 127 127 127 126 126 126 127 127 127 128 127 127 128 128 127 126 125 126 126 127 127 127 127 127 127 127 127 127 127 127 127 127 128 128 129 128 128 127 127 127 127 127 127 128 128 127 127 127 127 127 127 127 127 127 128 128 128 128 128 128 128 128 127 127 127 127 126 126 125 126 126 126 127 127 127 127 128 127 127 127 127 127 128 128 128 128 128 127 127 127 126 126 126 126 126 127 127 127 127 126 126 127 127 127 127 127 127 127 126 127 127 127 127 126 126 126 126 127 127 127 127 128 128 129 129 128 128 129 128 128 128 128 128 128 128 128 127 126 125 125 125 125 126 127 128 128 128 128 127 127 127 128 128 128 128 128 128 128 128 128 128 128 129 129 128 128 128 127 127 127 127 127 127 127 127 127 127 127 127 127 127 127 128 128 128 127 127 127 126 126 126 127 127 127 126 126 127
126 127 127 126 126 128 128 128 128 128 127 127 127 127 127 128 128 129 128 128 127 127 127 128 128 129 128 126 127 128 129 131 132 131 130 128 127 126 126 126 126 126 127 127 127 128 127 127 127 127 127 128 129 129 128 127 127 127 127 126 126 126 126 127 127 127 127 127 126 126 126 126 126 126 126 127 127 128 128 128 128 127 127 128 128 128 128 128 128 128 127 127 127 126 126 125 126 128 129 128 128 127 127 128 128 128 128 128 128 128 128 128 127 127 127 127 127 127 126 126 126 126 126 126 127 127 127 127 127 128 127 127 127 127 127 127 127 127 127 127 126 126 126 126 126 126 125 125 126 127 127 127 127 126 126 127 127 127 126 126 126 126 127 127 128 128 128 128 128 127 127 127 127 127 128 129 130 130 130 130 130 129 129 128 128 128 128 128 128 128 129 128 128 128 128 128 128 128 128 128 128 128 128 127 127 127 127 127 126 126 127 127 127 127 127 127 126 126 127 127 128 127 127 127 127 127 127 127 126 125 125 126 126 127 127 128 128 128 127 127 126 126 126 127 127 127 127 126 126 126
127 128 128 127 127 128 128 128 128 128 127 127 127 128 128 128 127 127 127 127 127 127 127 128 128 128 127 127 128 129 130 131 131 128 126 126 126 126 127 128 129 130 130 130 131 131 131 130 129 127 127 127 127 127 128 128 128 128 127 126 126 125 125 126 126 126 125 126 126 127 127 127 127 127 127 127 127 127 127 127 128 128 129 130 130 129 128 127 127 127 127 128 128 128 128 128 128 129 129 129 128 128 128 128 128 128 128 128 128 128 128 127 126 126 126 126 126 126 126 126 126 126 126 127 127 127 127 127 127 126 126 127 127 127 127 127 127 127 127 127 127 127 127 127 126 126 126 126 126 127 127 128 127 126 126 126 126 126 126 126 126 127 127 128 128 128 128 128 128 127 127 127 127 127 128 129 129 130 130 130 129 129 128 128 128 128 128 128 129 129 130 131 131 131 130 130 129 128 127 127 127 128 128 127 127 127 127 127 126 126 126 126 127 127 127 126 126 126 127 127 128 127 127 127 128 128 128 129 128 127 126 125 125 126 126 126 126 126 126 125 126 126 127 127 128 128 128 127 126 126
127 127 127 127 127 126 127 128 127 127 126 127 127 128 128 128 127 127 127 127 127 127 128 129 129 128 128 128 128 129 130 129 127 125 125 127 128 130 131 132 131 131 130 129 127 127 127 128 129 129 129 128 128 127 128 128 129 128 127 127 127 126 126 126 126 126 126 126 127 127 127 127 126 127 127 127 128 127 127 127 128 129 130 130 130 129 128 128 127 127 127 128 128 129 129 129 128 127 126 127 127 127 127 127 127 127 127 127 127 126 126 126 126 126 126 126 126 126 126 127 127 127 127 127 127 127 127 126 126 126 126 127 127 127 127 127 127 128 128 128 128 128 128 127 127 127 127 127 127 126 127 127 127 126 126 126 126 126 126 126 126 127 128 128 128 127 127 127 127 127 127 126 126 126 127 127 128 128 129 128 128 128 127 127 128 128 128 129 129 129 129 129 130 130 130 130 130 129 128 128 128 128 128 128 128 128 128 128 127 127 126 126 126 126 127 127 127 128 128 127 127 127 128 128 129 129 129 130 130 130 128 127 126 126 126 126 125 125 125 125 125 125 125 126 127 128 128 126 126 126
127 126 126 126 126 126 126 127 127 127 127 127 128 128 129 129 128 127 127 127 128 128 129 129 128 127 127 128 130 130 127 124 124 128 131 133 132 131 130 129 128 126 125 124 123 123 123 124 126 127 128 130 132 132 131 130 130 129 128 128 127 127 126 126 127 127 127 127 127 127 126 126 126 127 127 128 128 127 127 128 129 129 129 128 128 128 128 129 130 130 128 127 127 127 127 126 125 125 125 126 126 126 127 127 127 127 127 127 127 126 126 126 126 127 127 127 127 127 128 128 128 128 127 127 127 127 126 126 126 126 127 127 127 127 127 127 127 128 128 128 128 128 128 128 128 128 128 128 128 127 126 126 127 127 127 126 126 126 127 127 127 127 127 127 126 126 126 127 127 127 127 127 127 127 127 127 127 127 127 127 127 127 128 129 129 129 129 129 128 127 127 127 127 128 128 128 128 128 128 128 128 128 128 128 129 129 129 129 128 128 128 127 127 127 127 127 127 127 127 127 127 127 128 129 129 129 128 128 129 129 128 128 128 127 126 126 126 126 126 126 125 125 125 126 126 126 126 126 125 126
127 126 125 125 125 126 126 127 127 128 128 128 128 128 128 128 127 126 126 127 127 128 129 128 127 126 126 129 130 128 126 127 131 132 132 131 130 128 126 124 124 123 123 123 124 124 124 125 125 126 127 130 131 132 132 131 131 130 130 130 129 128 128 127 127 127 127 127 127 127 127 127 127 128 128 127 127 126 127 128 128 128 128 127 127 128 129 129 130 130 130 129 129 128 127 126 125 126 126 127 127 127 127 127 128 129 129 128 127 127 127 127 127 127 127 127 127 128 128 127 127 127 127 127 127 127 127 126 126 127 127 127 127 127 127 127 127 127 127 128 128 128 128 128 128 128 128 127 127 127 127 127 127 128 128 128 127 127 127 127 128 128 127 127 126 127 127 127 127 128 128 128 128 128 128 127 127 126 126 127 127 128 129 130 130 129 129 128 128 127 127 127 126 126 126 126 126 126 126 127 127 127 127 128 128 128 128 128 128 128 129 129 129 128 127 127 126 126 126 127 127 127 127 127 127 127 127 127 127 127 128 128 128 128 127 127 126 126 127 127 127 127 127 127 126 125 125 125 125 126
127 127 125 125 126 126 126 127 127 128 128 128 127 127 126 125 125 125 126 126 126 127 128 128 127 127 128 128 127 127 130 132 131 129 127 126 126 126 125 124 124 124 124 124 126 127 128 128 128 128 129 129 128 128 127 127 127 128 129 130 129 129 128 128 127 126 127 127 128 128 128 128 129 129 129 128 127 127 128 128 127 127 128 128 128 128 128 128 127 128 129 130 130 129 128 127 126 126 127 127 127 127 127 128 128 129 129 128 127 127 127 127 127 127 127 127 127 127 127 127 126 126 126 126 127 127 127 127 127 128 128 128 128 127 127 127 126 126 127 127 127 128 128 128 128 128 127 126 127 127 127 128 128 128 128 128 127 127 127 127 127 127 127 127 128 128 128 127 127 127 127 127 127 127 127 126 126 126 126 127 127 127 128 128 128 127 127 127 127 127 127 126 126 125 125 124 124 125 127 128 128 128 128 128 128 128 128 128 128 128 128 128 128 128 127 126 126 126 126 127 127 127 126 126 126 126 127 127 126 127 128 128 128 128 127 127 127 127 127 127 127 127 127 127 127 126 126 127 127 127
125 124 124 125 126 127 126 126 126 126 127 127 127 127 126 126 126 126 126 126 127 127 128 127 127 129 131 130 129 128 128 126 124 125 127 127 125 124 124 125 125 125 127 129 130 132 132 131 130 129 127 125 123 122 122 123 124 125 126 127 128 128 128 128 128 128 128 128 129 129 128 128 128 128 128 128 128 128 128 127 127 126 127 128 128 128 128 127 127 127 127 127 127 126 126 127 127 127 127 126 126 127 128 128 127 126 126 126 126 126 126 126 126 126 126 127 127 127 127 127 127 126 126 127 127 127 128 128 128 128 128 128 128 128 128 127 127 127 127 127 127 128 128 128 128 127 127 127 127 128 128 128 128 127 127 127 127 127 127 127 127 127 127 127 128 128 128 127 127 127 127 128 128 127 127 126 126 126 127 127 127 127 127 127 126 126 126 126 126 126 126 126 126 126 126 126 126 127 128 128 128 128 128 128 128 128 129 129 129 128 127 127 127 127 127 127 127 127 127 127 128 128 128 128 128 128 127 126 126 126 126 127 127 127 127 127 127 128 128 128 128 128 128 128 127 127 127 128 128 128
124 123 124 126 126 126 126 126 125 125 125 126 126 127 128 129 128 128 128 128 128 128 127 126 126 128 129 129 128 126 124 122 124 127 128 127 125 124 125 127 128 130 131 132 132 131 130 129 127 126 125 123 122 122 123 124 125 126 126 126 126 127 127 128 128 128 128 128 128 128 128 127 127 127 127 127 128 128 127 126 125 125 125 125 126 127 127 127 127 127 127 127 127 126 126 127 128 128 129 129 128 128 128 127 126 125 125 126 126 126 126 126 126 126 126 126 126 127 127 127 127 127 127 127 127 128 128 128 128 128 128 128 128 128 128 128 127 127 127 127 127 127 127 127 127 128 128 128 129 128 128 128 128 127 127 127 127 127 127 126 126 126 127 127 127 127 127 128 128 128 128 128 128 128 128 128 128 128 128 127 127 127 126 126 126 126 127 127 127 127 126 126 126 127 128 128 129 129 128 127 127 127 127 127 127 127 128 128 128 128 128 127 127 127 128 128 128 128 128 128 128 128 129 129 129 129 128 127 126 126 126 126 126 126 126 127 128 128 128 129 129 129 128 127 127 126 126 127 127 127
126 126 126 127 127 127 127 127 126 126 126 126 126 127 128 128 128 128 129 128 128 127 126 126 127 128 127 126 125 125 125 125 127 127 125 124 125 126 127 128 130 132 133 133 131 127 125 124 124 126 127 127 127 128 128 128 128 128 128 127 127 128 128 127 126 126 127 127 127 127 127 127 127 126 126 127 128 128 126 125 125 125 125 124 125 125 126 125 126 126 126 126 126 126 127 128 128 129 129 129 129 129 128 127 126 126 126 126 127 127 126 126 126 126 127 126 126 126 126 126 126 126 127 127 127 128 128 128 128 128 127 127 127 128 128 128 128 128 127 127 126 127 127 128 128 128 129 129 129 128 127 127 127 127 127 127 126 126 126 126 126 126 127 127 127 127 127 128 128 128 128 128 128 128 128 128 129 128 128 127 126 126 126 126 126 127 127 127 127 127 127 127 127 128 128 129 129 129 128 127 127 127 127 127 127 127 127 127 127 128 128 128 128 128 128 128 128 128 128 128 127 127 127 127 127 127 128 128 129 128 127 127 126 126 127 127 127 127 127 128 128 128 127 127 126 126 126 126 127 127
127 127 127 128 128 127 127 128 128 129 128 127 127 127 127 127 127 128 128 127 127 127 127 129 130 129 127 126 126 126 127 128 128 126 124 124 125 127 129 131 133 134 134 132 128 125 125 128 132 133 131 130 130 131 131 129 128 128 128 129 130 130 130 129 128 128 127 126 126 126 127 127 127 126 127 127 127 127 126 126 127 128 128 127 126 125 125 125 126 125 125 125 125 126 127 127 127 126 126 126 127 127 126 126 126 126 126 126 126 126 126 127 127 127 127 127 127 127 126 126 127 127 128 128 127 127 127 127 128 127 127 127 127 127 128 128 128 128 127 127 127 127 127 127 128 128 128 128 128 127 127 127 127 127 127 126 126 126 126 126 127 127 127 127 128 128 128 128 128 127 127 127 127 128 128 128 127 127 127 126 126 126 126 127 127 127 127 127 127 127 127 127 128 128 129 128 128 128 128 128 127 127 128 129 128 128 127 127 127 127 128 128 128 128 128 127 127 128 127 127 126 126 126 126 126 126 127 128 128 128 127 127 127 127 127 127 127 127 128 128 128 127 127 127 126 126 126 126 127 127
126 126 127 127 127 126 126 127 128 129 130 129 129 128 127 127 127 127 127 127 127 127 128 129 129 127 127 127 128 128 129 129 129 126 124 125 127 130 133 135 136 134 130 127 126 127 130 131 131 130 130 131 131 130 128 127 128 131 133 132 132 132 133 132 131 129 128 128 127 126 126 126 126 127 126 126 126 126 126 127 128 128 128 127 126 125 125 126 126 125 125 125 125 126 126 126 126 126 125 124 124 125 125 125 125 126 126 126 126 126 127 127 127 127 127 127 128 128 128 128 128 128 128 128 128 127 127 127 127 128 128 127 127 127 127 127 127 127 127 127 127 127 127 127 127 127 127 127 127 127 127 127 128 127 127 126 126 126 127 127 128 127 127 127 127 128 128 127 127 127 127 127 127 127 127 127 126 126 126 126 126 127 127 127 128 127 127 127 127 127 127 127 127 127 127 127 127 127 127 128 128 129 129 129 129 128 128 128 128 128 128 128 128 127 127 127 127 126 126 126 127 127 127 127 127 126 126 126 126 126 126 126 127 128 128 128 128 128 128 128 128 127 127 127 127 127 127 127 127 127
126 126 126 126 126 126 126 126 127 127 129 129 128 127 126 126 126 126 126 126 127 127 128 128 128 127 127 127 128 129 130 129 127 126 126 129 132 134 136 139 137 129 122 121 123 126 127 125 123 126 130 131 129 127 128 131 133 132 130 129 131 132 132 130 128 127 127 128 128 128 127 126 127 129 129 130 132 133 134 134 132 129 128 127 126 125 125 125 125 125 125 126 126 126 126 126 126 126 126 125 125 125 125 125 125 125 126 126 127 127 127 127 127 127 127 127 127 127 128 128 128 128 128 128 128 127 127 128 127 127 127 128 128 128 128 127 127 127 127 127 127 127 127 127 127 127 127 127 127 128 128 129 129 128 128 127 127 127 127 127 127 127 128 128 128 127 127 127 127 127 127 126 126 126 126 125 125 125 126 127 127 128 128 128 128 127 127 127 127 128 127 126 126 126 126 127 127 127 127 127 128 128 128 128 127 127 128 128 128 128 128 127 127 127 127 128 128 127 126 127 127 128 128 127 127 127 127 126 125 125 126 127 127 128 128 128 128 127 127 127 127 127 128 128 128 128 127 127 127 127
126 126 126 126 127 127 127 127 127 127 127 127 126 125 125 126 126 126 127 127 127 127 127 127 127 127 127 127 127 128 129 128 127 128 131 134 134 136 138 137 130 122 119 121 123 124 124 125 127 130 130 129 128 130 133 134 131 126 125 128 131 129 125 123 125 126 127 128 129 129 131 136 142 146 148 151 154 154 153 151 148 144 140 137 133 130 128 127 126 126 126 126 126 126 126 126 126 126 126 126 126 126 126 126 126 126 127 127 127 127 127 127 127 127 127 127 127 127 127 127 128 128 128 128 128 128 128 128 127 127 127 127 127 127 128 127 127 127 127 127 127 127 127 127 127 127 127 127 127 127 128 128 128 128 128 129 128 128 128 128 128 128 129 128 128 128 128 128 128 128 128 127 127 127 126 126 126 126 127 128 128 128 128 128 128 127 127 127 128 127 127 127 127 127 127 127 127 127 127 127 128 127 127 126 125 126 126 127 127 127 127 127 127 127 127 128 128 128 128 128 128 129 129 129 129 129 128 128 127 127 127 127 127 127 127 127 127 126 126 126 126 127 127 128 128 128 128 128 127 127
126 126 126 126 126 127 128 128 128 127 126 126 127 128 128 127 127 127 128 128 127 127 127 127 126 126 126 126 126 128 129 129 130 132 133 133 135 139 136 125 118 119 123 125 126 127 129 131 132 129 126 126 128 131 131 128 123 124 130 133 130 125 122 123 126 128 129 129 128 132 141 152 156 156 156 157 157 156 153 151 150 149 147 146 144 141 138 134 131 129 127 127 127 127 127 127 127 127 127 127 127 127 127 127 127 127 127 128 128 128 127 127 127 127 127 127 127 127 127 127 127 127 127 127 127 127 127 127 127 127 127 127 127 127 127 127 127 127 127 127 127 127 126 126 126 126 127 127 127 127 127 128 128 128 128 129 129 129 129 129 129 129 129 128 128 128 128 129 128 128 128 128 128 128 128 128 128 128 128 128 128 128 128 127 127 127 127 127 127 127 128 128 128 128 127 127 127 127 127 127 127 126 125 125 125 126 126 126 126 126 127 127 127 127 127 128 128 129 129 128 128 129 129 130 130 129 129 129 129 128 127 126 125 125 126 126 127 127 127 126 126 126 126 127 127 128 128 127 127 126
125 125 125 125 126 126 127 127 127 127 126 126 127 129 129 129 128 128 128 128 127 128 128 127 126 126 127 127 128 129 130 130 131 131 131 134 138 134 122 113 115 122 126 127 128 130 131 131 129 127 128 129 128 127 126 123 124 130 135 132 124 121 124 127 129 131 130 131 138 147 152 151 148 146 144 141 139 139 140 141 141 142 142 143 144 145 144 143 139 135 132 130 128 127 127 127 127 127 127 127 127 127 127 127 127 127 127 127 127 127 127 127 127 128 127 127 126 127 127 127 127 127 127 127 127 127 127 127 127 127 127 127 127 127 127 127 127 127 127 127 127 127 127 126 126 127 127 127 127 127 127 128 128 128 128 128 128 128 128 128 128 128 128 128 127 127 127 127 127 126 127 127 128 128 129 129 129 129 128 127 127 127 127 126 126 127 127 127 127 128 128 128 128 128 128 127 127 127 126 126 126 125 125 126 126 127 127 127 127 127 127 127 127 127 127 128 129 129 129 129 128 128 128 128 128 128 128 127 128 128 128 127 127 126 127 127 128 128 128 128 128 128 127 127 127 127 127 127 126 126
126 127 128 128 128 128 127 127 127 126 126 126 126 126 127 128 129 129 128 127 127 128 127 126 126 126 126 127 128 129 128 127 126 126 128 130 125 116 112 115 121 125 127 129 130 131 131 129 127 126 127 127 127 126 124 124 130 136 132 124 120 123 127 131 133 132 131 139 149 153 147 139 135 135 134 133 131 132 133 135 136 137 137 136 137 138 140 142 142 141 139 137 135 132 129 128 128 127 127 127 127 127 127 127 127 127 127 127 126 127 127 128 128 128 127 127 127 127 127 127 127 127 127 127 127 127 126 126 126 127 127 127 127 127 127 127 127 127 127 127 127 127 127 127 127 127 127 127 127 127 127 127 127 127 127 127 127 127 127 127 127 127 127 127 126 126 126 126 127 127 127 127 128 129 129 129 129 128 127 126 126 126 126 127 127 127 127 127 127 127 127 128 128 128 128 128 128 127 127 126 126 126 126 127 127 126 126 127 128 128 128 127 127 127 128 128 128 128 128 128 128 127 127 127 127 127 127 127 128 129 129 129 128 128 128 127 127 128 128 128 128 128 128 127 126 126 126 127 127 127
127 128 129 130 129 129 128 127 127 127 127 127 127 127 126 126 127 128 127 126 127 127 126 126 127 127 126 127 128 128 126 124 124 125 123 117 111 111 117 123 126 128 129 131 132 134 132 127 125 123 121 122 126 127 124 128 134 131 122 118 122 127 132 134 132 130 136 146 146 140 136 133 130 129 129 129 129 128 128 128 129 131 132 132 132 132 133 135 138 140 140 141 141 139 136 133 131 129 128 127 127 127 127 127 128 128 128 127 127 128 128 128 128 127 127 128 128 128 127 127 127 127 127 127 127 127 127 127 127 127 127 127 127 127 127 127 127 127 127 127 127 127 127 127 127 127 127 127 127 127 127 126 126 126 127 127 127 127 127 127 127 127 127 127 127 127 127 127 128 128 128 128 128 128 128 128 128 127 127 127 126 127 127 127 127 127 127 127 127 127 127 127 127 127 127 127 128 128 128 128 128 128 128 128 127 127 127 127 127 127 127 127 127 128 129 128 127 127 127 127 127 127 126 126 126 126 127 128 128 128 128 128 128 128 127 127 126 126 126 127 128 128 128 127 127 126 126 127 127 127
127 127 127 127 127 128 127 127 127 128 129 129 128 127 126 126 127 126 126 126 126 126 126 126 126 127 128 129 129 127 125 125 126 126 123 119 118 121 124 126 127 130 132 135 136 134 127 122 121 121 123 127 128 124 125 132 131 122 117 120 125 130 135 133 128 133 142 142 135 130 129 129 128 128 128 128 128 128 128 128 128 129 129 129 130 131 132 133 134 136 137 138 140 141 141 139 137 134 133 131 129 127 127 128 128 128 127 127 128 128 128 128 128 128 128 127 127 127 127 127 127 127 127 126 126 126 127 127 127 127 127 127 127 127 127 127 127 127 127 127 127 127 127 127 127 127 127 127 127 127 127 127 127 127 127 127 127 127 127 127 127 127 127 128 128 129 128 128 128 128 128 128 127 127 127 127 127 127 128 128 128 128 128 128 127 127 128 128 128 128 128 128 128 128 127 127 128 128 129 129 129 129 128 128 128 128 128 128 127 127 127 127 128 129 128 127 127 127 127 127 127 127 127 127 126 126 127 127 127 127 127 127 127 127 127 126 126 126 127 127 128 128 129 128 128 127 127 127 127 127
127 127 126 126 127 127 127 127 128 128 129 129 128 127 127 127 127 126 126 127 127 126 126 126 125 125 126 127 127 126 125 127 130 128 124 125 126 126 126 126 127 129 133 136 133 125 120 121 123 126 131 131 125 123 126 128 123 119 121 125 128 131 131 128 130 139 142 135 130 129 128 127 127 127 127 127 127 127 128 128 129 129 130 132 132 132 133 133 133 134 135 135 137 138 139 140 139 139 140 138 135 133 131 129 128 128 128 128 127 127 128 128 129 128 128 128 128 128 128 127 127 127 127 127 127 127 127 127 127 126 126 126 126 126 126 127 127 127 127 127 127 127 127 128 127 127 127 127 127 127 127 127 127 128 128 128 128 127 127 127 127 127 127 127 128 128 128 127 127 127 127 127 126 126 126 126 127 127 128 128 128 128 128 128 128 128 130 130 129 128 128 128 128 128 127 127 127 128 128 128 127 127 128 128 128 128 127 127 127 127 127 128 128 128 127 126 126 126 127 127 127 128 128 127 127 126 126 126 126 125 126 127 127 127 127 127 127 127 127 127 127 127 127 128 128 127 127 127 127 127
127 127 127 127 127 127 127 127 127 127 127 127 127 127 127 127 127 127 127 127 127 127 126 126 126 127 127 126 126 125 126 129 129 127 125 125 126 126 127 128 130 132 134 131 122 118 120 124 127 132 132 127 123 125 125 121 119 122 126 128 130 130 125 124 131 137 134 129 129 130 129 127 127 127 127 126 126 126 126 127 128 129 131 133 133 132 131 130 131 132 133 133 134 135 136 137 138 140 142 143 145 144 142 140 137 134 132 129 128 127 127 127 127 127 127 128 128 128 128 127 127 127 127 127 127 127 127 127 126 126 126 126 126 126 126 126 126 127 127 127 127 126 127 127 127 127 126 126 126 127 127 127 127 127 127 127 127 127 127 127 127 127 127 127 127 127 127 127 127 127 127 127 127 127 126 126 127 128 128 129 128 128 128 127 127 128 129 129 128 127 127 127 127 127 127 127 127 127 127 127 127 127 127 127 127 127 127 127 127 127 127 127 127 127 127 127 127 127 126 126 127 128 129 129 128 127 127 126 125 125 126 127 127 127 127 128 127 127 127 127 126 126 126 127 127 127 127 127 127 127
127 127 127 127 126 126 126 126 127 126 126 126 126 126 127 127 127 127 126 126 126 127 127 126 127 128 128 127 126 126 128 130 127 123 125 127 127 127 128 130 134 136 132 122 117 119 123 125 129 132 128 122 123 126 126 123 123 125 126 128 130 128 124 127 134 134 129 126 126 127 127 126 126 126 126 126 126 126 125 125 126 127 127 128 129 129 128 127 128 129 131 131 131 131 132 133 134 136 137 140 145 148 149 150 149 146 141 135 131 128 127 126 126 126 126 127 127 127 127 127 127 127 127 127 127 127 126 126 126 126 126 127 127 127 127 126 126 126 127 126 126 126 127 127 127 127 127 127 127 127 127 127 127 126 126 126 126 127 127 127 127 127 127 127 127 126 126 127 127 127 127 127 127 127 127 127 127 128 128 128 128 128 127 127 127 127 126 127 129 129 127 127 127 127 127 127 127 127 127 127 127 127 127 127 127 127 127 127 127 127 127 127 127 127 127 127 127 127 127 127 128 129 130 129 129 128 128 127 127 128 128 127 127 127 128 128 128 128 127 127 126 126 126 127 127 127 127 126 126 127
127 127 128 127 126 125 125 126 126 126 126 126 126 127 127 127 127 126 126 125 125 125 126 127 127 127 126 125 124 126 129 128 125 124 126 127 127 127 128 131 130 125 119 117 121 125 126 130 132 129 122 121 126 128 127 126 126 126 126 128 130 128 126 129 133 131 127 126 125 124 124 124 124 125 125 125 126 126 126 125 125 126 126 127 127 128 128 128 128 130 131 130 130 130 129 129 130 131 131 132 135 138 140 141 143 145 144 142 138 133 129 127 126 126 126 126 126 126 126 126 127 127 127 127 127 127 127 127 127 127 127 127 128 128 128 127 127 127 127 127 127 127 127 127 127 127 128 128 128 127 127 127 126 125 125 125 126 127 127 127 127 127 127 127 127 127 127 127 127 127 127 128 128 128 128 128 128 127 127 127 127 127 127 127 127 127 126 127 128 129 128 128 127 128 128 128 128 128 128 128 128 127 127 128 128 128 128 127 127 127 127 127 127 126 126 126 126 127 127 128 129 128 128 128 128 128 128 128 128 128 128 127 127 128 128 128 129 128 128 127 127 127 127 127 127 127 127 127 127 127
128 128 128 127 126 126 126 125 125 126 127 127 127 127 127 126 126 126 126 126 125 125 126 126 127 127 126 126 126 127 127 123 121 124 126 127 127 127 129 129 123 117 116 120 125 127 129 132 131 123 120 125 128 127 127 127 127 128 127 128 128 127 127 129 129 127 126 125 124 122 121 121 123 125 126 126 126 126 126 127 127 127 127 127 129 130 130 130 131 132 132 130 129 129 129 129 129 130 130 130 129 130 131 131 132 134 138 141 141 138 134 130 128 127 126 125 125 126 126 126 126 126 127 127 127 127 127 127 127 127 127 127 127 127 127 127 127 128 128 128 128 127 127 127 127 127 127 128 128 127 127 126 126 126 126 127 128 128 127 127 127 127 127 127 127 128 128 127 127 128 128 128 128 128 128 128 127 127 126 126 126 127 128 128 128 127 126 126 125 126 127 127 128 128 128 128 128 128 127 127 128 128 128 129 129 129 128 128 128 128 128 128 127 127 126 127 127 127 128 128 127 127 126 127 127 128 128 127 127 127 127 127 128 128 128 128 128 128 128 127 126 126 126 126 127 127 127 127 127 127
128 128 127 126 126 127 128 127 126 126 126 127 127 127 127 127 127 127 127 127 127 126 126 127 127 127 127 127 128 128 125 121 122 125 127 128 127 128 130 127 123 122 123 125 126 127 130 130 124 121 125 127 127 126 126 127 127 128 127 128 127 127 128 130 129 126 125 124 124 122 122 124 126 127 127 127 126 126 126 127 127 127 127 127 128 129 130 130 130 130 130 130 129 129 129 129 129 129 128 128 126 126 127 128 128 129 131 134 134 134 135 134 132 129 126 125 125 125 125 125 125 126 126 127 127 127 127 127 127 127 128 127 127 127 127 127 127 128 127 127 127 127 127 127 127 127 127 127 127 127 126 126 127 128 129 129 128 128 127 127 127 127 127 128 128 128 128 127 127 127 127 127 127 127 127 127 127 126 126 126 127 127 128 128 128 127 126 126 125 125 126 127 128 128 128 128 127 127 127 127 127 127 128 128 128 128 128 128 128 128 128 128 128 127 127 128 128 128 128 127 126 126 126 127 127 128 127 127 127 126 126 127 128 128 128 127 127 127 127 127 126 126 126 126 126 127 127 127 128 127
127 126 126 126 127 128 128 128 127 126 125 126 127 127 127 127 127 128 128 128 128 128 127 127 127 127 126 126 127 126 124 123 124 127 128 127 128 130 129 125 125 126 127 127 127 127 127 125 122 123 126 127 126 126 127 127 127 127 127 127 126 125 126 129 129 127 125 124 124 125 126 127 126 125 124 123 123 123 123 123 124 126 127 127 127 128 129 128 127 127 127 128 128 128 129 129 129 128 127 126 125 124 125 126 127 128 128 129 130 132 133 134 132 129 128 128 127 127 126 126 126 126 126 127 127 127 127 127 127 128 128 127 127 127 127 127 127 127 127 126 126 126 127 127 127 127 127 127 127 126 126 127 128 129 129 128 128 127 127 128 128 128 128 128 128 128 127 127 127 126 126 126 127 126 126 126 127 127 127 128 128 128 128 128 127 127 127 126 126 126 126 127 127 127 128 128 127 127 126 126 127 127 127 127 127 127 128 128 128 128 128 128 128 128 128 128 128 128 128 127 127 127 127 128 128 128 128 128 127 127 127 127 128 128 127 127 127 127 127 126 127 127 127 126 126 126 127 127 127 127
126 125 126 127 127 127 127 129 129 128 127 127 127 127 127 127 127 127 128 128 128 127 127 127 126 126 126 126 125 124 124 126 127 127 127 127 128 129 127 125 126 127 127 127 127 127 125 123 124 125 126 127 127 127 127 127 127 127 127 128 126 123 124 127 128 127 125 124 124 124 124 123 121 120 119 119 120 120 120 120 121 123 125 125 126 127 128 128 128 127 127 127 128 129 129 130 130 129 128 128 127 127 126 127 127 127 126 127 129 130 131 132 132 132 133 133 131 129 128 128 127 127 126 126 126 126 127 127 127 128 128 127 127 127 127 127 127 126 126 126 126 127 127 127 128 128 127 127 127 127 128 128 128 128 127 127 127 127 127 128 128 128 128 128 128 127 127 127 126 126 126 126 126 126 127 127 127 128 128 128 127 127 127 127 127 127 127 127 127 127 127 127 127 127 127 128 127 127 127 127 127 127 127 127 127 127 128 128 128 128 128 128 128 128 128 127 127 127 127 127 126 127 127 127 127 127 127 127 127 127 128 128 128 127 127 127 127 128 127 127 127 128 128 127 127 126 126 126 126 127
126 126 127 127 127 127 128 129 129 129 129 129 129 129 128 128 129 129 128 128 127 127 126 126 125 125 125 126 126 125 126 128 128 128 127 127 127 126 124 125 126 127 127 127 127 127 126 125 126 127 128 127 127 126 126 126 127 127 127 127 126 125 126 127 126 125 125 124 124 123 123 121 119 119 120 121 121 121 121 121 120 120 121 122 124 126 127 129 129 128 128 128 128 129 129 129 130 130 130 129 129 129 128 127 126 126 126 126 127 128 129 131 132 133 134 134 135 134 133 131 129 128 127 126 126 126 126 127 127 127 127 127 127 127 127 127 127 127 127 128 128 128 128 127 127 127 127 127 128 128 128 127 127 127 127 127 127 127 127 127 127 127 127 127 127 127 127 127 127 127 127 127 127 127 127 127 128 128 128 127 127 126 126 126 126 127 127 128 128 127 127 127 127 127 127 127 127 127 128 127 127 127 127 127 127 126 126 126 126 127 127 127 127 127 128 127 127 126 126 126 126 125 125 125 126 126 126 126 126 127 128 128 128 128 127 127 127 127 127 127 128 128 127 127 127 127 127 127 127 127
127 127 127 127 128 127 127 127 127 128 128 129 128 128 128 128 128 128 128 127 127 127 127 127 126 126 125 126 126 125 126 126 127 127 127 127 126 124 123 125 126 127 127 127 128 128 127 127 127 129 130 129 127 126 125 126 127 127 127 126 125 126 128 128 126 125 124 124 125 125 125 124 123 122 123 123 123 123 122 122 122 120 120 121 122 124 126 127 127 127 126 126 126 126 127 128 128 128 128 128 128 128 127 126 126 126 126 127 128 129 130 132 133 133 133 133 135 138 140 139 134 130 129 128 127 127 126 126 126 126 126 126 127 127 127 127 127 127 128 128 128 127 127 127 126 126 127 127 127 127 127 127 127 127 127 127 127 127 127 127 127 126 126 127 127 127 128 128 128 128 128 128 128 128 128 128 128 128 128 127 127 127 126 126 126 126 126 127 127 127 127 127 127 127 127 127 127 128 128 128 127 127 127 127 127 127 126 126 126 126 126 127 127 127 128 128 128 127 127 127 128 127 125 124 124 125 125 126 127 127 127 127 127 127 127 126 126 126 127 127 128 128 128 128 128 128 128 128 128 127
127 127 126 126 126 126 125 125 125 126 127 127 127 127 127 126 126 126 126 127 127 127 127 127 127 127 127 126 125 125 125 125 126 126 127 127 127 126 126 126 126 127 127 127 128 128 127 127 128 129 130 129 128 128 127 127 127 128 127 126 125 126 127 126 124 123 124 125 126 125 125 126 126 126 125 124 124 124 124 124 123 123 122 122 122 123 124 123 123 123 124 124 125 126 127 127 127 126 126 127 127 127 127 127 126 127 128 130 132 134 136 137 138 138 137 136 135 134 137 141 142 139 135 132 130 128 127 126 126 125 125 125 126 126 127 127 127 127 127 127 127 127 127 127 127 127 127 127 127 127 128 128 128 127 127 127 127 127 127 127 127 127 127 127 128 128 129 128 128 128 128 128 128 128 128 127 127 127 126 126 126 126 126 126 126 126 127 127 127 127 127 127 127 127 127 127 127 127 127 127 127 126 126 127 127 128 128 128 127 127 126 127 127 127 127 128 128 127 128 128 129 128 127 126 125 125 126 127 127 128 127 126 126 126 126 126 126 126 127 128 128 128 127 127 128 128 128 127 127 127
127 127 127 126 125 125 124 124 125 126 126 127 128 128 127 126 125 125 126 126 126 127 127 129 129 128 127 126 125 125 126 127 127 127 127 128 128 127 127 127 127 127 127 127 127 127 127 127 127 127 126 126 127 128 128 128 127 127 127 127 126 127 127 126 125 123 124 125 126 126 125 124 124 125 126 125 125 125 125 125 124 124 124 125 125 124 123 123 123 123 124 124 126 127 128 128 128 128 127 127 127 127 128 128 128 129 130 130 132 134 135 136 137 139 141 143 141 136 131 132 137 142 142 139 135 132 130 128 127 126 126 125 125 126 127 127 126 126 126 126 127 127 127 127 127 127 127 127 127 127 127 127 127 127 127 127 127 127 127 127 127 127 127 127 127 128 128 128 128 128 127 127 127 127 126 126 126 125 126 126 126 127 127 127 127 127 127 127 127 127 126 126 126 126 126 126 126 126 126 126 125 125 126 126 127 128 129 129 128 128 127 127 127 127 127 127 127 127 128 128 127 127 127 127 126 126 127 127 128 128 127 126 125 125 125 126 126 126 126 126 127 127 127 127 127 127 126 126 126 127
127 127 128 128 128 129 129 129 129 127 127 127 127 128 128 129 128 127 126 127 128 129 129 129 129 128 127 126 125 126 127 128 128 127 127 127 127 126 126 127 127 127 127 127 127 127 127 127 127 127 125 125 126 127 127 127 127 127 127 127 127 126 125 123 123 123 123 124 125 125 124 122 122 122 123 122 123 125 126 126 126 126 125 124 124 123 123 123 124 125 126 126 126 127 127 127 128 129 129 128 127 127 128 128 129 130 130 130 129 129 130 130 132 135 139 141 143 142 137 130 128 133 140 143 142 138 133 130 129 128 127 126 126 126 126 126 126 126 126 127 127 127 127 127 127 127 127 127 127 127 127 127 127 127 127 127 127 127 127 127 127 126 126 126 126 126 126 127 127 127 127 127 127 126 126 126 126 126 126 126 127 127 128 128 128 127 127 127 127 127 127 126 126 126 126 126 127 127 127 126 126 126 126 126 126 126 127 127 128 128 128 127 127 127 127 127 127 127 127 126 126 126 126 127 127 127 127 127 127 127 127 127 126 126 126 126 126 125 125 125 126 126 126 127 127 127 126 126 127 127
128 128 128 128 128 129 130 129 129 128 127 126 126 127 128 129 129 128 127 127 128 129 128 127 127 127 127 126 127 127 127 127 127 127 126 125 125 126 126 127 127 127 127 128 127 127 126 126 127 127 126 125 126 127 127 127 127 127 127 126 126 126 125 122 120 121 122 121 121 120 120 121 121 120 118 118 120 123 126 126 126 127 126 124 123 123 123 123 125 125 125 125 126 126 126 126 127 128 128 127 127 127 127 127 128 128 128 128 127 127 128 129 130 133 134 134 135 137 138 136 132 128 128 133 139 142 139 135 134 132 131 130 129 128 127 127 127 127 127 127 127 127 127 127 127 127 127 127 127 127 127 127 127 127 127 127 127 127 127 127 127 126 126 126 126 125 125 125 126 126 127 127 128 128 128 128 128 127 127 127 127 127 127 127 127 127 127 128 128 128 128 128 127 127 127 127 127 127 127 127 127 127 126 125 125 125 125 125 126 126 127 127 127 127 127 127 127 127 126 125 124 125 126 126 127 126 126 126 125 126 127 127 128 127 127 127 127 127 126 126 126 126 127 127 127 127 127 127 127 127
127 127 127 127 127 126 126 126 126 126 126 126 126 126 126 126 126 128 129 129 127 127 127 127 127 127 127 127 128 129 128 127 127 127 126 126 126 126 126 126 126 127 127 127 127 127 126 126 125 125 126 126 126 127 127 126 126 127 127 126 126 127 126 123 120 120 120 120 119 119 120 121 121 119 117 118 120 121 122 123 123 124 125 125 125 125 124 124 124 125 125 125 125 124 124 125 126 126 126 126 127 128 127 127 126 126 127 128 128 128 128 129 130 131 130 129 129 129 132 136 138 135 129 124 126 131 135 137 137 136 135 134 133 132 130 128 128 128 128 128 127 127 127 127 127 127 127 127 126 126 126 126 127 128 128 127 127 127 127 127 127 127 127 127 127 127 127 127 127 127 127 128 128 129 129 129 129 129 128 128 128 127 127 126 126 126 126 127 127 127 128 128 127 127 127 127 126 126 126 126 127 127 127 127 127 127 126 126 126 126 127 127 127 127 128 128 128 128 127 127 127 127 127 127 127 126 126 126 125 125 126 126 127 127 127 127 127 127 127 127 127 127 127 127 127 127 126 126 126 126
126 126 127 127 127 126 126 126 126 127 128 128 128 127 126 126 126 127 129 129 128 127 127 126 126 127 127 129 129 128 128 127 126 126 126 126 126 126 126 126 126 126 127 127 127 127 127 126 125 125 125 126 126 126 127 127 127 127 128 128 127 126 125 123 121 121 121 121 120 120 120 119 119 119 120 121 121 120 119 120 121 122 123 124 125 126 125 124 124 125 126 126 125 124 124 124 125 125 126 127 128 128 128 127 127 127 127 128 129 129 128 127 128 127 125 124 125 127 130 134 138 141 141 135 126 122 124 129 131 133 134 133 132 131 130 128 128 128 128 127 127 127 128 128 127 127 127 127 126 126 127 127 127 128 128 127 127 127 127 127 127 128 130 132 133 134 135 136 137 137 137 136 133 131 130 129 129 129 129 129 129 129 128 128 128 127 126 126 126 127 127 127 127 127 127 127 127 127 127 127 127 128 128 129 129 129 128 127 127 127 127 127 127 127 128 128 128 128 129 130 130 129 128 127 127 127 127 127 126 126 126 126 126 127 127 127 126 126 127 127 128 128 128 128 128 127 127 127 127 127
127 127 127 127 127 126 126 126 127 128 128 128 128 128 127 126 127 128 127 127 127 127 126 126 127 128 129 129 128 127 126 126 126 126 125 125 125 126 127 127 127 127 127 127 127 127 126 126 125 125 125 126 127 127 126 126 126 126 128 128 127 126 125 124 123 124 124 122 121 120 120 119 120 121 124 124 123 122 122 123 123 122 123 124 125 125 125 125 126 126 126 126 126 126 126 126 126 126 128 129 128 128 128 129 130 129 129 129 129 129 128 126 125 125 124 124 125 127 130 133 135 137 140 142 139 133 126 122 123 125 127 128 127 127 128 127 127 127 127 127 127 127 127 127 127 127 127 127 126 127 127 127 127 127 127 127 127 127 127 128 130 132 134 135 135 136 136 136 137 137 138 138 136 135 133 131 130 130 129 128 128 128 129 130 131 129 128 128 127 127 127 127 127 127 127 127 127 128 128 128 129 128 128 129 129 129 128 128 127 127 127 126 126 126 127 127 127 127 128 129 129 128 127 127 127 128 128 128 127 126 126 125 126 126 126 126 126 126 126 127 128 128 128 127 127 127 127 127 127 127
127 127 127 127 128 128 128 128 127 126 126 126 126 126 127 128 128 128 127 127 127 127 126 127 128 129 129 127 127 127 127 128 129 129 128 127 126 126 126 127 127 127 126 126 126 126 126 126 126 126 126 127 128 129 128 127 126 126 126 127 127 126 126 125 125 125 125 124 124 125 125 124 124 125 124 124 123 124 124 124 124 124 124 124 124 125 125 126 125 125 124 124 125 126 127 128 127 127 128 127 126 126 127 128 129 129 129 129 129 128 128 126 124 123 123 123 125 126 127 128 129 130 132 136 141 143 140 133 126 123 124 125 126 126 126 126 126 126 126 127 127 127 128 128 128 129 131 132 133 133 133 131 129 128 128 127 127 127 128 129 131 132 132 132 131 130 127 126 126 125 124 124 126 128 129 132 134 134 133 131 130 129 129 129 130 130 131 131 130 128 127 126 126 126 126 126 127 127 128 128 129 129 129 128 128 128 128 128 127 127 126 126 125 125 125 125 126 126 127 127 127 127 127 127 127 127 127 127 127 127 127 127 127 127 127 127 127 127 127 127 126 126 127 127 127 127 127 126 126 127
127 127 127 127 128 128 129 128 127 126 125 125 125 126 127 128 128 127 127 127 127 127 127 127 126 126 126 126 127 127 128 128 129 129 129 128 127 126 127 127 127 126 126 125 125 125 126 126 126 126 127 128 128 128 128 128 126 126 126 126 127 126 126 125 124 123 124 126 126 127 128 128 127 126 125 124 124 124 124 125 125 126 126 124 123 124 126 127 126 125 124 125 125 125 125 125 126 125 125 124 124 124 124 124 125 126 127 127 127 126 126 125 123 121 121 121 123 124 125 125 126 127 129 131 135 140 145 145 138 129 125 126 126 126 126 127 127 128 127 127 128 128 129 132 135 137 138 139 141 142 142 141 139 137 134 132 131 131 129 128 126 125 125 125 127 127 126 126 126 124 122 121 122 123 124 125 126 128 132 134 135 134 131 128 127 128 129 130 129 128 127 127 126 126 125 126 126 126 126 127 127 128 128 128 127 127 127 127 127 127 127 127 127 126 126 125 126 126 126 127 127 127 127 128 127 127 127 127 127 128 129 129 128 128 127 128 129 129 128 127 126 126 127 127 128 129 128 127 127 127
127 127 127 127 126 126 127 127 127 127 126 126 126 126 126 126 126 126 126 127 126 126 126 126 125 125 125 126 126 127 127 127 127 126 127 127 128 128 129 129 128 126 125 125 125 125 126 127 128 128 128 127 127 127 127 126 126 126 126 126 127 127 127 126 125 125 124 124 124 124 124 125 125 124 125 126 127 127 127 127 127 127 127 127 125 125 125 125 125 125 126 127 127 127 126 124 124 124 124 124 124 124 123 122 123 124 124 124 124 124 124 123 122 121 119 119 119 121 124 125 125 126 128 129 131 134 137 142 143 138 131 128 129 130 131 132 133 133 133 132 130 130 131 134 138 139 137 135 133 133 133 135 138 141 141 138 134 132 130 128 126 125 123 123 123 124 127 129 129 129 127 127 126 126 125 123 121 122 124 126 129 131 132 132 130 129 128 128 128 127 127 127 127 126 125 125 125 126 126 126 126 127 127 127 127 127 127 127 127 127 128 128 128 128 127 126 126 126 127 127 128 129 129 128 128 128 128 128 128 128 128 129 129 129 128 128 128 129 129 129 128 128 128 128 128 128 128 127 127 127
127 127 127 127 126 125 126 126 127 127 127 127 127 127 126 125 125 126 126 126 126 126 126 126 125 125 125 126 127 127 127 127 127 127 126 127 128 129 129 129 128 127 126 126 127 129 129 129 130 130 128 127 126 126 127 127 127 127 127 127 127 127 127 127 126 125 124 123 122 123 123 124 124 124 124 125 127 127 127 127 127 127 127 127 127 125 124 123 123 125 126 126 126 127 127 126 126 126 126 125 125 125 124 123 123 123 122 122 123 123 123 123 122 120 118 117 116 117 119 122 123 124 125 127 128 130 131 133 139 142 138 131 130 132 134 135 135 137 139 140 139 136 132 128 127 130 133 132 127 124 123 123 124 127 132 136 136 136 135 132 129 128 127 126 124 124 124 124 126 129 131 131 128 127 127 127 126 125 123 121 121 123 126 128 130 131 131 130 129 129 129 128 128 128 127 126 126 126 126 126 126 127 127 127 128 129 129 128 127 128 128 128 129 129 128 128 127 127 127 127 128 129 129 129 129 129 130 129 129 129 128 128 128 128 128 128 127 128 128 128 128 128 128 127 127 126 126 126 126 127
127 127 127 127 126 125 125 126 127 127 127 127 127 127 127 126 126 126 126 126 126 127 127 127 126 126 126 126 127 127 126 126 126 127 127 127 128 128 127 126 126 127 128 129 130 130 130 129 128 128 128 127 126 126 126 127 127 127 127 127 127 127 127 127 126 125 125 124 124 125 125 125 125 125 125 124 125 126 126 127 127 127 126 126 126 126 126 125 124 125 125 125 125 126 127 128 127 127 127 126 124 123 124 126 126 125 124 124 125 125 124 124 122 121 120 119 117 115 114 117 119 121 122 124 125 126 127 129 133 138 139 135 130 128 129 131 132 131 131 134 138 138 134 128 123 123 127 131 131 129 128 127 124 120 119 124 131 137 138 137 134 131 128 127 127 127 125 123 122 124 129 133 133 131 129 128 128 127 127 126 124 123 123 124 125 126 127 127 128 129 129 129 129 129 128 128 127 126 126 126 126 126 126 127 127 128 128 128 127 127 128 128 128 128 128 128 128 127 127 127 127 128 129 129 129 129 129 129 129 129 128 128 128 128 128 128 127 127 127 127 126 126 126 126 126 126 127 127 127 127
127 127 127 127 127 127 127 128 129 129 128 127 127 127 127 127 128 127 127 126 126 127 127 127 127 127 127 126 126 126 126 126 126 126 127 127 127 127 127 126 126 127 129 129 129 128 127 127 127 127 128 127 127 127 126 126 127 127 127 127 126 127 127 127 126 126 125 125 125 125 126 126 126 126 126 126 126 126 128 128 127 126 124 125 126 127 127 127 127 127 126 125 124 125 126 127 127 126 126 125 124 123 124 126 128 128 128 128 127 126 125 123 122 123 123 122 120 117 114 112 113 116 118 120 122 123 125 126 128 131 137 140 136 130 126 127 127 125 122 121 123 127 131 134 134 129 124 125 129 131 130 129 129 128 123 119 120 124 129 132 134 134 133 130 128 127 126 126 125 123 122 125 130 133 132 130 129 129 128 128 128 127 126 125 124 123 123 124 125 126 127 128 128 128 128 128 128 127 127 126 125 125 125 126 125 125 125 126 127 128 127 127 127 127 127 127 128 127 127 126 126 127 127 128 128 128 127 128 128 128 127 127 127 127 128 128 128 127 126 126 126 126 126 126 126 126 127 128 128 128
127 127 127 127 127 127 127 128 129 129 128 127 127 127 127 128 128 128 127 127 126 126 127 127 128 127 127 127 127 126 126 126 127 127 127 127 127 127 127 127 127 127 128 127 127 127 127 127 127 127 128 128 127 126 126 126 127 127 128 127 127 127 128 129 129 129 128 127 127 127 127 127 128 130 133 135 132 129 127 127 127 126 125 125 126 126 126 127 128 128 127 126 126 126 126 126 127 127 126 126 126 126 126 125 126 127 128 129 128 127 126 126 127 128 127 125 123 122 118 113 110 111 113 116 119 121 122 123 124 127 132 138 139 135 130 126 124 125 125 124 122 120 122 126 130 131 128 127 128 130 130 127 126 129 131 127 120 117 118 123 127 129 131 131 131 129 127 126 126 125 123 122 123 127 131 131 129 128 127 128 128 129 128 127 126 125 124 124 125 126 128 128 128 128 128 129 129 129 128 127 126 126 126 126 126 126 126 127 128 128 127 127 127 127 127 127 127 127 127 126 125 125 126 126 127 127 127 127 127 127 127 127 127 127 127 128 128 128 127 127 127 127 127 127 126 126 126 127 128 127
127 127 127 127 127 127 126 126 125 125 126 127 127 127 128 127 127 127 127 127 127 127 127 127 127 127 127 127 127 127 127 127 127 127 127 127 126 126 127 128 128 128 127 127 127 127 127 127 126 127 127 128 127 127 127 127 127 128 128 128 127 128 128 129 129 129 128 128 127 127 128 131 134 136 137 136 133 129 125 124 124 126 127 126 125 125 125 126 126 126 126 127 127 126 125 125 125 125 126 127 129 129 128 126 125 125 126 127 128 129 131 134 135 134 132 130 129 127 124 120 116 113 112 113 115 118 120 122 124 126 127 129 132 134 132 128 126 128 130 130 129 126 123 121 118 118 122 125 126 127 128 127 124 124 128 131 128 123 121 122 123 124 125 127 128 128 128 128 127 127 127 126 125 125 126 129 130 128 127 127 127 127 128 129 128 127 126 126 126 128 128 128 128 128 128 128 128 128 128 127 127 127 127 127 127 127 127 127 127 127 127 127 128 128 128 128 127 127 127 127 126 125 125 126 126 126 127 127 127 127 128 128 128 127 127 127 127 128 128 128 128 128 127 127 126 126 126 126 126 126
127 127 127 127 127 127 126 125 125 125 126 127 128 128 127 127 127 127 127 128 128 127 127 127 127 127 127 127 127 127 127 127 127 127 127 128 128 128 128 128 128 128 127 127 126 126 127 127 127 127 127 127 128 128 128 127 127 127 126 127 128 128 127 126 126 127 127 128 130 133 135 138 139 138 134 131 129 128 126 124 123 125 127 126 124 124 124 124 124 124 125 125 125 124 123 122 122 122 124 126 128 129 128 127 125 124 125 125 127 129 132 134 136 137 138 137 133 129 126 125 123 119 115 112 112 114 116 118 121 124 125 126 128 131 132 131 130 129 129 128 128 129 129 127 123 118 117 117 117 118 122 126 127 126 124 125 129 129 127 125 125 125 125 123 123 123 125 127 129 131 130 128 128 129 128 128 129 130 129 128 127 126 127 128 129 129 129 129 129 128 127 128 128 128 128 128 128 128 128 128 127 126 126 127 127 127 127 127 127 127 127 127 128 128 128 128 128 128 128 127 127 127 127 126 126 126 127 127 127 127 128 128 128 128 128 127 127 127 127 127 127 127 126 127 127 128 128 127 127 127
127 127 127 128 128 128 127 127 126 126 126 127 127 127 127 126 126 126 127 127 128 128 128 127 127 127 127 127 127 127 128 128 128 129 129 129 129 128 128 127 127 127 128 127 127 127 127 127 127 127 126 127 127 128 128 128 127 127 126 126 127 128 127 126 127 129 134 138 141 142 141 139 137 135 133 132 130 128 127 126 125 125 126 126 124 124 124 124 123 122 123 124 124 124 123 122 122 122 123 123 124 125 126 126 125 123 122 123 124 125 127 129 131 135 139 141 139 135 130 127 126 124 121 117 114 113 115 117 119 120 122 124 124 126 128 131 130 128 125 125 127 129 129 129 129 128 125 120 118 118 120 124 127 128 125 123 125 127 127 126 125 126 126 125 124 124 124 125 126 129 130 130 128 128 129 129 130 131 130 129 128 126 126 126 127 128 130 130 129 127 127 127 127 127 128 128 128 128 129 128 127 127 127 127 127 127 127 127 127 127 127 127 127 127 127 127 127 127 128 128 128 128 127 127 126 126 126 127 127 127 127 128 128 128 128 127 127 127 127 127 126 126 126 127 128 129 129 129 128 128
128 128 128 128 128 128 128 128 127 127 126 126 126 127 127 127 127 127 127 127 127 127 127 128 127 127 127 127 127 127 128 128 128 128 128 127 127 127 127 127 127 127 128 128 128 127 127 127 127 126 126 126 127 128 128 128 128 128 127 126 126 127 129 132 136 140 143 145 143 138 135 133 133 134 135 133 131 130 128 127 126 124 123 123 124 125 125 124 122 122 122 123 124 124 126 126 125 124 123 124 124 125 125 124 123 120 118 117 118 120 122 125 129 132 134 138 142 143 138 131 127 126 125 123 120 116 116 117 118 117 118 119 121 123 126 128 129 128 126 125 125 127 129 129 129 128 128 126 125 123 122 123 125 127 128 127 125 125 127 128 126 127 128 129 128 128 128 127 124 122 124 127 128 127 127 129 130 130 130 130 129 128 127 126 126 127 127 127 127 126 126 126 126 127 127 128 128 128 128 128 128 128 128 128 128 128 127 127 127 127 127 127 127 127 127 127 127 127 127 128 128 128 128 128 127 127 127 127 127 127 127 127 127 127 127 127 127 127 127 127 127 128 128 128 128 128 128 128 128 128
128 128 128 128 127 127 128 128 128 127 127 126 126 127 127 127 127 127 127 127 127 127 127 128 128 128 129 129 129 129 128 127 126 126 126 126 126 126 127 127 127 127 127 127 127 127 127 127 127 128 127 126 126 127 128 128 128 128 128 128 129 132 139 146 147 143 138 133 130 129 130 132 133 134 135 135 134 134 132 128 126 124 122 123 125 126 126 125 125 124 123 123 123 125 126 126 124 124 125 127 127 125 124 123 122 120 118 116 115 116 119 123 126 128 130 133 137 142 142 138 133 129 126 125 124 121 119 117 116 117 118 120 123 125 126 127 128 130 131 129 126 126 129 130 128 127 128 129 127 126 124 124 124 125 127 128 128 127 126 128 128 127 128 130 130 129 128 128 127 124 122 122 124 125 125 126 126 126 127 128 129 129 128 128 127 126 126 126 126 126 126 126 126 126 127 127 127 128 128 128 128 128 127 127 127 128 127 127 127 127 127 127 127 127 127 127 127 127 128 128 128 129 129 129 129 128 127 126 126 126 127 127 127 127 127 127 128 128 128 127 128 129 129 129 128 127 127 127 127 127
128 128 128 129 128 127 128 129 129 128 128 127 127 126 127 128 129 129 129 129 128 128 127 127 128 129 129 129 129 129 129 128 127 127 127 127 127 127 127 126 126 126 126 127 127 127 127 127 127 128 128 128 127 127 127 127 127 128 130 135 139 141 143 143 139 133 128 125 125 127 131 134 134 133 134 135 134 133 133 130 127 125 125 125 126 126 126 126 127 126 125 124 124 124 124 124 125 126 127 128 128 127 126 125 124 123 122 121 120 119 120 122 123 125 127 128 130 132 138 142 140 134 129 127 125 125 123 120 119 120 121 123 124 126 126 127 129 131 133 132 130 128 127 128 129 128 127 129 129 128 126 125 125 125 126 128 129 128 127 126 126 127 127 129 130 129 128 127 127 127 126 124 123 122 122 123 124 125 126 128 129 129 128 128 127 126 125 124 125 126 127 127 128 129 129 128 127 127 127 128 128 127 127 126 126 127 127 128 128 128 128 128 127 127 127 128 127 127 128 128 129 128 128 128 128 128 128 127 127 127 127 127 126 126 127 127 127 126 126 127 127 128 128 128 127 127 126 126 126 127
127 127 128 128 128 127 127 127 128 128 127 127 127 127 127 128 129 129 129 128 128 127 127 127 127 128 128 128 127 127 127 128 128 127 128 128 128 127 126 126 126 126 126 127 127 126 126 126 126 127 128 129 129 128 127 127 128 132 138 142 143 140 135 129 125 125 125 125 125 127 130 131 131 131 130 129 129 129 130 130 128 126 125 125 125 124 124 124 125 127 126 126 125 124 123 124 126 128 129 129 129 130 131 132 131 129 127 124 122 121 121 121 123 124 124 125 127 129 133 138 142 140 135 131 128 126 125 124 123 122 121 122 122 123 124 125 126 128 129 129 131 129 125 125 127 129 128 127 128 129 128 127 125 126 127 128 128 129 128 126 126 126 127 127 129 130 129 127 127 128 129 128 126 124 123 122 122 124 127 128 128 128 128 128 127 126 125 125 126 126 127 127 128 129 130 130 128 127 127 128 128 127 127 126 127 127 127 127 128 128 128 128 128 128 128 128 128 128 128 128 128 128 127 127 127 128 128 128 128 127 127 127 126 126 126 126 126 126 126 127 127 127 127 127 127 127 126 126 126 127
127 127 127 126 125 126 126 125 125 127 128 128 128 127 127 127 127 127 127 126 126 127 127 127 126 126 127 127 127 126 126 127 128 128 128 128 127 126 126 126 126 126 127 127 126 126 126 126 126 127 127 127 127 128 128 129 133 139 141 139 135 132 127 122 119 119 120 120 122 125 129 129 128 127 126 125 125 127 128 128 128 127 125 124 124 124 124 124 125 126 127 127 126 126 126 126 126 127 128 129 130 132 133 135 137 136 132 127 124 122 120 119 119 119 121 122 124 126 129 131 137 141 141 137 131 128 128 127 126 125 122 121 121 122 123 124 124 125 126 128 129 128 126 124 126 128 129 128 127 128 129 128 126 125 125 126 127 128 129 129 127 126 126 126 127 129 130 129 127 127 128 128 128 126 125 123 123 123 124 126 127 128 129 129 128 127 127 127 127 127 127 127 127 127 128 128 128 128 128 127 127 127 127 128 127 127 127 127 127 127 127 127 127 127 128 127 127 127 127 127 127 127 127 127 127 128 128 128 128 127 127 126 126 126 126 126 126 127 127 128 127 127 127 127 127 127 127 127 126 127
127 127 126 125 126 126 126 126 126 127 128 128 127 127 127 126 126 126 126 127 127 127 127 127 127 126 126 126 126 126 126 127 128 128 128 127 126 126 126 127 127 127 127 126 126 126 127 127 127 127 127 126 126 127 128 131 137 138 134 130 128 125 121 119 119 119 119 120 122 126 129 128 126 125 125 126 127 128 129 130 132 131 128 124 122 124 125 126 125 125 125 126 125 125 126 127 127 126 126 128 129 130 131 132 134 137 138 135 129 125 121 118 116 116 117 118 121 124 126 128 131 135 140 140 136 131 129 128 128 127 126 124 123 123 124 125 124 124 126 127 128 128 128 127 125 125 127 128 127 126 127 127 127 126 125 126 127 128 129 130 129 127 126 127 127 127 128 129 128 127 126 127 129 129 127 125 124 124 124 126 127 128 129 129 128 128 128 127 127 127 127 127 127 126 126 126 127 128 128 127 128 128 128 128 127 127 127 127 127 128 128 127 127 127 127 127 127 127 127 127 127 127 127 127 127 128 128 128 127 127 126 126 126 126 126 126 127 127 127 128 127 127 127 127 127 127 128 127 127 127
127 127 126 126 127 127 128 127 127 127 126 126 127 127 127 126 126 126 127 127 128 128 128 127 127 126 126 126 126 127 128 128 127 127 126 126 126 126 127 127 127 127 127 127 128 129 128 128 128 127 127 126 126 127 130 136 137 132 126 122 118 117 118 121 122 121 121 123 128 132 130 127 126 125 126 128 130 133 133 133 134 134 131 127 124 123 124 124 124 124 125 125 125 125 125 126 127 126 125 125 125 126 127 128 129 133 138 141 139 132 126 121 118 118 118 118 120 123 125 126 127 130 134 138 140 136 131 127 126 127 128 127 126 125 123 124 125 125 125 126 127 129 130 131 128 126 126 127 127 127 127 127 127 127 126 126 127 128 128 128 128 128 127 127 127 127 126 127 129 128 127 127 129 130 130 129 127 126 126 125 126 127 127 127 127 127 127 127 127 128 129 129 128 127 127 127 128 128 128 128 128 128 128 127 127 127 128 129 129 128 128 128 127 127 127 127 127 127 127 127 127 127 127 127 127 127 127 127 127 127 127 126 127 127 128 128 127 127 127 127 127 127 127 127 127 127 128 128 128 127
126 127 127 128 128 128 128 128 127 126 127 127 127 128 129 129 129 127 127 127 127 127 127 127 127 127 128 128 128 128 128 128 127 127 127 127 127 127 127 127 127 127 127 127 128 128 128 128 128 127 126 126 126 127 131 133 129 122 119 116 114 116 119 123 125 124 125 130 136 136 130 127 126 125 126 128 131 133 134 132 132 134 133 131 127 125 124 125 125 125 126 127 126 126 126 127 127 127 125 122 121 122 124 126 127 130 134 141 146 144 136 128 123 121 120 120 119 120 122 124 126 128 130 134 138 139 135 130 127 126 127 128 128 126 124 123 124 125 126 126 126 128 129 130 129 128 127 127 127 127 127 128 127 126 126 126 126 126 126 126 126 128 128 127 127 128 129 128 128 129 128 127 127 129 130 131 130 128 126 124 124 125 125 126 127 127 127 127 128 129 129 129 128 128 128 128 128 128 128 128 128 128 128 128 127 127 127 128 127 127 127 127 127 127 127 127 127 127 127 127 127 127 127 127 127 127 127 127 128 128 128 128 128 128 128 128 128 128 128 128 128 128 127 127 127 127 128 129 129 128
127 127 127 128 128 128 127 127 127 127 128 128 129 129 129 129 129 129 128 127 127 127 127 127 127 128 128 129 129 128 127 127 127 127 128 128 128 128 128 128 127 127 127 127 126 126 127 127 127 127 127 127 127 128 128 125 121 119 118 119 121 122 124 126 127 130 135 140 138 132 127 125 124 125 127 129 131 132 133 133 132 131 132 133 131 128 126 124 124 125 126 127 127 127 127 127 126 125 124 123 122 121 121 124 126 127 129 133 139 145 143 136 128 124 121 119 119 119 119 121 123 125 127 129 132 135 136 133 130 127 126 127 128 128 127 125 123 123 123 124 125 125 126 128 129 128 126 127 127 127 127 127 127 127 126 125 125 125 124 124 125 127 128 127 126 127 129 129 128 129 129 127 126 127 129 130 130 128 126 125 125 124 125 126 127 127 127 127 128 128 128 127 127 127 127 128 128 128 127 127 128 128 128 128 127 127 126 125 125 126 127 127 127 128 128 128 128 128 127 127 127 127 128 128 128 128 127 127 127 128 128 128 128 128 128 128 128 128 128 128 128 128 128 127 127 127 128 128 128 127
127 127 127 126 126 126 126 127 128 128 128 129 129 129 128 127 127 128 128 127 127 127 127 127 128 127 127 127 127 127 127 126 126 127 128 128 128 128 127 127 128 128 127 127 126 126 127 127 127 127 127 128 128 128 127 125 123 122 123 123 125 126 126 126 129 137 144 141 133 126 123 122 123 125 128 131 132 132 133 133 131 129 130 132 133 131 128 125 124 125 125 126 127 127 127 124 122 122 122 123 122 121 120 121 122 123 124 126 129 135 142 144 139 130 123 120 119 118 118 119 121 122 123 124 126 129 133 136 134 129 127 126 126 126 126 127 126 124 122 121 122 123 124 126 127 127 126 126 127 126 126 126 126 126 126 126 125 125 125 125 125 126 127 127 127 126 126 128 128 128 129 128 126 125 126 128 129 129 128 128 126 125 125 126 127 127 127 127 127 126 127 127 126 126 126 126 126 127 127 127 127 127 127 127 127 127 127 126 127 127 127 127 127 128 129 130 130 128 128 127 127 127 128 128 128 127 127 127 127 127 127 127 128 128 128 127 127 127 127 127 127 127 127 127 127 127 127 127 127 127
128 129 129 127 126 126 127 127 127 127 127 128 128 128 127 127 127 127 127 127 126 127 127 127 127 127 127 127 127 127 127 126 127 127 127 126 126 126 126 126 127 127 127 127 127 127 127 128 127 127 127 127 127 127 127 126 125 124 124 126 127 127 126 127 133 139 139 133 127 124 123 123 123 126 129 130 129 128 128 128 129 130 130 131 132 132 130 128 127 125 124 125 126 126 126 124 122 122 121 121 121 121 120 119 119 120 121 123 126 129 135 143 145 138 129 124 121 118 117 118 118 118 119 119 121 124 129 134 136 134 129 126 125 125 126 127 128 126 124 122 121 121 122 123 125 127 127 126 126 126 126 125 126 127 127 127 126 126 127 127 127 126 125 126 128 127 126 126 128 128 128 129 127 125 124 126 128 130 130 129 127 126 125 125 127 128 128 127 126 125 125 126 126 126 125 125 125 125 126 126 127 127 127 127 127 128 128 127 127 127 128 128 128 128 129 129 129 128 128 128 128 128 128 127 127 128 128 127 127 127 127 127 127 127 127 127 127 127 127 127 127 127 127 127 127 127 128 128 128 127
128 129 129 128 127 127 127 126 127 128 128 127 127 127 128 128 127 127 127 127 127 127 127 128 128 128 128 127 127 127 127 127 127 127 127 126 126 126 126 127 128 128 128 127 127 127 127 126 127 127 127 127 127 126 126 126 125 125 126 128 129 129 129 133 137 134 128 124 121 120 119 121 124 127 129 128 127 125 123 124 127 130 131 130 130 130 130 129 128 126 124 124 125 125 126 126 127 126 125 123 121 120 119 118 118 119 120 121 123 125 128 133 138 141 137 130 125 121 120 118 117 117 117 118 119 121 125 129 134 137 134 130 128 128 128 127 126 126 125 125 124 123 123 122 123 125 126 126 126 126 126 125 126 128 128 128 127 127 127 127 126 126 125 125 126 127 126 126 127 128 128 129 128 127 125 124 126 129 130 129 128 127 126 126 126 127 128 128 127 126 125 125 126 126 126 126 126 126 126 127 127 127 127 128 128 128 128 128 128 128 128 128 128 128 127 127 127 127 127 128 128 128 128 128 129 128 128 128 127 127 127 127 127 127 127 127 127 128 128 127 127 127 127 127 128 128 128 128 128 127
127 126 126 126 127 126 127 127 127 128 128 128 127 127 127 127 127 127 127 127 127 127 127 127 128 128 128 127 127 126 127 127 127 127 127 127 127 127 127 127 128 128 128 128 128 128 127 126 126 126 127 127 127 128 128 127 126 126 128 129 129 130 135 140 136 127 122 120 119 118 119 121 125 129 129 126 124 123 123 123 125 127 129 129 129 129 130 131 130 128 126 124 124 125 126 128 130 129 127 125 124 122 121 120 119 120 119 118 119 121 124 127 131 137 140 136 129 126 123 120 118 118 118 119 120 122 124 127 130 134 137 135 131 128 127 127 126 126 127 127 126 125 125 124 124 124 125 125 125 126 126 127 128 128 128 127 127 127 127 127 127 127 126 125 124 124 125 126 127 128 128 128 129 128 127 125 125 126 128 129 129 128 128 127 126 127 127 128 128 128 128 128 129 129 128 128 128 127 127 127 127 127 128 127 127 127 127 127 127 127 127 127 127 127 127 127 127 127 127 128 128 128 128 128 128 128 128 128 128 128 127 127 127 128 128 128 128 128 128 128 128 128 128 128 128 128 127 127 127 127
126 125 125 126 127 127 127 128 128 126 126 127 127 127 127 127 127 127 127 128 128 128 127 127 127 127 127 127 127 127 127 127 127 127 127 128 128 128 127 127 126 127 127 128 128 129 128 127 126 126 126 127 127 128 128 128 127 127 127 126 127 131 137 136 129 124 121 118 119 120 122 125 128 129 127 124 122 123 124 126 126 127 127 128 129 130 130 131 131 130 129 126 124 124 125 127 127 127 126 126 127 127 125 123 121 120 120 119 119 120 122 124 128 132 137 139 135 130 126 124 122 122 122 122 123 124 126 127 127 129 133 135 132 128 126 126 127 127 127 127 126 127 126 125 125 126 126 126 126 127 128 129 129 128 127 127 127 127 127 127 127 126 127 126 125 124 124 125 126 126 126 126 127 128 128 127 125 124 125 127 129 130 129 127 126 126 126 127 127 128 128 128 129 129 129 129 128 128 127 127 127 127 127 127 127 127 127 127 127 126 126 126 126 126 126 126 127 127 127 127 127 127 126 126 126 127 127 128 128 128 128 127 127 127 128 128 128 128 128 128 128 128 128 127 127 127 127 127 127 127
126 126 126 127 127 127 127 127 126 126 125 125 126 126 127 127 127 127 127 127 128 128 127 127 126 127 127 127 128 128 128 127 127 127 128 128 128 128 128 127 127 126 126 127 127 127 128 128 128 128 127 127 127 127 127 126 126 127 125 125 128 134 133 128 124 123 121 120 120 122 124 128 129 127 124 123 124 125 126 127 128 128 127 128 129 129 129 129 129 129 130 128 126 124 124 124 125 125 126 127 127 128 127 126 124 122 122 121 120 121 122 123 126 129 134 139 139 135 131 128 126 124 124 124 124 125 126 126 126 127 129 132 133 131 128 127 127 127 127 127 128 128 127 127 126 125 125 125 126 127 128 128 127 126 127 127 128 127 127 126 126 126 126 126 126 126 125 125 124 124 125 125 126 127 128 127 126 125 124 126 128 129 128 128 127 126 126 126 127 127 126 126 126 127 128 129 129 128 127 127 127 128 128 127 127 127 127 127 127 127 126 126 126 126 126 126 126 127 127 127 127 126 126 126 126 127 127 127 128 128 128 127 127 127 127 127 127 127 127 127 127 127 127 127 127 127 127 127 127 127
127 127 127 127 127 127 127 126 126 126 126 125 125 126 126 126 126 126 126 126 126 126 126 126 127 127 127 127 127 127 127 127 127 127 127 127 128 128 128 128 128 127 127 127 127 127 127 128 128 128 128 127 128 128 127 125 125 126 127 128 132 134 129 123 121 122 123 123 123 125 128 131 129 125 123 124 126 127 128 129 129 127 125 125 125 126 128 128 127 127 128 127 127 126 124 123 124 126 128 129 129 129 128 128 127 125 122 121 121 121 121 122 123 124 127 131 135 136 133 129 126 125 124 124 124 124 123 122 122 123 124 128 132 134 133 129 127 126 127 128 128 127 127 127 126 125 125 125 125 126 127 127 127 126 126 126 127 126 126 125 125 125 124 124 125 125 126 125 124 124 124 125 126 127 128 127 127 126 126 126 126 127 127 128 127 127 126 127 127 127 127 126 126 126 126 128 128 128 128 128 127 127 127 127 127 128 128 127 127 127 127 127 127 127 126 126 126 127 127 127 127 127 126 126 126 127 127 127 127 127 127 127 127 127 127 127 127 127 127 127 127 127 127 127 127 127 127 127 127 127
128 128 128 127 127 127 127 127 127 127 127 127 126 127 127 126 126 126 126 126 126 126 126 126 126 126 126 126 127 126 126 126 126 127 127 127 128 128 129 129 128 128 127 127 127 127 127 127 127 127 128 128 128 128 128 127 126 127 129 133 134 129 123 119 118 119 122 123 123 125 130 131 128 125 124 125 126 128 129 130 129 126 124 124 125 125 127 128 128 127 127 127 128 127 126 124 125 127 129 130 130 129 130 130 130 128 125 122 120 119 118 119 120 121 122 123 126 129 129 128 127 126 125 125 124 123 121 120 120 121 121 123 128 133 135 133 130 128 127 127 126 126 126 126 126 126 127 128 128 128 127 127 127 127 128 128 126 126 125 125 125 125 125 126 126 126 126 125 125 124 124 124 125 127 127 127 127 126 126 126 125 125 126 127 127 127 126 127 127 127 127 127 127 126 126 126 127 128 128 127 127 127 127 128 127 127 127 127 127 127 127 128 127 127 126 126 126 127 127 127 126 126 126 127 127 127 127 127 127 127 127 127 127 127 127 127 127 127 127 127 127 127 127 127 127 127 127 127 127 127
127 127 127 127 127 127 127 127 128 128 127 127 127 126 126 126 126 126 126 126 127 127 127 127 127 126 126 126 126 126 126 126 127 127 127 127 128 128 128 127 127 126 127 126 126 127 127 127 127 127 128 128 128 127 127 127 128 129 133 135 132 126 121 120 119 118 120 122 125 129 133 131 126 124 124 125 127 129 130 129 128 127 127 126 125 126 126 127 127 127 127 127 128 128 127 126 125 125 126 127 127 128 129 129 129 129 128 125 122 120 118 118 118 119 119 120 122 124 127 129 129 128 127 126 125 124 123 122 123 122 122 122 124 128 132 134 134 131 128 127 126 126 126 127 127 127 128 129 130 129 128 127 127 127 128 128 127 126 126 127 127 127 127 127 127 127 126 125 125 125 125 125 125 126 126 126 126 126 126 125 125 125 126 126 126 126 127 127 127 127 127 128 128 128 127 126 126 127 128 129 128 127 127 127 127 127 127 127 127 127 127 127 126 126 126 126 126 126 126 126 126 126 127 127 127 127 127 127 127 127 127 127 128 127 127 127 127 127 128 128 128 128 127 127 127 127 127 127 127 127
126 126 127 127 127 127 127 127 127 127 127 127 127 126 126 126 126 126 126 127 127 127 127 127 127 127 127 127 127 127 127 127 127 127 127 127 127 127 126 126 127 127 127 127 127 127 127 127 127 127 127 128 127 126 126 126 127 129 132 130 126 123 122 122 122 121 122 124 129 134 133 128 124 124 125 126 128 129 128 126 125 124 124 124 124 124 124 125 126 126 127 127 127 127 127 127 126 124 124 125 126 126 127 127 127 129 129 128 126 124 121 119 118 117 117 119 121 122 126 128 129 129 128 127 126 125 124 123 123 124 124 124 125 126 128 131 132 131 129 128 127 127 127 127 128 127 127 127 127 128 128 127 127 126 126 126 126 126 126 127 127 127 127 127 127 126 126 126 125 125 125 125 125 125 125 125 125 125 125 125 124 124 125 125 126 126 127 127 127 127 127 127 127 127 126 126 125 126 128 128 128 127 127 127 127 127 127 127 126 127 127 127 126 126 127 127 126 126 126 126 127 127 128 127 127 127 127 126 126 127 127 127 127 127 127 127 127 127 128 128 128 128 128 128 128 128 128 128 128 128
127 127 127 127 127 127 127 127 127 127 127 127 127 127 127 127 127 127 127 127 127 127 127 128 128 128 128 128 128 128 129 129 128 127 127 127 127 127 127 127 127 127 127 127 127 126 126 126 127 127 127 127 127 127 127 127 127 127 125 122 120 119 120 121 124 125 126 127 131 131 126 121 121 123 127 129 128 125 123 121 121 122 122 123 124 125 124 123 124 126 127 128 128 127 127 127 127 126 125 124 125 126 127 128 128 128 128 128 128 126 123 120 118 118 119 120 121 123 125 128 129 129 128 127 126 126 125 124 123 124 124 125 125 125 126 127 129 131 130 128 128 127 127 128 127 127 127 126 126 126 126 126 127 126 125 125 126 126 127 127 127 127 127 126 126 126 126 127 127 127 126 126 125 125 125 125 125 125 125 125 125 124 124 125 126 127 127 127 127 127 128 128 127 126 126 126 126 126 126 126 126 126 126 126 127 127 127 126 126 127 127 127 127 127 127 127 127 127 127 127 127 128 128 128 128 127 127 127 126 126 126 127 127 127 127 127 127 127 127 127 127 127 127 127 127 127 128 128 128 127
128 128 128 127 127 127 127 127 127 127 127 127 127 127 127 128 128 128 127 127 127 128 128 128 128 128 128 128 128 129 129 128 128 128 128 127 127 127 127 128 128 128 127 127 126 126 126 126 126 127 127 127 127 126 125 125 126 127 124 121 119 120 122 124 126 128 129 130 131 127 121 118 119 122 127 128 126 123 120 119 119 121 123 125 125 125 125 124 125 127 127 127 127 127 127 127 127 126 125 124 124 125 126 128 129 128 128 129 129 127 126 124 121 121 121 122 123 124 125 126 127 128 128 128 127 126 125 125 124 124 124 124 124 124 124 125 126 128 129 128 127 127 127 127 127 128 129 128 127 126 126 126 126 127 128 127 126 127 128 128 128 127 127 127 127 127 127 127 127 127 127 126 126 126 126 126 126 127 127 127 126 126 126 126 127 127 127 127 127 127 127 128 127 127 127 127 127 126 126 126 126 127 127 127 127 127 127 127 127 127 127 127 127 127 127 127 127 127 127 127 127 127 127 127 128 127 127 127 127 127 127 127 127 127 127 127 127 127 126 126 127 127 127 127 126 126 126 126 126 127
127 128 128 128 127 127 127 128 127 127 127 128 128 128 128 128 127 127 127 127 128 128 128 128 127 127 126 127 128 127 127 126 126 127 127 127 127 127 127 127 128 128 128 128 128 127 126 126 126 126 127 126 126 126 126 126 127 128 126 124 124 125 127 128 128 128 129 131 131 127 124 123 123 125 127 126 123 120 119 119 120 121 123 124 126 126 126 127 127 127 127 126 125 126 127 126 125 125 125 125 124 124 124 125 126 126 126 128 128 128 127 127 126 125 123 122 123 124 125 125 126 127 128 130 129 128 127 126 126 126 125 125 124 124 123 124 125 126 127 128 127 127 127 127 128 128 129 129 127 126 126 126 127 128 128 128 128 128 129 129 129 129 130 130 129 128 127 127 126 127 127 127 126 126 126 126 127 127 127 127 128 128 129 129 128 127 127 127 127 127 126 126 127 128 128 128 127 127 126 126 127 127 127 127 127 128 128 128 128 127 127 127 126 127 127 127 127 127 127 127 127 127 127 127 127 127 127 127 127 127 127 127 127 127 127 127 127 127 127 127 127 127 126 126 126 126 126 126 126 127
128 128 128 128 128 128 128 128 128 128 128 129 129 129 128 128 127 127 128 128 128 128 128 127 127 128 128 127 127 126 126 126 126 126 126 126 126 126 126 126 127 128 128 129 129 128 127 127 126 127 127 127 127 126 126 128 128 126 125 125 126 127 128 128 128 127 128 129 129 127 127 127 130 132 129 125 122 120 119 121 123 123 123 124 125 125 125 126 126 126 125 126 126 126 126 126 126 126 127 127 126 125 124 123 123 124 124 125 126 126 127 127 127 126 125 123 123 124 125 125 125 126 127 128 129 129 129 128 127 127 126 125 123 122 122 122 124 126 127 128 128 128 128 128 128 128 128 127 127 126 126 127 127 127 127 127 128 128 128 128 128 129 129 129 129 128 127 127 127 127 127 127 127 126 126 127 127 127 127 128 128 129 130 130 129 128 127 128 128 127 127 127 127 128 128 128 127 127 127 127 127 127 127 127 127 127 128 128 128 127 127 127 127 127 128 128 128 127 127 128 128 128 127 127 126 126 126 127 127 127 127 127 127 127 127 127 127 128 127 127 127 127 127 127 127 127 127 127 127 128
128 128 127 127 127 127 127 127 128 128 128 128 128 128 127 127 128 129 129 128 127 127 127 127 128 128 128 127 127 127 127 127 127 127 127 126 126 126 126 126 126 127 128 128 128 129 129 129 128 128 128 128 127 126 125 126 127 126 124 124 125 126 126 127 127 128 129 129 126 124 125 129 134 134 128 122 120 121 122 123 124 125 125 125 124 124 124 124 124 124 124 125 125 126 126 126 127 127 127 127 126 125 125 124 123 123 124 124 124 125 126 126 126 126 125 125 126 125 124 125 125 125 125 126 127 128 128 127 127 126 126 126 125 124 123 123 123 124 126 127 127 128 128 128 128 128 127 127 126 126 126 127 127 127 127 127 128 128 127 126 126 126 126 126 127 127 127 128 129 130 129 128 128 127 127 128 128 128 128 128 128 128 128 127 128 128 128 128 128 129 128 127 127 127 127 127 127 127 128 128 128 128 128 127 127 127 127 128 128 128 127 127 127 127 127 128 127 127 127 127 127 127 127 126 126 127 127 127 127 126 126 127 127 127 127 127 127 127 127 127 128 128 128 128 128 128 128 128 128 127
126 125 125 125 126 126 127 127 126 126 126 126 126 126 126 127 127 128 128 128 127 127 127 128 127 127 127 127 127 127 127 126 126 127 126 126 127 127 127 127 126 126 126 126 127 128 128 128 128 128 127 127 127 126 125 125 125 126 126 126 126 127 127 127 127 129 130 129 126 124 128 134 135 129 123 120 120 121 123 124 124 124 123 123 124 124 125 124 124 125 125 125 125 126 126 126 126 126 126 125 126 127 127 126 125 125 125 125 125 125 125 124 125 125 126 127 127 126 125 125 125 125 126 125 126 127 128 128 127 126 127 127 127 126 125 124 124 123 124 125 126 126 126 126 126 126 126 125 126 126 126 127 127 128 128 127 127 127 127 127 126 126 126 126 127 127 128 129 129 129 129 128 128 127 127 127 127 127 127 127 127 127 127 127 128 128 128 128 128 128 128 128 127 127 127 127 128 128 128 127 128 128 128 128 128 128 128 128 128 128 128 128 128 127 127 127 127 127 127 126 126 126 126 126 126 127 127 127 127 126 126 127 127 127 126 126 127 127 127 128 128 128 127 127 128 128 128 128 127 127
125 125 126 126 126 127 127 127 127 126 126 126 126 126 126 126 126 126 127 128 128 128 127 127 127 127 127 127 126 127 127 127 127 127 127 127 127 127 127 127 126 126 126 126 127 126 127 127 128 127 127 127 126 126 126 125 125 125 126 127 127 128 128 127 127 129 129 127 126 129 134 135 130 122 119 120 121 121 121 122 122 122 122 123 124 125 125 125 125 125 125 125 126 126 126 128 128 129 128 128 128 128 128 127 127 127 126 125 125 125 125 124 125 126 127 127 127 126 125 125 126 126 126 125 125 126 127 127 127 127 128 127 126 126 125 125 125 125 125 125 126 126 126 126 126 126 126 126 126 127 127 127 127 128 127 127 127 127 127 127 127 128 128 128 128 128 129 128 127 127 127 127 127 127 126 126 127 127 128 128 127 127 127 127 128 128 128 127 127 126 127 127 128 127 127 127 127 127 127 127 127 127 127 127 128 128 128 127 127 127 127 127 127 127 127 127 127 127 127 127 127 127 127 127 127 127 127 127 127 127 127 127 127 127 127 127 127 128 128 128 127 127 127 127 127 127 127 127 127 127
127 126 127 127 127 128 128 128 128 128 127 127 126 126 126 127 127 127 127 128 128 128 127 126 126 126 126 126 126 126 127 127 128 128 127 127 127 127 127 126 126 126 127 127 127 127 127 127 127 127 127 127 127 127 127 126 125 125 126 127 127 127 128 128 128 129 128 126 127 132 135 131 124 119 119 121 122 123 123 123 124 125 125 126 126 125 125 126 127 127 127 126 126 126 127 128 128 128 129 129 128 127 127 128 128 128 127 127 127 128 129 128 127 127 127 126 126 126 126 127 127 126 126 126 126 125 125 126 127 127 126 126 126 126 126 126 125 125 125 126 126 126 126 126 127 127 127 128 129 128 128 128 127 127 127 127 127 127 127 127 128 128 128 128 128 128 128 127 127 127 127 128 128 128 127 127 128 129 128 128 127 126 126 126 126 127 128 128 127 126 126 126 127 127 127 127 126 126 127 127 126 127 127 127 127 126 127 127 127 126 126 126 127 127 127 127 127 127 127 127 127 127 127 127 127 127 127 127 127 127 127 127 127 127 127 127 127 127 127 127 127 127 127 127 127 127 126 126 126 126
127 127 127 127 127 127 127 127 128 128 128 127 127 127 127 127 127 127 126 126 126 127 127 126 126 126 127 127 127 127 127 127 127 127 127 127 127 127 127 127 127 128 128 127 127 128 128 127 126 126 127 127 128 128 128 127 126 125 125 126 126 125 126 127 128 127 125 125 128 131 128 122 118 119 121 122 124 125 126 126 126 126 126 126 126 126 126 128 129 129 128 127 127 127 126 126 126 126 126 127 127 126 126 127 127 127 128 128 128 129 129 129 128 127 126 125 126 126 127 127 127 127 127 127 127 127 126 126 126 127 126 126 126 126 126 125 125 125 125 126 126 126 126 126 127 127 128 129 129 129 129 128 126 125 125 126 126 126 127 127 126 126 126 126 127 127 126 127 127 127 127 128 128 129 129 129 129 129 128 128 128 127 126 126 126 127 128 128 128 127 126 126 126 127 127 127 126 127 127 127 127 127 127 127 127 126 126 127 127 127 128 129 129 128 127 127 127 127 127 127 127 127 127 127 127 127 127 127 127 127 127 127 127 127 127 127 127 127 127 127 127 127 127 127 127 127 127 127 127 127
127 127 127 127 127 126 126 126 126 126 127 127 127 127 127 126 126 126 126 126 126 126 127 127 128 128 127 127 127 127 127 127 128 128 128 128 128 128 128 128 128 128 128 127 127 127 128 127 127 126 126 127 128 128 127 127 127 126 125 125 125 125 125 126 127 126 125 127 130 128 122 118 118 121 124 124 125 125 125 125 126 126 126 126 126 127 128 128 127 127 127 127 127 127 126 125 125 125 126 126 127 126 126 126 126 126 126 126 126 126 126 126 127 127 127 126 126 126 127 127 127 127 127 127 128 128 128 127 127 127 127 127 127 128 128 127 126 126 126 126 126 126 126 126 126 126 126 126 126 127 127 127 126 126 125 125 125 125 126 126 126 126 126 126 126 126 126 126 127 127 127 127 127 128 129 129 127 127 127 128 128 128 127 126 126 127 127 127 128 128 127 127 127 127 127 127 127 127 127 127 127 127 127 127 127 127 126 126 126 127 128 129 128 128 127 127 127 127 127 127 127 127 127 127 127 127 127 127 127 127 127 127 127 127 127 128 128 128 128 128 127 127 127 127 127 127 127 128 128 127
127 128 128 128 127 127 126 126 126 126 127 127 127 127 127 126 126 125 125 126 126 126 127 128 129 129 128 127 128 128 127 127 127 127 127 128 128 128 127 128 128 127 127 127 127 127 127 127 127 127 127 127 127 127 127 128 127 127 126 125 125 126 127 126 126 126 126 129 130 125 120 120 122 124 125 125 125 125 125 125 125 126 127 127 127 127 127 126 126 126 126 126 127 127 127 126 126 126 128 128 128 127 126 125 125 125 125 125 125 125 126 126 127 127 127 127 127 127 127 127 127 127 127 127 127 127 128 128 127 127 127 127 128 129 129 129 128 128 127 127 126 126 126 126 126 126 125 125 125 126 126 127 127 127 127 128 128 127 126 126 126 126 126 126 126 127 127 126 126 126 127 127 127 128 127 127 127 127 127 127 127 128 128 127 127 127 127 127 127 127 127 127 127 127 126 126 126 127 127 127 127 127 127 127 127 127 126 125 126 126 126 126 126 127 127 128 127 127 128 128 128 127 127 127 127 127 127 126 126 126 127 128 128 128 128 128 128 128 127 127 127 127 127 127 127 127 128 128 128 128
128 128 128 127 127 127 127 127 127 128 128 129 129 129 128 127 127 126 126 126 126 126 127 127 127 127 128 128 128 128 128 127 127 127 127 127 127 127 127 127 127 127 127 127 127 127 127 127 127 127 127 126 126 126 126 126 126 126 126 126 126 127 127 127 126 126 128 129 126 120 119 121 124 125 125 125 125 126 127 128 127 126 126 127 128 129 128 126 125 126 127 127 127 127 127 127 127 127 127 128 128 127 127 127 126 126 126 126 126 126 126 127 129 129 128 128 129 129 128 128 128 127 127 127 127 126 127 127 127 126 127 127 127 126 127 128 128 128 127 127 127 127 127 127 127 127 126 126 126 126 126 127 127 127 128 128 128 128 127 127 127 127 127 126 126 127 128 128 127 126 126 126 126 127 127 128 128 128 127 127 127 128 128 128 127 127 127 127 127 127 128 128 127 126 126 126 126 127 127 127 127 127 127 126 126 126 126 126 126 125 125 125 126 127 127 128 128 128 128 127 127 127 127 127 127 127 126 126 126 126 127 127 127 127 127 127 127 126 126 126 127 129 129 128 127 127 127 127 127 127
127 128 128 127 127 127 127 127 127 127 127 127 128 128 128 127 127 128 127 127 127 127 127 127 126 127 127 127 127 127 127 128 127 127 127 127 127 127 127 127 127 127 127 127 128 127 127 127 127 127 126 126 126 126 125 125 125 126 126 126 127 126 126 125 124 125 127 126 123 121 122 124 125 125 126 125 125 126 127 128 129 128 127 127 128 129 129 128 128 127 127 128 127 127 127 127 127 127 127 127 127 128 128 128 128 127 127 127 127 127 127 128 128 128 128 128 129 129 128 127 128 128 128 128 128 127 127 127 127 126 126 126 126 126 126 126 126 126 126 126 126 127 127 127 127 127 127 126 126 126 126 126 126 126 126 125 125 126 126 127 127 127 127 127 126 127 128 128 127 127 126 126 126 126 127 127 128 127 127 127 127 127 127 127 127 127 127 127 127 128 128 128 128 128 128 128 127 127 127 127 127 127 127 127 126 126 126 126 127 126 126 126 126 126 127 127 127 127 127 127 127 126 127 127 127 127 126 126 127 127 128 127 126 126 125 125 126 126 126 127 128 128 129 128 127 127 127 126 126 126
126 126 126 126 127 127 127 127 126 126 126 125 125 125 126 127 127 128 128 128 127 127 127 127 127 127 127 127 127 127 128 128 127 127 127 126 126 126 127 127 127 127 127 127 127 127 127 127 127 127 127 127 126 126 126 126 127 127 127 127 126 125 125 124 124 124 124 123 123 124 125 125 124 124 125 126 126 125 126 126 127 128 128 127 126 126 127 128 129 128 128 128 128 128 128 128 128 129 128 127 127 127 127 128 129 129 128 128 129 129 128 127 126 125 126 127 126 126 126 126 126 127 127 127 127 127 128 127 127 127 127 126 126 126 126 126 126 126 126 127 127 127 127 127 127 127 127 126 126 126 126 126 126 126 126 125 125 125 126 126 126 126 127 127 127 127 126 126 127 127 127 127 127 126 126 126 127 127 127 126 126 125 126 127 127 127 127 128 127 127 127 127 127 128 129 129 129 128 128 127 127 127 127 128 127 127 127 127 127 127 127 127 127 126 126 126 127 127 127 127 127 127 127 128 128 128 127 127 128 128 128 127 127 126 126 126 126 126 127 127 127 126 126 127 128 127 127 127 126 127
126 126 126 126 127 127 127 127 127 127 127 127 126 126 127 127 128 129 129 129 128 127 128 128 128 128 127 127 126 127 128 128 127 127 127 127 127 127 127 127 127 127 127 127 127 127 127 127 127 127 128 128 128 128 128 128 128 127 127 127 127 126 126 126 126 125 123 122 122 124 125 125 125 125 125 126 126 126 126 126 126 127 127 127 127 126 127 127 127 127 128 128 128 128 128 128 128 128 127 127 126 126 127 128 129 129 129 129 129 129 128 127 126 126 126 126 127 127 127 126 125 125 125 126 126 127 127 128 128 127 127 127 127 127 127 127 127 127 128 128 128 127 128 128 128 127 127 127 127 127 127 127 127 127 127 127 126 126 127 126 126 126 126 126 126 126 125 126 127 127 128 128 127 127 126 125 126 126 126 126 126 126 127 127 127 127 127 127 127 127 126 126 127 128 129 129 129 129 129 130 130 130 129 128 127 127 127 127 127 127 127 127 127 127 126 126 126 126 126 126 127 127 128 128 128 128 129 129 128 127 127 127 127 127 127 127 127 127 127 127 126 125 125 126 127 127 127 127 127 127
127 127 127 128 129 129 129 128 127 128 128 128 129 129 128 127 128 128 128 128 128 128 128 128 127 127 126 126 126 127 127 127 127 127 127 127 127 127 127 127 126 126 126 127 127 127 127 126 126 127 127 127 127 128 128 127 127 127 127 127 127 127 127 126 126 126 125 124 125 126 127 127 127 126 126 126 127 127 127 128 127 127 127 127 127 127 127 127 127 127 127 127 127 128 127 127 126 126 126 126 128 128 127 127 127 127 128 128 127 126 126 126 127 127 127 127 127 127 127 127 126 126 126 127 128 127 127 128 128 127 127 127 128 128 128 128 128 128 128 128 128 128 128 128 128 128 128 128 128 128 127 127 127 127 128 128 127 127 127 127 127 126 126 126 126 126 126 126 127 127 127 127 127 126 126 125 125 125 125 126 126 127 127 127 127 127 127 127 127 127 127 127 127 127 128 128 129 129 129 129 129 129 128 127 127 127 127 127 127 127 127 127 127 127 127 126 126 126 126 126 127 127 127 127 127 127 128 128 127 127 127 127 127 127 128 128 128 127 127 126 126 126 126 126 126 126 126 126 127 127
127 127 127 128 128 129 128 128 127 127 127 128 128 128 128 127 126 125 125 126 127 127 127 126 126 126 126 127 127 127 126 126 126 127 127 127 127 127 127 127 127 126 126 126 127 127 127 127 127 127 126 126 126 126 126 127 127 127 127 126 126 125 126 127 127 127 127 128 128 127 127 127 126 126 127 127 127 127 128 128 128 127 127 128 128 128 127 127 127 127 127 127 127 127 127 127 127 126 127 128 128 128 128 127 126 126 126 126 126 126 126 126 127 127 128 127 126 126 127 128 128 127 128 128 128 127 127 127 127 127 127 127 127 127 127 127 127 127 127 127 127 127 127 127 127 127 127 128 128 128 128 128 128 127 127 127 127 127 127 127 127 127 127 127 127 127 127 127 126 126 126 126 126 127 128 129 128 127 126 126 127 127 127 127 127 128 128 127 127 127 127 127 127 127 127 127 127 127 127 126 125 125 126 127 127 127 127 127 127 127 127 127 127 127 127 127 127 126 126 126 126 126 126 126 126 126 127 127 127 127 127 127 127 127 127 127 127 127 126 126 126 126 127 127 127 126 126 126 127 127
127 127 127 127 126 126 126 127 127 127 127 126 125 125 126 127 126 125 125 126 126 127 126 125 126 126 127 127 127 126 126 126 127 127 127 127 127 127 127 127 127 127 127 127 126 126 126 127 127 127 127 127 127 126 126 127 127 127 127 127 126 126 126 126 127 127 127 128 127 126 125 125 126 127 127 127 127 127 128 127 127 126 127 127 128 128 127 126 126 127 128 128 127 127 127 127 127 127 128 128 127 127 127 127 126 126 126 126 126 127 127 128 127 127 127 127 126 126 127 128 128 128 128 127 127 127 127 126 126 127 127 127 127 127 127 127 127 127 127 127 127 127 127 127 127 127 127 127 127 127 127 127 127 127 127 127 127 127 127 127 127 127 127 127 127 127 127 127 127 126 126 126 126 127 128 129 128 128 127 127 127 127 127 127 127 127 127 127 127 126 126 126 126 126 126 127 127 127 127 125 125 125 126 127 127 127 127 127 127 127 127 127 127 127 127 127 127 127 127 127 127 127 126 126 126 127 127 127 128 128 128 127 127 127 126 126 126 126 127 127 127 127 127 127 127 127 127 127 127 127
127 128 128 127 127 126 126 127 128 128 127 127 126 126 127 127 127 127 127 127 127 127 127 127 127 127 127 127 127 127 126 126 126 127 128 128 127 127 127 128 128 128 128 127 126 125 126 126 127 127 127 126 126 126 127 127 127 127 127 128 128 128 128 127 127 127 127 126 125 125 125 126 127 127 127 128 128 128 128 127 126 126 126 126 126 126 127 126 127 128 128 128 128 129 129 129 128 128 127 127 127 127 127 127 127 127 127 127 127 127 127 128 128 128 129 128 127 126 126 127 128 129 129 128 127 127 127 126 126 127 127 127 127 127 127 127 127 127 127 127 127 127 128 127 127 127 127 127 127 127 127 127 127 127 127 127 127 127 127 127 127 127 127 127 127 127 127 127 127 127 127 127 126 126 126 125 125 126 128 129 129 127 127 127 127 126 126 126 126 125 125 125 126 126 126 126 127 127 128 128 128 127 127 127 127 127 127 127 127 127 127 127 127 127 127 127 127 127 127 127 127 127 127 127 127 127 127 128 128 128 128 127 127 127 126 126 126 126 126 127 127 127 127 127 127 127 127 128 127 127
127 127 127 127 127 126 126 126 127 127 127 126 126 127 127 128 129 130 130 129 128 128 128 129 129 128 128 127 127 127 127 127 127 126 126 127 127 127 128 128 128 128 127 128 128 127 127 128 128 127 126 126 126 126 126 127 127 127 127 128 128 128 128 128 128 127 127 125 125 126 127 127 126 126 126 127 128 128 127 127 127 128 127 126 126 126 126 127 128 128 127 127 128 129 129 129 128 128 127 127 127 127 126 127 127 127 127 127 127 127 127 128 128 129 129 128 128 127 127 127 127 128 128 128 127 126 126 127 127 127 127 127 126 126 126 127 127 127 127 127 127 128 127 127 127 127 127 127 127 127 127 128 127 127 127 127 127 127 127 126 126 126 127 127 127 127 127 127 127 127 127 127 127 127 126 125 126 127 128 128 128 127 126 126 126 126 126 126 126 126 126 126 126 126 125 125 125 126 128 129 129 128 128 127 127 127 127 127 127 126 126 126 126 126 126 126 127 127 127 126 126 126 127 127 128 127 127 127 126 126 127 127 127 126 126 126 126 127 127 127 127 127 127 127 127 127 127 127 127 127
127 126 126 126 127 127 127 127 127 127 127 127 127 127 128 128 129 129 129 129 128 128 128 128 127 127 127 127 127 128 128 128 128 127 126 126 127 127 127 127 128 127 127 127 128 129 128 128 128 127 127 127 127 127 127 127 127 127 127 127 128 128 127 127 127 126 126 126 127 128 127 126 126 126 126 126 126 126 126 127 128 129 128 128 128 128 128 127 127 127 127 127 127 127 127 127 127 127 127 127 126 126 127 127 128 128 127 127 127 127 128 129 128 128 127 127 128 128 128 128 127 127 127 127 127 127 127 127 127 127 127 126 126 126 126 127 127 127 127 128 129 129 128 127 127 127 127 127 128 128 128 128 128 128 127 127 127 127 127 127 127 127 127 128 127 127 127 127 127 127 127 127 127 127 127 127 127 127 128 127 127 127 127 128 128 128 128 129 129 129 128 128 127 127 126 125 125 125 126 127 127 127 127 127 127 126 126 127 127 126 126 125 125 125 126 126 126 126 126 126 127 127 128 127 127 127 127 126 126 126 126 126 127 126 126 127 127 128 127 127 127 126 126 127 127 127 127 127 127 127
127 127 126 126 127 127 127 127 127 127 127 127 127 127 127 127 127 127 127 128 128 127 127 126 125 125 126 126 127 127 128 128 128 127 127 126 127 127 127 127 127 127 127 127 127 128 128 126 126 127 127 127 127 127 127 128 127 127 127 127 127 127 127 127 127 126 126 126 126 126 126 126 127 127 128 128 126 126 127 127 127 128 128 128 128 128 127 127 126 126 126 126 127 126 126 126 127 127 126 126 126 128 128 128 128 128 127 127 127 128 128 128 126 126 126 126 127 128 128 128 127 127 127 127 127 128 128 128 127 127 127 127 127 129 129 129 130 130 129 129 129 129 128 127 127 127 127 127 127 127 127 127 127 127 127 127 127 127 128 128 128 128 128 128 127 127 127 127 127 127 127 127 127 127 127 127 127 127 127 127 128 128 128 129 128 128 129 129 129 129 128 128 128 128 128 127 127 126 126 126 127 127 127 127 127 127 127 127 127 127 127 127 127 127 127 127 126 126 127 128 128 128 127 127 127 127 127 127 126 126 127 127 126 126 126 127 127 127 126 126 126 126 126 127 127 127 127 127 127 127
127 127 127 127 127 127 127 127 127 127 128 129 130 128 127 127 127 127 127 127 127 128 127 126 126 127 127 127 127 126 127 127 127 128 128 127 127 127 127 126 126 126 126 126 127 127 127 127 126 126 126 127 127 127 128 128 128 128 128 127 127 127 127 126 126 127 127 125 124 124 125 126 127 128 128 128 127 127 127 127 126 127 127 127 126 125 126 127 127 127 126 126 128 128 127 126 126 126 126 126 126 127 127 127 127 126 126 126 127 127 127 127 127 126 125 125 126 127 127 127 127 127 126 126 127 127 128 128 128 128 128 128 129 129 129 129 129 129 129 128 127 126 126 127 127 127 127 127 126 126 126 126 126 126 127 127 127 128 128 128 128 128 128 127 127 127 128 128 127 127 127 127 127 127 127 127 127 127 127 126 126 127 127 126 126 127 127 126 126 126 127 128 129 129 129 128 128 127 127 126 127 127 128 128 128 128 128 128 128 128 128 129 129 128 128 128 128 128 128 127 127 126 126 126 127 127 127 127 126 127 127 127 126 126 126 126 126 126 126 126 126 127 127 127 127 126 126 126 127 127
128 128 128 127 127 127 127 127 127 128 129 130 129 129 128 128 127 127 126 126 127 127 127 127 128 129 129 129 128 127 126 126 126 127 128 128 128 127 126 126 125 125 126 127 127 127 127 127 127 127 127 127 127 127 127 127 127 127 127 127 126 127 127 127 127 127 126 125 125 125 125 126 127 127 126 126 127 127 126 126 126 126 127 126 126 125 126 127 128 128 127 127 127 128 128 127 126 126 126 126 125 125 126 127 128 128 127 127 127 127 127 128 128 127 127 127 127 127 127 126 126 126 125 125 125 125 126 127 128 128 128 128 127 127 126 126 126 126 127 127 126 126 126 127 127 127 127 127 127 127 126 126 126 126 127 127 127 127 127 127 127 128 128 127 127 127 128 127 127 126 126 127 127 127 127 126 126 126 125 125 125 126 126 126 126 126 127 127 126 126 127 128 129 130 129 128 128 127 126 126 126 127 127 127 127 127 127 127 128 128 128 128 128 128 128 128 128 128 127 127 126 126 126 126 126 127 127 127 127 127 127 126 126 126 126 126 126 126 126 127 127 127 127 127 126 126 125 126 126 127
128 128 128 128 128 128 128 128 128 129 129 128 127 127 128 127 127 127 127 127 127 126 126 127 127 128 128 129 128 128 127 127 127 127 127 127 127 127 126 126 126 126 126 127 127 127 127 127 127 128 128 127 127 127 127 126 126 126 126 126 126 127 127 127 127 126 125 125 125 125 125 126 126 126 126 126 127 127 127 126 126 126 126 126 127 127 127 127 128 128 127 127 126 126 127 127 126 127 127 128 129 128 128 128 129 129 129 128 128 127 127 127 128 129 128 127 127 127 127 127 127 126 125 125 125 126 126 127 127 127 127 127 127 126 125 125 125 125 126 126 126 126 126 127 127 127 127 127 127 127 127 127 127 127 127 127 127 127 127 127 127 127 127 127 127 127 126 126 126 126 126 126 127 127 127 127 127 126 126 127 128 128 128 128 128 128 127 127 127 127 128 128 127 127 127 127 127 126 126 126 126 126 126 126 127 127 127 128 128 127 127 127 127 127 127 128 128 127 127 126 126 126 127 127 127 127 127 127 127 127 127 126 126 126 126 127 126 126 126 126 127 127 127 127 126 126 126 127 127 127
126 127 127 128 128 128 128 128 129 128 127 127 127 127 127 128 128 127 127 127 126 126 126 126 126 127 127 127 127 127 127 127 127 127 126 126 126 126 127 127 127 126 126 125 125 125 126 126 127 127 127 127 127 126 126 126 126 127 126 126 126 127 127 127 127 128 128 127 126 126 126 126 126 127 128 128 127 127 126 126 125 125 125 126 127 128 129 128 128 127 127 126 126 126 127 127 127 128 128 129 129 128 128 127 127 127 127 127 127 127 126 126 126 127 127 127 127 127 127 127 127 126 126 126 127 127 126 126 126 126 126 127 127 126 126 126 126 126 126 126 126 126 126 126 126 127 127 127 127 126 127 127 127 127 127 127 126 126 126 126 126 126 126 126 126 126 126 126 126 127 127 127 127 127 127 127 127 127 127 127 128 128 128 129 129 128 127 126 127 127 128 127 126 126 126 126 126 126 127 127 128 128 127 128 129 130 129 128 128 127 127 127 127 127 126 127 127 127 127 126 125 126 126 127 128 128 128 128 128 128 128 127 127 127 127 126 126 126 127 127 127 127 127 127 127 128 128 128 127 127
126 126 127 127 127 127 127 127 127 127 126 127 128 128 129 128 127 127 126 126 126 126 127 127 126 127 127 127 127 126 126 126 125 125 126 126 126 127 127 127 127 126 126 125 125 125 125 126 126 126 126 127 127 126 126 127 127 127 127 126 126 127 127 127 127 128 128 128 128 127 127 127 127 127 127 127 127 127 127 126 126 126 126 126 127 127 128 128 128 127 126 126 126 127 127 128 128 128 129 128 126 125 125 125 125 125 125 126 125 125 125 125 124 124 125 126 126 125 125 126 126 127 127 127 127 126 126 125 125 125 125 126 126 126 127 127 127 127 126 126 127 126 126 126 127 127 127 127 127 127 127 127 127 127 127 127 127 126 126 126 126 126 126 127 127 127 127 127 127 127 127 127 127 127 128 128 127 127 126 126 125 125 126 126 126 126 126 126 126 127 127 126 126 126 126 126 126 127 127 128 128 128 128 128 129 129 129 128 127 127 127 127 127 126 126 126 126 127 128 127 127 126 126 127 127 127 128 128 128 128 128 128 128 128 127 126 126 127 127 127 126 126 126 126 127 128 128 128 127 127
127 127 127 127 128 128 129 128 128 127 127 127 127 128 128 127 126 126 126 126 126 127 127 127 126 126 127 127 127 127 126 125 125 125 126 126 126 127 127 127 126 126 126 126 126 126 126 126 126 126 126 126 126 127 127 126 126 126 126 126 126 126 126 127 127 126 126 126 126 126 127 127 127 126 126 126 126 127 127 127 127 127 127 127 126 125 126 126 127 127 127 127 127 126 126 127 127 127 126 126 125 125 125 125 125 125 125 125 125 125 125 125 125 125 125 126 126 126 126 126 126 127 127 127 127 126 126 125 126 126 126 126 126 126 126 127 127 127 127 127 127 127 127 127 127 127 127 127 127 127 127 127 127 127 127 127 127 127 127 127 127 127 127 127 127 127 127 127 127 127 127 127 127 128 128 128 127 126 126 126 125 125 124 124 125 125 126 126 126 126 126 126 126 126 126 127 127 127 127 127 126 126 127 127 126 126 126 127 127 127 127 126 126 126 126 126 126 127 127 127 127 128 127 127 126 126 127 127 127 127 127 128 129 128 127 126 126 126 126 126 126 125 125 126 127 127 127 127 126 127
128 128 128 128 128 129 129 129 129 128 127 127 127 126 126 126 126 126 126 126 126 127 126 126 126 125 125 125 126 126 126 126 126 126 126 126 126 126 126 126 126 126 126 126 127 126 126 126 126 126 126 126 127 127 127 126 126 126 126 127 126 126 126 126 126 125 125 125 125 126 126 127 127 126 125 126 126 127 127 126 126 126 126 126 125 125 125 126 127 127 127 127 126 126 125 125 125 125 125 125 126 126 126 126 125 125 126 126 126 126 126 126 126 126 126 126 126 126 126 127 127 127 127 127 127 126 126 126 126 126 126 126 126 126 126 126 126 126 126 127 127 127 127 127 127 127 127 127 127 127 127 126 126 127 127 127 127 127 127 127 127 127 126 126 127 127 127 127 127 127 127 127 127 127 127 127 127 127 126 126 126 126 125 125 125 125 126 126 127 127 127 127 127 127 127 127 127 127 127 126 126 126 126 126 126 126 126 127 127 127 126 126 125 126 126 126 126 125 125 126 126 127 126 126 125 125 125 125 125 126 126 126 126 126 126 126 126 126 126 126 126 125 125 125 126 125 125 125 125 126
128 128 128 128 129 128 127 127 127 127 126 126 125 125 125 125 126 127 127 127 127 127 126 126 126 125 124 124 124 125 126 126 126 125 125 125 126 125 125 125 126 126 126 126 127 127 127 126 126 126 126 126 127 127 127 126 126 126 126 127 126 126 126 125 125 125 125 125 126 126 126 127 127 126 126 126 126 126 126 126 126 126 126 126 126 126 126 125 125 126 127 127 127 126 126 126 126 126 126 126 127 127 127 127 127 126 126 126 126 126 126 126 126 126 126 127 127 127 127 127 127 127 127 127 126 126 126 126 126 126 126 126 126 126 127 127 127 127 127 127 127 127 127 127 127 127 126 126 126 127 127 127 127 127 127 127 127 127 127 127 127 127 127 127 127 127 127 127 127 127 127 127 127 127 126 126 127 127 127 127 126 126 126 126 126 126 127 127 127 127 127 128 128 128 128 127 127 127 127 127 127 127 127 127 127 127 127 127 127 127 126 125 126 126 126 126 125 125 126 126 126 126 125 125 124 124 124 124 124 125 125 124 124 124 125 126 126 126 126 126 126 126 126 125 124 124 123 123 125 126
128 128 128 128 128 127 127 126 126 126 125 125 124 124 125 125 126 126 127 127 127 127 126 126 126 126 126 126 126 126 126 125 125 125 125 125 125 125 125 124 125 125 126 126 126 126 126 126 126 126 126 126 126 126 126 127 127 127 127 127 127 126 125 125 125 126 127 127 126 126 126 126 126 126 126 126 126 126 127 127 127 127 127 127 127 127 127 126 125 126 127 127 127 127 127 127 127 127 127 127 127 127 127 127 127 127 127 126 126 126 126 125 125 126 126 126 127 127 127 127 127 127 126 126 127 127 127 127 127 127 127 127 127 128 128 128 128 128 128 128 128 128 127 127 127 127 127 127 127 127 127 127 127 127 126 127 127 127 127 127 127 127 127 127 127 127 127 127 127 127 127 127 127 127 127 127 127 127 127 127 127 127 127 127 127 127 127 127 126 126 126 127 128 129 129 128 127 127 126 126 126 127 127 127 127 126 126 126 127 127 126 126 127 127 127 127 126 126 126 126 126 126 125 125 125 125 125 125 125 125 125 124 124 125 127 127 127 126 126 126 126 126 126 125 125 124 124 125 125 127
128 128 128 128 127 127 126 125 125 125 126 126 126 126 126 126 126 126 126 126 126 126 127 127 127 127 127 127 127 127 126 126 126 126 126 126 126 126 126 125 125 125 126 126 126 126 126 126 126 126 126 126 126 126 126 127 127 127 127 127 127 127 126 126 126 127 127 127 127 127 126 126 126 126 126 127 127 127 127 127 127 127 127 127 127 127 126 126 126 127 127 127 126 126 126 126 126 127 127 127 127 126 127 127 127 127 126 126 126 126 126 126 126 126 125 126 126 127 127 127 127 126 126 126 126 127 127 128 128 128 128 128 128 128 128 127 127 127 127 127 127 127 127 127 127 127 127 127 127 127 127 127 127 127 127 127 127 127 127 127 127 128 128 127 127 126 126 126 127 127 127 127 127 127 127 126 126 126 127 127 127 127 127 127 127 126 126 126 126 126 126 126 126 126 126 126 127 127 126 126 126 126 126 126 126 126 126 126 126 126 127 128 128 128 128 128 127 127 126 126 126 126 127 126 126 126 126 126 127 126 126 126 126 126 126 126 126 126 126 126 126 126 126 126 126 127 127 127 126 127
127 127 127 127 126 126 125 125 125 126 126 126 127 127 127 127 127 127 127 127 127 127 127 127 127 127 127 127 127 126 126 127 127 127 126 126 125 125 126 126 126 126 126 126 126 126 126 126 126 126 126 126 126 126 126 126 127 127 127 127 127 127 127 126 126 126 126 126 127 127 126 125 125 125 126 126 126 126 126 126 126 126 127 127 127 126 125 125 126 126 127 127 127 126 126 126 126 127 127 127 127 127 127 127 127 127 126 126 126 126 127 127 127 126 125 125 125 126 126 126 126 126 126 126 126 126 127 127 127 127 127 127 127 126 126 126 126 126 127 127 127 127 127 127 127 127 127 127 127 127 127 127 127 127 127 126 126 126 127 127 128 128 127 127 126 126 126 126 127 127 127 127 127 126 126 126 127 127 127 128 127 127 127 127 127 126 126 126 126 126 126 126 126 124 124 125 126 126 126 127 126 126 126 126 127 126 126 126 126 126 127 128 128 128 128 127 127 126 126 126 127 127 127 127 127 127 127 127 127 127 127 127 127 126 126 126 126 127 127 127 127 127 127 127 127 128 128 128 128 128
127 126 126 125 125 125 125 125 126 126 126 126 126 127 127 127 127 127 127 127 127 127 127 127 127 127 126 126 125 125 125 126 126 126 126 125 125 125 125 126 126 125 125 125 125 126 126 126 127 127 127 126 126 126 127 126 126 126 126 126 126 127 127 126 126 125 125 125 125 125 125 126 126 126 126 126 126 126 126 126 126 126 126 127 126 126 125 126 126 126 127 127 127 127 127 127 127 126 126 126 126 126 126 126 127 126 126 126 125 125 126 127 127 126 126 125 125 125 125 125 125 125 125 125 126 126 127 127 127 127 126 126 126 125 125 126 126 126 127 127 127 127 127 127 127 127 126 126 127 127 127 127 127 127 127 127 127 127 127 127 128 127 127 126 126 126 126 126 126 126 126 126 126 126 126 127 127 127 127 127 127 127 127 127 127 126 126 126 126 126 126 126 126 125 125 126 126 126 127 127 126 126 126 126 126 126 126 125 125 125 125 126 126 126 126 126 126 126 127 128 128 128 128 127 127 127 127 126 126 126 126 126 127 127 127 127 127 127 127 127 127 127 127 127 127 127 127 128 129 128
125 125 125 125 125 125 126 126 126 126 126 126 126 127 126 126 126 127 127 127 127 126 126 126 126 126 126 126 126 125 125 126 126 126 126 126 126 126 126 126 126 126 126 126 126 126 126 126 126 127 127 127 128 128 128 128 127 126 125 125 125 126 126 126 126 126 126 126 126 125 125 126 126 126 126 126 126 126 126 126 126 126 127 127 126 127 127 127 127 126 126 126 127 127 127 127 127 127 127 126 126 126 126 126 126 126 126 126 126 126 127 127 127 128 128 128 127 127 126 126 126 126 126 126 127 126 126 126 126 126 126 126 126 126 126 126 127 127 127 127 127 127 127 127 127 126 126 125 125 125 126 126 126 126 127 127 127 127 127 127 127 127 127 127 126 126 126 127 126 126 125 125 125 125 126 126 126 126 126 126 126 127 127 127 127 127 127 127 127 126 126 126 126 126 127 126 126 127 127 126 126 126 126 126 126 125 125 124 124 124 124 124 125 125 125 126 126 126 127 128 128 128 127 127 127 127 126 126 125 125 125 126 126 127 127 127 127 127 127 127 127 127 127 126 126 126 126 127 126 126
126 125 125 126 126 127 127 127 127 127 127 127 127 126 126 126 127 127 127 127 127 126 125 126 126 127 127 127 127 127 126 126 126 126 127 127 127 127 128 128 128 127 127 127 127 127 126 126 126 127 128 128 128 128 128 128 128 127 127 126 125 125 126 127 127 127 127 127 127 126 126 126 126 126 126 126 126 126 126 126 127 127 127 127 127 127 128 127 126 126 126 127 127 127 127 127 128 127 127 127 127 127 127 127 126 126 126 126 127 127 127 127 128 129 129 129 129 128 128 128 128 128 128 127 127 126 126 125 125 126 126 126 126 127 127 127 127 127 127 126 126 126 126 126 126 126 125 125 125 125 125 126 126 127 127 127 127 126 126 127 127 127 127 127 127 126 126 126 127 126 126 126 126 126 126 126 126 126 125 125 126 127 127 127 126 127 127 127 127 127 127 127 127 127 127 127 127 127 127 127 127 127 127 126 126 125 125 125 125 125 125 124 124 125 126 126 126 127 127 127 127 126 127 127 127 127 126 126 126 126 127 127 127 127 127 127 127 127 127 127 127 127 126 126 126 127 127 126 126 127
122 120 120 120 121 121 121 122 121 121 121 122 122 122 122 122 122 121 121 121 121 122 122 123 123 122 122 123 123 124 125 125 124 125 125 126 126 126 126 126 126 125 125 125 125 125 125 124 124 124 124 123 123 123 123 123 123 123 124 124 123 123 122 122 122 123 123 123 123 124 125 125 124 124 123 123 123 123 123 123 123 123 122 122 122 123 123 123 122 122 121 121 121 121 121 121 121 121 121 122 122 122 122 122 122 123 124 124 124 124 123 123 123 123 124 124 123 123 123 123 123 123 123 123 123 123 123 123 123 123 123 123 123 123 122 122 121 121 121 121 121 121 121 122 122 122 123 123 123 123 123 123 122 122 122 122 122 122 122 121 121 121 121 122 123 124 123 122 122 123 123 123 124 123 123 122 122 123 123 123 123 122 122 122 122 122 122 122 122 122 122 121 121 121 121 122 122 122 122 122 123 123 123 123 122 123 124 125 125 126 126 125 125 125 125 125 126 126 126 126 125 126 126 126 126 126 127 127 127 127 127 127 127 127 127 127 127 127 127 127 127 127 127 127 127 127 127 127 125 124
